(GRBL CNC Controller)
G90
G17
G21
M3 S18000
G4 P2
(POST=GRBL;UNITS=mm;DATE=2026-01-15T18:28:19.577672+00:00)
G0 Z5.0000
G0 X97.0000 Y47.0000
G1 Z-3.0000 F1200.0
G1 X94.9054 Y47.0000 F1200.0
(FEED_HINT START scale=0.600)
G1 X94.9458 Y46.9109 F720.0
G1 X95.0082 Y46.9366 F720.0
G1 X95.0722 Y46.9582 F720.0
G1 X95.1375 Y46.9753 F720.0
G1 X95.2038 Y46.9880 F720.0
G1 X95.2709 Y46.9962 F720.0
G1 X95.3383 Y46.9998 F720.0
G1 X95.3363 Y47.0976 F720.0
G1 X92.8240 Y45.8978 F720.0
G1 X93.5159 Y45.7706 F720.0
G1 X93.5426 Y45.8806 F720.0
G1 X93.5816 Y45.9868 F720.0
G1 X93.6323 Y46.0880 F720.0
G1 X93.6942 Y46.1828 F720.0
G1 X93.7664 Y46.2700 F720.0
G1 X93.8479 Y46.3484 F720.0
G1 X93.3897 Y46.8822 F720.0
G1 X93.6420 Y43.8156 F720.0
G1 X93.3105 Y44.1076 F720.0
G1 X93.3777 Y44.1927 F720.0
G1 X93.4352 Y44.2846 F720.0
G1 X93.4824 Y44.3822 F720.0
G1 X93.5189 Y44.4842 F720.0
G1 X93.5440 Y44.5897 F720.0
G1 X93.5576 Y44.6972 F720.0
G1 X93.9982 Y44.6657 F720.0
G1 X92.0313 Y43.0257 F720.0
G1 X91.4092 Y42.5070 F720.0
G1 X90.7888 Y41.9863 F1024.2
G1 X90.1598 Y41.4759 F720.0
G1 X89.4318 Y41.1207 F720.0
G1 X88.6974 Y40.7791 F720.0
G1 X87.9543 Y40.4566 F904.9
G1 X87.2027 Y40.1549 F720.0
G1 X86.4087 Y39.9943 F720.0
G1 X85.6106 Y39.8564 F720.0
G1 X84.8100 Y39.7331 F896.1
G1 X84.0090 Y39.6128 F720.0
G1 X83.2281 Y39.3977 F720.0
G1 X82.4553 Y39.1549 F720.0
G1 X81.6998 Y38.8629 F720.0
G1 X80.8044 Y38.4386 F720.0
G1 X80.8494 Y38.3939 F720.0
G1 X80.8900 Y38.4326 F720.0
G1 X80.9326 Y38.4689 F720.0
G1 X80.9772 Y38.5028 F720.0
G1 X81.0237 Y38.5342 F720.0
G1 X81.0718 Y38.5629 F720.0
G1 X81.1215 Y38.5888 F720.0
G1 X81.0937 Y38.6458 F720.0
G1 X80.2078 Y37.7328 F720.0
G1 X80.6473 Y36.7339 F720.0
G1 X81.3828 Y35.0620 F720.0
G1 X82.8685 Y36.1245 F720.0
G1 X81.7038 Y36.2479 F720.0
G1 X81.7442 Y36.1389 F720.0
G1 X81.8130 Y36.1616 F720.0
G1 X81.8833 Y36.1792 F720.0
G1 X81.9546 Y36.1918 F720.0
G1 X82.0267 Y36.1991 F720.0
G1 X82.0991 Y36.2012 F720.0
G1 X82.1715 Y36.1980 F720.0
G1 X82.1808 Y36.3140 F720.0
G1 X81.0934 Y35.8787 F720.0
G1 X80.2360 Y35.5365 F720.0
G1 X78.7622 Y34.9481 F720.0
G1 X78.9309 Y34.8327 F720.0
G1 X78.9844 Y34.9039 F720.0
G1 X79.0440 Y34.9701 F720.0
G1 X79.1093 Y35.0307 F720.0
G1 X79.1798 Y35.0853 F720.0
G1 X79.2548 Y35.1333 F720.0
G1 X79.3337 Y35.1745 F720.0
G1 X79.2474 Y35.3598 F720.0
G1 X78.2559 Y33.7184 F720.0
G1 X78.1608 Y33.9629 F720.0
G1 X78.2487 Y34.0021 F720.0
G1 X78.3324 Y34.0495 F720.0
G1 X78.4112 Y34.1048 F720.0
G1 X78.4843 Y34.1673 F720.0
G1 X78.5510 Y34.2366 F720.0
G1 X78.6108 Y34.3120 F720.0
G1 X78.8240 Y34.1590 F720.0
G1 X77.3090 Y33.7037 F720.0
G1 X76.1138 Y33.6421 F720.0
G1 X73.8089 Y33.4413 F720.0
G1 X73.0020 Y33.3711 F1006.3
G1 X72.1939 Y33.3154 F772.8
G1 X71.3842 Y33.2922 F772.8
G1 X70.5742 Y33.2959 F772.8
G1 X69.7648 Y33.3254 F845.7
G1 X68.9562 Y33.3733 F860.3
G1 X68.1485 Y33.4342 F957.4
G1 X67.3411 Y33.4992 F720.0
G1 X66.5652 Y33.7318 F720.0
G1 X65.7937 Y33.9786 F720.0
G1 X65.0268 Y34.2391 F720.0
G1 X64.2256 Y34.3585 F720.0
G1 X64.4673 Y33.5854 F720.0
G1 X64.8477 Y32.8703 F720.0
G1 X65.1151 Y32.1057 F720.0
G1 X65.3319 Y31.3253 F720.0
G1 X65.3582 Y30.5157 F720.0
G1 X65.3759 Y29.7059 F720.0
G1 X65.3630 Y28.8960 F720.0
G1 X65.3048 Y28.0881 F720.0
G1 X65.1825 Y27.2874 F720.0
G1 X64.9932 Y26.4998 F720.0
G1 X64.7220 Y25.7365 F720.0
G1 X64.4129 Y24.9878 F720.0
G1 X63.6709 Y24.6630 F720.0
G1 X62.9244 Y24.3487 F720.0
G1 X62.1669 Y24.0618 F767.7
G1 X61.3984 Y23.8058 F720.0
G1 X60.6178 Y23.5895 F720.0
G1 X59.8272 Y23.4131 F720.0
G1 X59.0276 Y23.2841 F720.0
G1 X58.2246 Y23.1774 F720.0
G1 X57.4481 Y22.9471 F720.0
G1 X55.7425 Y22.4413 F720.0
G1 X57.8478 Y21.6169 F720.0
G1 X57.6986 Y21.9760 F720.0
G1 X57.5987 Y21.9406 F720.0
G1 X57.4957 Y21.9160 F720.0
G1 X57.3907 Y21.9024 F720.0
G1 X57.2848 Y21.8999 F720.0
G1 X57.1792 Y21.9087 F720.0
G1 X57.0752 Y21.9286 F720.0
G1 X56.9820 Y21.5511 F720.0
G1 X58.9385 Y22.6842 F720.0
G1 X57.2724 Y23.3077 F720.0
G1 X55.4183 Y23.5679 F720.0
G1 X54.0858 Y23.7548 F720.0
G1 X54.1283 Y23.6349 F720.0
G1 X54.2000 Y23.6573 F720.0
G1 X54.2731 Y23.6742 F720.0
G1 X54.3473 Y23.6856 F720.0
G1 X54.4221 Y23.6914 F720.0
G1 X54.4971 Y23.6916 F720.0
G1 X54.5720 Y23.6862 F720.0
G1 X54.5860 Y23.8126 F720.0
G1 X53.3313 Y23.3266 F720.0
G1 X53.8877 Y22.7380 F720.0
G1 X54.6298 Y23.0627 F720.0
G1 X55.3532 Y23.4271 F720.0
G1 X57.1877 Y24.3513 F720.0
G1 X57.9429 Y24.0583 F720.0
G1 X58.6887 Y23.7424 F720.0
G1 X59.4126 Y23.3789 F720.0
G1 X60.1234 Y22.9904 F720.0
G1 X60.7633 Y22.4939 F720.0
G1 X61.3641 Y21.9505 F720.0
G1 X61.8712 Y21.3189 F720.0
G1 X62.3224 Y20.6463 F720.0
G1 X62.6329 Y19.8981 F720.0
G1 X62.8707 Y19.1238 F720.0
G1 X62.9481 Y18.3176 F720.0
G1 X62.9375 Y17.5076 F720.0
G1 X62.7253 Y16.7259 F720.0
G1 X62.4672 Y15.9581 F720.0
G1 X62.1116 Y15.2304 F720.0
G1 X61.7043 Y14.5302 F720.0
G1 X60.9016 Y14.4218 F720.0
G1 X60.0985 Y14.3162 F720.0
G1 X59.2945 Y14.2176 F1105.8
G1 X58.4900 Y14.1234 F905.5
G1 X57.6832 Y14.0515 F905.5
G1 X56.8754 Y13.9922 F807.9
G1 X56.0660 Y13.9625 F807.9
G1 X55.2560 Y13.9501 F720.0
G1 X54.4466 Y13.9792 F720.0
G1 X53.6381 Y14.0287 F720.0
G1 X52.8335 Y14.1220 F720.0
G1 X52.0319 Y14.2388 F720.0
G1 X51.2402 Y14.4100 F720.0
G1 X50.4514 Y14.5938 F720.0
G1 X49.6691 Y14.8039 F842.8
G1 X48.6789 Y15.0887 F720.0
G1 X48.7383 Y15.1599 F720.0
G1 X48.7904 Y15.1193 F720.0
G1 X48.8451 Y15.0822 F720.0
G1 X48.9021 Y15.0489 F720.0
G1 X48.9611 Y15.0193 F720.0
G1 X49.0220 Y14.9937 F720.0
G1 X49.0845 Y14.9722 F720.0
G1 X49.0572 Y14.8836 F720.0
G1 X48.2783 Y15.5580 F720.0
G1 X47.6729 Y16.0961 F720.0
G1 X47.0824 Y16.6506 F908.7
G1 X46.4999 Y17.2135 F720.0
G1 X45.9556 Y17.8133 F720.0
G1 X45.4300 Y18.4297 F720.0
G1 X44.9456 Y19.0788 F720.0
G1 X44.4839 Y19.7443 F720.0
G1 X44.0756 Y20.4439 F720.0
G1 X43.6936 Y21.1582 F720.0
G1 X43.3678 Y21.8998 F720.0
G1 X43.0725 Y22.6540 F720.0
G1 X42.8496 Y23.4327 F720.0
G1 X42.6444 Y24.2163 F720.0
G1 X42.4769 Y25.0088 F720.0
G1 X42.3296 Y25.8053 F720.0
G1 X42.9892 Y26.2754 F720.0
G1 X43.6539 Y26.7384 F720.0
G1 X44.3291 Y27.1858 F951.4
G1 X45.0099 Y27.6247 F720.0
G1 X45.7148 Y28.0238 F720.0
G1 X46.4304 Y28.4033 F720.0
G1 X47.1672 Y28.7397 F720.0
G1 X47.9143 Y29.0526 F720.0
G1 X48.6823 Y29.3101 F720.0
G1 X49.4588 Y29.5407 F720.0
G1 X50.2500 Y29.7143 F720.0
G1 X51.0472 Y29.8573 F720.0
G1 X51.8541 Y29.9290 F720.0
G1 X52.6622 Y29.9836 F720.0
G1 X53.4720 Y30.0024 F720.0
G1 X52.6443 Y30.3708 F720.0
G1 X51.9043 Y30.7002 F720.0
G1 X50.7760 Y30.9270 F720.0
G1 X50.8579 Y30.7333 F720.0
G1 X50.9422 Y30.7646 F720.0
G1 X51.0290 Y30.7881 F720.0
G1 X51.1175 Y30.8038 F720.0
G1 X51.2071 Y30.8114 F720.0
G1 X51.2970 Y30.8110 F720.0
G1 X51.3865 Y30.8025 F720.0
G1 X51.4158 Y31.0108 F720.0
G1 X50.2044 Y30.4125 F720.0
G1 X50.2618 Y30.3609 F720.0
G1 X50.3040 Y30.4051 F720.0
G1 X50.3488 Y30.4467 F720.0
G1 X50.3960 Y30.4854 F720.0
G1 X50.4455 Y30.5212 F720.0
G1 X50.4971 Y30.5539 F720.0
G1 X50.5507 Y30.5834 F720.0
G1 X50.5155 Y30.6521 F720.0
G1 X49.8518 Y29.8905 F720.0
G1 X49.3037 Y29.2940 F720.0
G1 X48.7470 Y28.7057 F720.0
G1 X48.1528 Y28.1552 F720.0
G1 X47.5501 Y27.6140 F720.0
G1 X46.9304 Y27.0925 F858.1
G1 X46.3020 Y26.5813 F720.0
G1 X45.6401 Y26.1145 F720.0
G1 X44.9697 Y25.6598 F720.0
G1 X44.2826 Y25.2308 F796.4
G1 X43.5872 Y24.8155 F720.0
G1 X42.8564 Y24.4663 F720.0
G1 X42.1216 Y24.1253 F720.0
G1 X41.3790 Y23.8019 F945.9
G1 X40.6323 Y23.4880 F720.0
G1 X39.8697 Y23.2149 F720.0
G1 X39.1032 Y22.9530 F720.0
G1 X38.3288 Y22.7155 F862.8
G1 X37.5505 Y22.4913 F720.0
G1 X36.9388 Y23.0223 F720.0
G1 X36.3340 Y23.5612 F720.0
G1 X35.7446 Y24.1168 F901.2
G1 X35.1637 Y24.6812 F720.0
G1 X34.6198 Y25.2815 F720.0
G1 X34.0861 Y25.8908 F720.0
G1 X33.5751 Y26.5193 F808.7
G1 X33.0768 Y27.1579 F720.0
G1 X32.6961 Y27.8728 F720.0
G1 X32.3429 Y28.6018 F720.0
G1 X32.0507 Y29.3572 F720.0
G1 X31.7922 Y30.1249 F720.0
G1 X31.6704 Y30.9256 F720.0
G1 X31.5832 Y31.7309 F720.0
G1 X31.5713 Y32.5408 F720.0
G1 X31.6001 Y33.3503 F720.0
G1 X31.7934 Y34.1369 F720.0
G1 X32.0207 Y34.9144 F720.0
G1 X33.3228 Y35.0648 F720.0
G1 X34.1274 Y35.1578 F720.0
G1 X34.9333 Y35.2395 F1051.1
G1 X35.7398 Y35.3147 F811.4
G1 X36.5485 Y35.3605 F811.4
G1 X37.3576 Y35.3993 F811.4
G1 X38.1672 Y35.4234 F1006.2
G1 X38.9770 Y35.4398 F781.0
G1 X39.7869 Y35.4243 F781.0
G1 X40.5965 Y35.4005 F781.0
G1 X41.4055 Y35.3594 F971.7
G1 X42.2139 Y35.3093 F720.0
G1 X43.0188 Y35.2183 F720.0
G1 X43.8231 Y35.1225 F720.0
G1 X44.6262 Y35.0171 F1070.4
G1 X45.4287 Y34.9065 F923.7
G1 X46.2279 Y34.7752 F923.7
G1 X47.0263 Y34.6386 F923.7
G1 X47.8228 Y34.4909 F1051.9
G1 X48.8055 Y34.3013 F720.0
G1 X48.7684 Y34.2415 F720.0
G1 X48.7176 Y34.2709 F720.0
G1 X48.6652 Y34.2974 F720.0
G1 X48.6114 Y34.3207 F720.0
G1 X48.5563 Y34.3408 F720.0
G1 X48.5001 Y34.3576 F720.0
G1 X48.4430 Y34.3711 F720.0
G1 X48.4572 Y34.4400 F720.0
G1 X49.3010 Y33.9019 F720.0
G1 X49.9814 Y33.4623 F720.0
G1 X50.6561 Y33.0142 F1067.0
G1 X51.3280 Y32.5618 F914.2
G1 X51.9875 Y32.0915 F914.2
G1 X52.6437 Y31.6166 F914.2
G1 X53.2930 Y31.1323 F1045.6
G1 X53.9386 Y30.6432 F720.0
G1 X54.5497 Y30.1115 F720.0
G1 X55.1524 Y29.5704 F720.0
G1 X55.7372 Y29.0099 F852.6
G1 X56.3124 Y28.4396 F720.0
G1 X56.8462 Y27.8304 F720.0
G1 X57.3687 Y27.2115 F720.0
G1 X57.8672 Y26.5730 F790.8
G1 X58.3526 Y25.9246 F720.0
G1 X58.7773 Y25.2349 F720.0
G1 X59.1871 Y24.5362 F720.0
G1 X59.7396 Y23.5234 F720.0
G1 X59.8361 Y23.7138 F720.0
G1 X59.7575 Y23.7582 F720.0
G1 X59.6831 Y23.8096 F720.0
G1 X59.6138 Y23.8675 F720.0
G1 X59.5499 Y23.9314 F720.0
G1 X59.4920 Y24.0008 F720.0
G1 X59.4407 Y24.0751 F720.0
G1 X59.2598 Y23.9619 F720.0
G1 X60.3181 Y23.5026 F720.0
G1 X61.0312 Y23.8868 F720.0
G1 X60.9486 Y24.9540 F720.0
G1 X60.8405 Y24.8866 F720.0
G1 X60.8778 Y24.8214 F720.0
G1 X60.9101 Y24.7536 F720.0
G1 X60.9372 Y24.6835 F720.0
G1 X60.9590 Y24.6116 F720.0
G1 X60.9753 Y24.5383 F720.0
G1 X60.9861 Y24.4640 F720.0
G1 X61.1128 Y24.4776 F720.0
G1 X60.6289 Y25.2055 F720.0
G1 X59.8190 Y25.2140 F720.0
G1 X59.0097 Y25.2489 F720.0
G1 X58.2005 Y25.2850 F852.0
G1 X57.3906 Y25.2969 F881.2
G1 X56.5807 Y25.3103 F720.0
G1 X55.7723 Y25.3605 F720.0
G1 X54.9640 Y25.4124 F720.0
G1 X54.1540 Y25.4229 F720.0
G1 X53.3441 Y25.4351 F720.0
G1 X52.5410 Y25.5407 F720.0
G1 X51.7354 Y25.6245 F720.0
G1 X50.9420 Y25.4613 F720.0
G1 X50.1486 Y25.2980 F720.0
G1 X49.9867 Y25.6386 F720.0
G1 X49.9886 Y26.4486 F720.0
G1 X49.9918 Y27.2586 F720.0
G1 X50.0013 Y26.4486 F720.0
G1 X50.0149 Y25.6387 F720.0
G1 X50.1762 Y25.6683 F720.0
G1 X50.2553 Y25.5337 F720.0
G1 X50.4278 Y25.4841 F720.0
G1 X50.3554 Y25.2940 F720.0
G1 X49.5613 Y25.2506 F720.0
G1 X48.7513 Y25.2424 F720.0
G1 X48.2855 Y24.5798 F720.0
G1 X48.9845 Y23.8496 F720.0
G1 X49.0165 Y23.9203 F720.0
G1 X48.9615 Y23.9473 F720.0
G1 X48.9083 Y23.9775 F720.0
G1 X48.8570 Y24.0110 F720.0
G1 X48.8079 Y24.0476 F720.0
G1 X48.7611 Y24.0871 F720.0
G1 X48.7168 Y24.1294 F720.0
G1 X48.6614 Y24.0749 F720.0
G1 X50.6954 Y23.1888 F720.0
G1 X51.4380 Y22.8653 F720.0
G1 X52.5394 Y22.5781 F720.0
G1 X52.4766 Y22.7640 F720.0
G1 X52.3921 Y22.7396 F720.0
G1 X52.3059 Y22.7226 F720.0
G1 X52.2185 Y22.7133 F720.0
G1 X52.1306 Y22.7117 F720.0
G1 X52.0430 Y22.7179 F720.0
G1 X51.9562 Y22.7317 F720.0
G1 X51.9169 Y22.5395 F720.0
G1 X52.9742 Y22.9608 F720.0
G1 X53.6419 Y23.4194 F720.0
G1 X54.3099 Y23.8776 F720.0
G1 X54.9815 Y24.3304 F1023.4
G1 X55.6605 Y24.7720 F1023.4
G1 X56.3433 Y25.2078 F817.4
G1 X57.0413 Y25.6188 F817.4
G1 X57.7431 Y26.0232 F817.4
G1 X58.4527 Y26.4137 F990.2
G1 X59.1663 Y26.7969 F720.0
G1 X59.9136 Y27.1094 F720.0
G1 X60.6628 Y27.4174 F720.0
G1 X61.4157 Y27.7161 F1066.8
G1 X62.1706 Y28.0098 F897.4
G1 X62.9335 Y28.2819 F897.4
G1 X63.6985 Y28.5483 F897.4
G1 X64.4677 Y28.8020 F1024.5
G1 X65.2392 Y29.0489 F720.0
G1 X66.0277 Y29.2343 F720.0
G1 X66.8182 Y29.4109 F720.0
G1 X67.6128 Y29.5682 F938.6
G1 X68.4094 Y29.7145 F720.0
G1 X69.2138 Y29.8094 F720.0
G1 X70.0199 Y29.8892 F720.0
G1 X70.8288 Y29.9318 F720.0
G1 X71.6386 Y29.9504 F720.0
G1 X71.8105 Y29.1588 F720.0
G1 X71.9807 Y28.3669 F720.0
(FEED_HINT END)
G1 X72.1470 Y27.5742 F1147.1
(FEED_HINT START scale=0.888)
G1 X72.3111 Y26.7809 F1065.2
G1 X72.4651 Y25.9857 F1065.2
G1 X72.6163 Y25.1900 F1065.2
G1 X72.7610 Y24.3930 F1112.7
G1 X72.9018 Y23.5953 F770.8
G1 X73.0105 Y22.7927 F770.8
G1 X73.1148 Y21.9894 F770.8
G1 X73.2087 Y21.1848 F1061.7
G1 X73.2962 Y20.3796 F794.9
G1 X73.3530 Y19.5716 F794.9
G1 X73.4004 Y18.7630 F794.9
G1 X73.4204 Y17.9532 F837.9
G1 X73.4153 Y17.1433 F720.0
G1 X73.2011 Y16.3621 F720.0
G1 X72.9822 Y15.5822 F720.0
G1 X72.7114 Y14.8193 F720.0
G1 X72.3877 Y14.0770 F720.0
G1 X71.5590 Y13.7368 F720.0
G1 X71.5579 Y13.8117 F720.0
G1 X71.6182 Y13.8144 F720.0
G1 X71.6781 Y13.8207 F720.0
G1 X71.7376 Y13.8305 F720.0
G1 X71.7964 Y13.8440 F720.0
G1 X71.8542 Y13.8610 F720.0
G1 X71.9110 Y13.8814 F720.0
G1 X71.9384 Y13.8117 F720.0
G1 X70.4782 Y13.8113 F720.0
G1 X69.6682 Y13.8111 F720.0
(FEED_HINT END)
G1 X68.8582 Y13.8112 F1160.0
(FEED_HINT START scale=0.931)
G1 X68.0483 Y13.8143 F1117.5
G1 X67.2383 Y13.8236 F1117.5
G1 X66.4284 Y13.8362 F1025.9
G1 X65.6188 Y13.8620 F1025.9
G1 X64.8093 Y13.8912 F1025.9
G1 X64.0001 Y13.9274 F1107.8
G1 X63.1911 Y13.9672 F775.3
G1 X62.3843 Y14.0392 F775.3
G1 X61.5777 Y14.1130 F775.3
(FEED_HINT END)
G1 X60.7714 Y14.1907 F1149.7
(FEED_HINT START scale=0.912)
G1 X59.9654 Y14.2702 F1094.3
G1 X59.1601 Y14.3578 F1094.3
G1 X58.3551 Y14.4474 F1094.3
(FEED_HINT END)
G1 X57.5505 Y14.5411 F1144.3
(FEED_HINT START scale=0.805)
G1 X56.7462 Y14.6371 F965.8
G1 X55.9442 Y14.7507 F965.8
G1 X55.1426 Y14.8666 F965.8
G1 X54.3416 Y14.9871 F1138.1
G1 X53.5409 Y15.1100 F1068.7
G1 X52.7419 Y15.2428 F1068.7
G1 X51.9433 Y15.3780 F1068.7
G1 X51.1456 Y15.5185 F1130.1
G1 X50.1702 Y15.6938 F720.0
G1 X50.2020 Y15.7487 F720.0
G1 X50.2513 Y15.7220 F720.0
G1 X50.3020 Y15.6980 F720.0
G1 X50.3540 Y15.6770 F720.0
G1 X50.4071 Y15.6589 F720.0
G1 X50.4611 Y15.6438 F720.0
G1 X50.5158 Y15.6317 F720.0
G1 X50.5039 Y15.5694 F720.0
G1 X49.6518 Y16.0753 F720.0
G1 X48.9565 Y16.4908 F720.0
G1 X48.2637 Y16.9105 F1136.7
G1 X47.5722 Y17.3323 F1064.5
G1 X46.8861 Y17.7628 F1064.5
G1 X46.2014 Y18.1956 F1064.5
G1 X45.5197 Y18.6330 F1127.1
G1 X44.8395 Y19.0729 F890.0
G1 X44.1724 Y19.5323 F890.0
G1 X43.5071 Y19.9943 F890.0
G1 X42.8454 Y20.4615 F1116.5
G1 X42.1856 Y20.9313 F1019.5
G1 X41.5338 Y21.4122 F1019.5
G1 X40.8842 Y21.8960 F1019.5
G1 X40.2390 Y22.3858 F1101.8
G1 X39.5962 Y22.8787 F720.0
G1 X38.9982 Y23.4251 F720.0
G1 X38.4057 Y23.9773 F720.0
G1 X37.8247 Y24.5417 F978.8
G1 X37.2500 Y25.1125 F720.0
G1 X36.7019 Y25.7089 F720.0
G1 X36.1610 Y26.3118 F720.0
G1 X35.6357 Y26.9284 F928.4
G1 X34.9523 Y27.7320 F720.0
G1 X34.9070 Y27.6279 F720.0
G1 X34.9717 Y27.5970 F720.0
G1 X35.0340 Y27.5614 F720.0
G1 X35.0936 Y27.5215 F720.0
G1 X35.1502 Y27.4774 F720.0
G1 X35.2035 Y27.4294 F720.0
G1 X35.2532 Y27.3776 F720.0
G1 X35.3379 Y27.4533 F720.0
G1 X34.3605 Y27.8502 F720.0
G1 X33.6917 Y27.3932 F720.0
G1 X34.1706 Y26.6957 F720.0
G1 X34.7641 Y25.8312 F720.0
G1 X34.8182 Y25.9247 F720.0
G1 X34.7586 Y25.9620 F720.0
G1 X34.7017 Y26.0034 F720.0
G1 X34.6479 Y26.0487 F720.0
G1 X34.5974 Y26.0977 F720.0
G1 X34.5505 Y26.1501 F720.0
G1 X34.5074 Y26.2056 F720.0
G1 X34.4197 Y26.1424 F720.0
G1 X35.5504 Y25.5238 F720.0
G1 X35.5562 Y25.6330 F720.0
G1 X35.4857 Y25.6393 F720.0
G1 X35.4159 Y25.6504 F720.0
G1 X35.3471 Y25.6665 F720.0
G1 X35.2796 Y25.6874 F720.0
G1 X35.2137 Y25.7131 F720.0
G1 X35.1498 Y25.7433 F720.0
G1 X35.0996 Y25.6461 F720.0
G1 X36.1493 Y25.6154 F720.0
G1 X36.9587 Y25.5843 F720.0
G1 X37.7684 Y25.5624 F1078.7
G1 X38.5781 Y25.5406 F1044.5
G1 X39.3881 Y25.5307 F1044.5
G1 X40.1980 Y25.5209 F1028.7
G1 X41.0077 Y25.4981 F1028.7
G1 X41.8174 Y25.4755 F720.0
G1 X42.6266 Y25.5111 F720.0
G1 X43.4360 Y25.5421 F720.0
G1 X44.2444 Y25.4909 F720.0
G1 X45.0528 Y25.4396 F720.0
G1 X45.8619 Y25.4023 F1015.0
G1 X46.6710 Y25.3651 F929.2
G1 X47.4790 Y25.3074 F929.2
G1 X48.2869 Y25.2500 F720.0
G1 X49.0941 Y25.3177 F720.0
G1 X49.9013 Y25.3853 F720.0
G1 X49.9967 Y25.4936 F720.0
G1 X49.9971 Y26.3036 F720.0
G1 X49.9979 Y27.1136 F720.0
G1 X50.0003 Y26.3036 F720.0
G1 X50.0037 Y25.4936 F720.0
G1 X50.0334 Y25.2267 F720.0
G1 X50.1749 Y25.6435 F720.0
G1 X50.0896 Y25.2731 F720.0
G1 X49.7431 Y25.1569 F720.0
G1 X48.9333 Y25.1387 F720.0
G1 X51.0584 Y25.5134 F720.0
G1 X53.6135 Y25.9640 F720.0
G1 X53.5928 Y25.8770 F720.0
G1 X53.5291 Y25.8900 F720.0
G1 X53.4647 Y25.8988 F720.0
G1 X53.3998 Y25.9034 F720.0
G1 X53.3348 Y25.9038 F720.0
G1 X53.2698 Y25.8999 F720.0
G1 X53.2053 Y25.8919 F720.0
G1 X53.1913 Y25.9802 F720.0
G1 X54.1853 Y25.7252 F720.0
G1 X54.9695 Y25.5224 F720.0
(FEED_HINT END)
G1 X55.7529 Y25.3165 F1158.1
(FEED_HINT START scale=0.925)
G1 X56.5359 Y25.1091 F1109.4
G1 X57.3170 Y24.8950 F1109.4
G1 X58.0978 Y24.6792 F1109.4
(FEED_HINT END)
G1 X58.8775 Y24.4598 F1150.7
(FEED_HINT START scale=0.821)
G1 X59.6567 Y24.2384 F985.6
G1 X60.4312 Y24.0015 F985.6
G1 X61.2052 Y23.7626 F985.6
(FEED_HINT END)
G1 X61.9778 Y23.5194 F1141.2
(FEED_HINT START scale=0.891)
G1 X62.7497 Y23.2739 F1068.9
G1 X63.5186 Y23.0190 F1068.9
G1 X64.2866 Y22.7615 F1068.9
G1 X65.0528 Y22.4987 F1126.1
G1 X65.8180 Y22.2332 F720.0
G1 X66.5652 Y21.9206 F720.0
G1 X67.3111 Y21.6048 F720.0
G1 X68.0541 Y21.2822 F1103.3
G1 X68.7956 Y20.9561 F972.4
G1 X69.5299 Y20.6142 F972.4
G1 X70.2622 Y20.2680 F972.4
G1 X70.9899 Y19.9124 F1061.0
G1 X71.7150 Y19.5514 F720.0
G1 X72.4140 Y19.1420 F720.0
G1 X73.1090 Y18.7260 F720.0
G1 X73.7939 Y18.2936 F944.6
G1 X74.4718 Y17.8502 F720.0
G1 X75.1101 Y17.3515 F720.0
G1 X75.7306 Y16.8309 F720.0
G1 X76.6066 Y16.3955 F720.0
G1 X76.6089 Y16.5002 F720.0
G1 X76.5395 Y16.5042 F720.0
G1 X76.4706 Y16.5130 F720.0
G1 X76.4025 Y16.5265 F720.0
G1 X76.3355 Y16.5447 F720.0
G1 X76.2698 Y16.5675 F720.0
G1 X76.2060 Y16.5949 F720.0
G1 X76.1614 Y16.5000 F720.0
G1 X77.2063 Y16.5000 F720.0
G1 X77.5658 Y17.4711 F720.0
G1 X77.4690 Y17.4644 F720.0
G1 X77.4714 Y17.3971 F720.0
G1 X77.4693 Y17.3299 F720.0
G1 X77.4626 Y17.2629 F720.0
G1 X77.4515 Y17.1966 F720.0
G1 X77.4359 Y17.1311 F720.0
G1 X77.4159 Y17.0669 F720.0
G1 X77.5075 Y17.0350 F720.0
G1 X77.4155 Y18.0664 F720.0
G1 X77.3439 Y18.8732 F720.0
(FEED_HINT END)
G1 X77.2727 Y19.6801 F1189.4
G1 X77.2023 Y20.4870 F1189.4
G1 X77.1323 Y21.2940 F1178.1
G1 X77.0640 Y22.1011 F1178.1
G1 X76.9961 Y22.9083 F1178.1
G1 X76.9291 Y23.7155 F1188.6
G1 X76.8625 Y24.5228 F1148.7
G1 X76.7998 Y25.3303 F1148.7
G1 X76.7376 Y26.1379 F1148.7
G1 X76.6765 Y26.9456 F1185.2
G1 X76.6160 Y27.7534 F1164.0
G1 X76.5583 Y28.5613 F1164.0
G1 X76.5014 Y29.3693 F1164.0
G1 X76.4464 Y30.1774 F1174.4
(FEED_HINT START scale=0.600)
G1 X76.3927 Y30.9856 F720.0
G1 X76.4507 Y30.9956 F720.0
G1 X76.4968 Y30.1870 F720.0
G1 X75.8353 Y30.0866 F720.0
G1 X74.5123 Y30.1737 F720.0
G1 X73.7041 Y30.2269 F720.0
G1 X72.8954 Y30.2731 F720.0
G1 X72.1085 Y30.0810 F720.0
G1 X71.3289 Y29.8611 F720.0
G1 X70.5491 Y29.6419 F822.5
(FEED_HINT END)
G1 X69.7692 Y29.4234 F1180.2
G1 X68.9888 Y29.2064 F1180.2
G1 X68.2082 Y28.9901 F1159.5
G1 X67.4268 Y28.7767 F1159.5
G1 X66.6452 Y28.5642 F1159.5
G1 X65.8631 Y28.3532 F1179.2
(FEED_HINT START scale=0.927)
G1 X65.0809 Y28.1429 F1112.9
G1 X64.2970 Y27.9390 F1112.9
G1 X63.5129 Y27.7359 F1112.9
(FEED_HINT END)
G1 X62.7283 Y27.5344 F1177.6
G1 X61.9436 Y27.3338 F1152.9
G1 X61.1579 Y27.1367 F1152.9
G1 X60.3720 Y26.9405 F1152.9
G1 X59.5857 Y26.7461 F1175.2
(FEED_HINT START scale=0.829)
G1 X58.7992 Y26.5526 F995.3
G1 X58.0090 Y26.3743 F995.3
G1 X57.2187 Y26.1969 F995.3
(FEED_HINT END)
G1 X56.4279 Y26.0216 F1172.9
G1 X55.6369 Y25.8473 F1143.6
G1 X54.8449 Y25.6771 F1143.6
G1 X54.0528 Y25.5081 F1143.6
G1 X53.2602 Y25.3412 F1170.6
(FEED_HINT START scale=0.896)
G1 X52.4673 Y25.1754 F1075.0
G1 X51.6726 Y25.0189 F1075.0
G1 X50.8776 Y24.8636 F1075.0
(FEED_HINT END)
G1 X50.0822 Y24.7107 F1167.1
(FEED_HINT START scale=0.941)
G1 X49.2865 Y24.5592 F1129.7
G1 X48.4898 Y24.4129 F1129.7
G1 X47.6929 Y24.2679 F1129.7
(FEED_HINT END)
G1 X46.8954 Y24.1258 F1162.3
(FEED_HINT START scale=0.600)
G1 X45.8802 Y23.9468 F720.0
G1 X45.9025 Y24.0373 F720.0
G1 X45.9673 Y24.0236 F720.0
G1 X46.0328 Y24.0143 F720.0
G1 X46.0988 Y24.0092 F720.0
G1 X46.1649 Y24.0086 F720.0
G1 X46.2310 Y24.0123 F720.0
G1 X46.2967 Y24.0204 F720.0
G1 X46.3111 Y23.9284 F720.0
G1 X45.3150 Y24.1935 F720.0
G1 X44.5326 Y24.4034 F720.0
(FEED_HINT END)
G1 X43.7511 Y24.6163 F1157.3
(FEED_HINT START scale=0.923)
G1 X42.9701 Y24.8310 F1107.5
G1 X42.1909 Y25.0523 F1107.5
G1 X41.4123 Y25.2754 F1107.5
(FEED_HINT END)
G1 X40.6346 Y25.5022 F1149.6
(FEED_HINT START scale=0.817)
G1 X39.8576 Y25.7309 F980.4
G1 X39.0854 Y25.9756 F980.4
G1 X38.3139 Y26.2223 F980.4
(FEED_HINT END)
G1 X37.5438 Y26.4734 F1139.6
(FEED_HINT START scale=0.888)
G1 X36.7745 Y26.7268 F1065.0
G1 X36.0084 Y26.9900 F1065.0
G1 X35.2433 Y27.2557 F1065.0
G1 X34.4800 Y27.5269 F1123.6
G1 X33.7178 Y27.8010 F720.0
G1 X32.9748 Y28.1236 F720.0
G1 X32.2333 Y28.4496 F720.0
G1 X31.4949 Y28.7826 F1099.1
G1 X30.7582 Y29.1193 F960.5
G1 X30.0293 Y29.4724 F960.5
G1 X29.3025 Y29.8301 F960.5
G1 X28.5808 Y30.1978 F1051.9
G1 X27.8620 Y30.5712 F720.0
G1 X27.1726 Y30.9965 F720.0
G1 X26.4877 Y31.4289 F720.0
G1 X25.8147 Y31.8796 F912.6
G1 X25.1502 Y32.3429 F720.0
G1 X24.5378 Y32.8730 F720.0
G1 X23.9531 Y33.4336 F720.0
G1 X24.7112 Y33.1483 F720.0
G1 X25.4693 Y32.8629 F720.0
G1 X26.1059 Y32.3621 F720.0
G1 X26.8083 Y31.9587 F720.0
G1 X27.5927 Y31.7566 F720.0
G1 X28.3686 Y31.5240 F720.0
G1 X29.1447 Y31.2920 F783.9
(FEED_HINT END)
G1 X29.9208 Y31.0601 F1180.6
G1 X30.6973 Y30.8296 F1180.6
G1 X31.4738 Y30.5991 F1179.0
G1 X32.2498 Y30.3671 F1179.0
(FEED_HINT START scale=0.941)
G1 X33.0259 Y30.1350 F1129.6
G1 X33.8034 Y29.9081 F1129.6
G1 X34.5810 Y29.6811 F1122.8
G1 X35.3569 Y29.4485 F1122.8
G1 X36.1328 Y29.2161 F1122.8
(FEED_HINT END)
G1 X36.9094 Y28.9858 F1170.5
G1 X37.6859 Y28.7554 F1167.9
G1 X38.4618 Y28.5228 F1167.9
(FEED_HINT START scale=0.777)
G1 X39.2377 Y28.2901 F932.8
G1 X40.0191 Y28.0769 F932.8
G1 X40.8006 Y27.8638 F888.3
G1 X41.5755 Y27.6279 F888.3
G1 X42.3503 Y27.3920 F888.3
(FEED_HINT END)
G1 X43.1264 Y27.1600 F1146.0
(FEED_HINT START scale=0.944)
G1 X43.9025 Y26.9280 F1132.3
G1 X44.6771 Y26.6911 F1132.3
G1 X45.4516 Y26.4543 F921.1
G1 X46.2322 Y26.2377 F921.1
G1 X47.0126 Y26.0210 F778.8
G1 X47.7839 Y25.7736 F778.8
G1 X48.5555 Y25.5269 F778.8
G1 X49.3336 Y25.3019 F720.0
G1 X49.9992 Y25.1406 F720.0
G1 X49.9993 Y25.9506 F720.0
G1 X49.9995 Y26.7606 F720.0
G1 X50.0002 Y25.9506 F720.0
G1 X50.0012 Y25.1406 F720.0
G1 X50.0441 Y25.3248 F720.0
G1 X50.0914 Y25.0661 F720.0
G1 X50.8900 Y25.2014 F720.0
G1 X53.4519 Y25.6357 F720.0
G1 X53.4377 Y25.5654 F720.0
G1 X53.3794 Y25.5755 F720.0
G1 X53.3206 Y25.5820 F720.0
G1 X53.2615 Y25.5851 F720.0
G1 X53.2024 Y25.5847 F720.0
G1 X53.1434 Y25.5808 F720.0
G1 X53.0847 Y25.5733 F720.0
G1 X53.0736 Y25.6442 F720.0
G1 X54.0537 Y25.4324 F720.0
G1 X54.8452 Y25.2607 F720.0
(FEED_HINT END)
G1 X55.6365 Y25.0875 F1181.1
G1 X56.4276 Y24.9137 F1159.7
G1 X57.2181 Y24.7369 F1159.7
G1 X58.0084 Y24.5593 F1159.7
G1 X58.7983 Y24.3802 F1178.4
(FEED_HINT START scale=0.922)
G1 X59.5881 Y24.2001 F1106.3
G1 X60.3762 Y24.0132 F1106.3
G1 X61.1642 Y23.8254 F1106.3
(FEED_HINT END)
G1 X61.9517 Y23.6358 F1174.9
G1 X62.7389 Y23.4451 F1144.1
G1 X63.5251 Y23.2503 F1144.1
G1 X64.3110 Y23.0543 F1144.1
G1 X65.0964 Y22.8560 F1168.6
(FEED_HINT START scale=0.949)
G1 X65.8815 Y22.6566 F1139.4
G1 X66.6654 Y22.4527 F898.3
G1 X67.4547 Y22.2710 F720.0
G1 X68.1373 Y22.7072 F720.0
G1 X68.7904 Y23.1863 F720.0
G1 X69.4467 Y23.6610 F720.0
G1 X70.1036 Y24.1349 F1128.8
(FEED_HINT END)
G1 X70.7620 Y24.6068 F1166.9
(FEED_HINT START scale=0.932)
G1 X71.4213 Y25.0774 F1117.9
G1 X72.0841 Y25.5429 F1117.9
G1 X72.7480 Y26.0070 F1117.9
(FEED_HINT END)
G1 X73.4141 Y26.4678 F1147.5
(FEED_HINT START scale=0.786)
G1 X74.0816 Y26.9267 F942.9
G1 X74.7600 Y27.3693 F942.9
G1 X75.4399 Y27.8096 F942.9
G1 X76.1236 Y28.2439 F1107.9
G1 X76.8096 Y28.6745 F910.7
G1 X77.5071 Y29.0864 F910.7
G1 X78.2089 Y29.4909 F881.3
G1 X79.0612 Y30.0208 F720.0
G1 X77.6301 Y30.0399 F720.0
G1 X76.8202 Y30.0507 F720.0
G1 X76.0103 Y30.0613 F720.0
G1 X75.2147 Y29.9092 F720.0
G1 X74.4199 Y29.7527 F720.0
(FEED_HINT END)
G1 X73.6249 Y29.5976 F1141.1
G1 X72.8298 Y29.4429 F1180.4
G1 X72.0347 Y29.2887 F1191.8
G1 X71.2394 Y29.1349 F1182.1
G1 X70.4439 Y28.9824 F1182.1
G1 X69.6483 Y28.8303 F1182.1
G1 X68.8526 Y28.6789 F1190.3
G1 X68.0568 Y28.5278 F1161.7
G1 X67.2604 Y28.3797 F1161.7
G1 X66.4640 Y28.2319 F1161.7
G1 X65.6675 Y28.0848 F1189.8
G1 X64.8709 Y27.9382 F1179.3
G1 X64.0740 Y27.7931 F1179.3
G1 X63.2770 Y27.6484 F1179.3
G1 X62.4662 Y27.5021 F1189.6
(FEED_HINT START scale=0.600)
G1 X61.6553 Y27.3561 F720.0
G1 X60.8470 Y27.4084 F720.0
G1 X60.0387 Y27.4612 F720.0
(FEED_HINT END)
G1 X59.2305 Y27.5149 F1187.8
G1 X58.4223 Y27.5690 F1174.6
G1 X57.6142 Y27.6251 F1174.6
G1 X56.8062 Y27.6817 F1174.6
G1 X55.9982 Y27.7392 F1186.7
G1 X55.1903 Y27.7973 F1144.3
G1 X54.3827 Y27.8596 F1144.3
G1 X53.5752 Y27.9224 F1144.3
G1 X52.7677 Y27.9862 F1185.6
G1 X51.9603 Y28.0508 F1169.2
G1 X51.1530 Y28.1176 F1169.2
G1 X50.3458 Y28.1851 F1169.2
G1 X49.5388 Y28.2538 F1183.5
(FEED_HINT START scale=0.600)
G1 X48.7317 Y28.3231 F720.0
G1 X48.8432 Y27.5209 F720.0
G1 X48.9547 Y26.7186 F720.0
G1 X48.9795 Y25.9089 F720.0
G1 X49.1933 Y25.1276 F720.0
G1 X50.0023 Y25.0891 F720.0
G1 X49.9998 Y25.5525 F720.0
G1 X49.9999 Y27.5227 F720.0
(FEED_HINT END)
G1 X50.0000 Y29.1740 F1161.2
G1 X50.0000 Y28.3640 F1197.3
G1 X50.0001 Y27.5540 F1197.3
G1 X50.0004 Y26.7440 F1197.6
G1 X50.0006 Y25.9340 F1197.5
(FEED_HINT START scale=0.600)
G1 X50.0007 Y25.1240 F720.0
G1 X50.0033 Y25.0502 F720.0
(FEED_HINT END)
G0 Z5.0000
M5
M30
(End of program)