(GRBL CNC Controller)
G90
G17
G21
M3 S18000
G4 P2
(POST=GRBL;UNITS=mm;DATE=2026-01-15T21:47:51.356524+00:00)
G0 Z5.0000
G0 X96.5000 Y46.5000
G1 Z-3.0000 F1000.0
G1 X94.6224 Y46.5000 F1000.0
(FEED_HINT START scale=0.600)
G1 X94.6613 Y46.4129 F600.0
G1 X94.7232 Y46.4381 F600.0
G1 X94.7866 Y46.4591 F600.0
G1 X94.8513 Y46.4759 F600.0
G1 X94.9170 Y46.4883 F600.0
G1 X94.9834 Y46.4963 F600.0
G1 X95.0501 Y46.4998 F600.0
G1 X95.0483 Y46.5952 F600.0
G1 X92.7270 Y45.5025 F600.0
G1 X93.4155 Y45.3712 F600.0
G1 X93.4430 Y45.4810 F600.0
G1 X93.4827 Y45.5870 F600.0
G1 X93.5341 Y45.6878 F600.0
G1 X93.5966 Y45.7821 F600.0
G1 X93.6693 Y45.8688 F600.0
G1 X93.7514 Y45.9468 F600.0
G1 X93.2983 Y46.4816 F600.0
G1 X93.5106 Y43.6321 F600.0
G1 X93.1845 Y43.9217 F600.0
G1 X93.2519 Y44.0063 F600.0
G1 X93.3097 Y44.0978 F600.0
G1 X93.3573 Y44.1949 F600.0
G1 X93.3941 Y44.2966 F600.0
G1 X93.4197 Y44.4017 F600.0
G1 X93.4338 Y44.5089 F600.0
G1 X93.8686 Y44.4755 F600.0
G1 X92.0753 Y42.9849 F600.0
G1 X91.5216 Y42.5247 F600.0
G1 X90.9694 Y42.0627 F836.5
G1 X90.4097 Y41.6097 F600.0
G1 X89.7627 Y41.2939 F600.0
G1 X89.1099 Y40.9900 F600.0
G1 X88.4496 Y40.7031 F726.1
G1 X87.7816 Y40.4343 F600.0
G1 X87.0764 Y40.2894 F600.0
G1 X86.3673 Y40.1643 F600.0
G1 X85.6561 Y40.0520 F719.5
G1 X84.9446 Y39.9421 F600.0
G1 X84.2509 Y39.7490 F600.0
G1 X83.5643 Y39.5324 F600.0
G1 X82.8921 Y39.2743 F600.0
G1 X82.2396 Y38.9700 F600.0
G1 X81.5560 Y38.2960 F600.0
G1 X81.9026 Y37.4008 F600.0
G1 X82.4878 Y35.8895 F600.0
G1 X83.8111 Y36.8251 F600.0
G1 X82.7664 Y36.9227 F600.0
G1 X82.8053 Y36.8185 F600.0
G1 X82.8728 Y36.8411 F600.0
G1 X82.9417 Y36.8588 F600.0
G1 X83.0117 Y36.8715 F600.0
G1 X83.0825 Y36.8793 F600.0
G1 X83.1536 Y36.8820 F600.0
G1 X83.2247 Y36.8796 F600.0
G1 X83.2324 Y36.9905 F600.0
G1 X82.2588 Y36.5991 F600.0
G1 X81.5101 Y36.2979 F600.0
G1 X80.1907 Y35.7669 F600.0
G1 X80.3385 Y35.6601 F600.0
G1 X80.3916 Y35.7274 F600.0
G1 X80.4503 Y35.7899 F600.0
G1 X80.5141 Y35.8471 F600.0
G1 X80.5826 Y35.8987 F600.0
G1 X80.6553 Y35.9442 F600.0
G1 X80.7316 Y35.9833 F600.0
G1 X80.6554 Y36.1489 F600.0
G1 X79.7191 Y34.7109 F600.0
G1 X79.6378 Y34.9072 F600.0
G1 X79.7195 Y34.9455 F600.0
G1 X79.7974 Y34.9909 F600.0
G1 X79.8710 Y35.0432 F600.0
G1 X79.9395 Y35.1019 F600.0
G1 X80.0024 Y35.1666 F600.0
G1 X80.0593 Y35.2366 F600.0
G1 X80.2301 Y35.1103 F600.0
G1 X78.9065 Y34.6524 F600.0
G1 X77.8512 Y34.5799 F600.0
G1 X75.7929 Y34.3620 F600.0
G1 X75.0769 Y34.2862 F829.8
G1 X74.3598 Y34.2213 F621.9
G1 X73.6408 Y34.1836 F621.9
G1 X72.9210 Y34.1658 F621.9
G1 X72.2010 Y34.1688 F709.2
G1 X71.4812 Y34.1847 F709.2
G1 X70.7616 Y34.2102 F821.3
G1 X70.0422 Y34.2380 F600.0
G1 X69.3269 Y34.3207 F600.0
G1 X68.6116 Y34.4025 F600.0
G1 X67.8937 Y34.4574 F600.0
G1 X66.9854 Y34.4194 F600.0
G1 X67.0125 Y34.3559 F600.0
G1 X67.0667 Y34.3772 F600.0
G1 X67.1221 Y34.3952 F600.0
G1 X67.1783 Y34.4101 F600.0
G1 X67.2354 Y34.4216 F600.0
G1 X67.2930 Y34.4298 F600.0
G1 X67.3510 Y34.4346 F600.0
G1 X67.3473 Y34.5036 F600.0
G1 X66.2854 Y34.0352 F600.0
G1 X66.3776 Y33.9592 F600.0
G1 X66.4262 Y34.0140 F600.0
G1 X66.4787 Y34.0651 F600.0
G1 X66.5347 Y34.1121 F600.0
G1 X66.5941 Y34.1550 F600.0
G1 X66.6564 Y34.1934 F600.0
G1 X66.7214 Y34.2271 F600.0
G1 X66.6703 Y34.3351 F600.0
G1 X65.9440 Y33.4038 F600.0
G1 X66.0252 Y33.3817 F600.0
G1 X66.0438 Y33.4423 F600.0
G1 X66.0662 Y33.5017 F600.0
G1 X66.0923 Y33.5594 F600.0
G1 X66.1220 Y33.6154 F600.0
G1 X66.1552 Y33.6694 F600.0
G1 X66.1917 Y33.7212 F600.0
G1 X66.1245 Y33.7719 F600.0
G1 X65.8950 Y32.8713 F600.0
G1 X65.7727 Y32.1617 F600.0
G1 X65.7506 Y31.4421 F600.0
G1 X65.7247 Y30.7226 F600.0
G1 X65.6784 Y30.0040 F600.0
G1 X65.6019 Y29.2881 F600.0
G1 X65.4751 Y28.5794 F600.0
G1 X65.3005 Y27.8809 F600.0
G1 X65.0597 Y27.2023 F600.0
G1 X64.7914 Y26.5342 F600.0
G1 X64.1427 Y26.2219 F600.0
G1 X63.4899 Y25.9180 F600.0
G1 X62.8265 Y25.6383 F631.4
G1 X62.1534 Y25.3827 F600.0
G1 X61.4682 Y25.1614 F600.0
G1 X60.7740 Y24.9704 F600.0
G1 X60.0700 Y24.8197 F600.0
G1 X59.3625 Y24.6858 F600.0
G1 X58.6770 Y24.4658 F600.0
G1 X57.1697 Y23.9822 F600.0
G1 X59.0696 Y23.1193 F600.0
G1 X58.9207 Y23.5114 F600.0
G1 X58.8184 Y23.4788 F600.0
G1 X58.7131 Y23.4573 F600.0
G1 X58.6062 Y23.4472 F600.0
G1 X58.4987 Y23.4486 F600.0
G1 X58.3921 Y23.4616 F600.0
G1 X58.2874 Y23.4859 F600.0
G1 X58.1706 Y23.0831 F600.0
G1 X59.9949 Y24.0960 F600.0
G1 X58.4965 Y24.6063 F600.0
G1 X56.8369 Y24.7780 F600.0
G1 X55.6256 Y24.9033 F600.0
G1 X55.6660 Y24.7949 F600.0
G1 X55.7346 Y24.8177 F600.0
G1 X55.8047 Y24.8354 F600.0
G1 X55.8758 Y24.8480 F600.0
G1 X55.9478 Y24.8555 F600.0
G1 X56.0200 Y24.8577 F600.0
G1 X56.0923 Y24.8547 F600.0
G1 X56.1012 Y24.9701 F600.0
G1 X54.9712 Y24.5162 F600.0
G1 X55.3998 Y23.9376 F600.0
G1 X56.0675 Y24.2068 F600.0
G1 X56.7131 Y24.5256 F600.0
G1 X58.3494 Y25.3336 F600.0
G1 X58.9765 Y24.9797 F600.0
G1 X59.5933 Y24.6083 F600.0
G1 X60.1868 Y24.2007 F600.0
G1 X60.7670 Y23.7743 F600.0
G1 X61.2710 Y23.2601 F600.0
G1 X61.7397 Y22.7136 F600.0
G1 X62.1281 Y22.1073 F600.0
G1 X62.4705 Y21.4739 F600.0
G1 X62.6881 Y20.7876 F600.0
G1 X62.8507 Y20.0862 F600.0
G1 X62.8950 Y19.3676 F600.0
G1 X62.8753 Y18.6478 F600.0
G1 X62.6929 Y17.9513 F600.0
G1 X62.4779 Y17.2642 F600.0
G1 X62.1935 Y16.6027 F600.0
G1 X61.8725 Y15.9583 F600.0
G1 X61.1629 Y15.8363 F600.0
G1 X60.4528 Y15.7169 F600.0
G1 X59.7418 Y15.6036 F912.6
G1 X59.0302 Y15.4941 F705.7
G1 X58.3156 Y15.4056 F705.7
G1 X57.5999 Y15.3274 F662.9
G1 X56.8819 Y15.2733 F662.9
G1 X56.1630 Y15.2332 F600.0
G1 X55.4431 Y15.2305 F600.0
G1 X54.7232 Y15.2442 F600.0
G1 X54.0048 Y15.2927 F600.0
G1 X53.2880 Y15.3599 F600.0
G1 X52.5773 Y15.4758 F600.0
G1 X51.8684 Y15.6016 F600.0
G1 X51.1635 Y15.7483 F705.5
G1 X50.2444 Y15.9544 F600.0
G1 X50.3005 Y16.0299 F600.0
G1 X50.3551 Y15.9921 F600.0
G1 X50.4121 Y15.9581 F600.0
G1 X50.4713 Y15.9278 F600.0
G1 X50.5324 Y15.9016 F600.0
G1 X50.5950 Y15.8795 F600.0
G1 X50.6590 Y15.8616 F600.0
G1 X50.6367 Y15.7702 F600.0
G1 X49.8910 Y16.3457 F600.0
G1 X49.3263 Y16.7924 F600.0
G1 X48.7728 Y17.2529 F751.2
G1 X48.2254 Y17.7207 F600.0
G1 X47.7104 Y18.2238 F600.0
G1 X47.2096 Y18.7410 F600.0
G1 X46.7395 Y19.2865 F600.0
G1 X46.2865 Y19.8460 F600.0
G1 X45.8783 Y20.4392 F600.0
G1 X45.4898 Y21.0453 F600.0
G1 X45.1429 Y21.6763 F600.0
G1 X44.8186 Y22.3191 F600.0
G1 X44.5542 Y22.9888 F600.0
G1 X44.3029 Y23.6635 F600.0
G1 X44.0793 Y24.3479 F600.0
G1 X43.8704 Y25.0369 F600.0
G1 X44.4350 Y25.4837 F600.0
G1 X45.0043 Y25.9244 F600.0
G1 X45.5837 Y26.3519 F770.0
G1 X46.1683 Y26.7722 F600.0
G1 X46.7781 Y27.1549 F600.0
G1 X47.3980 Y27.5212 F600.0
G1 X48.0377 Y27.8516 F600.0
G1 X48.6872 Y28.1624 F600.0
G1 X49.3590 Y28.4214 F600.0
G1 X50.0389 Y28.6582 F600.0
G1 X50.7336 Y28.8476 F600.0
G1 X51.4346 Y29.0118 F600.0
G1 X52.1480 Y29.1094 F600.0
G1 X52.8631 Y29.1928 F600.0
G1 X53.5811 Y29.2466 F600.0
G1 X52.9558 Y29.6035 F600.0
G1 X52.2596 Y30.0008 F600.0
G1 X51.1400 Y30.2514 F600.0
G1 X51.2210 Y30.0514 F600.0
G1 X51.3065 Y30.0816 F600.0
G1 X51.3943 Y30.1039 F600.0
G1 X51.4839 Y30.1182 F600.0
G1 X51.5743 Y30.1243 F600.0
G1 X51.6650 Y30.1222 F600.0
G1 X51.7551 Y30.1118 F600.0
G1 X51.7893 Y30.3249 F600.0
G1 X50.5391 Y29.7277 F600.0
G1 X50.6228 Y29.6600 F600.0
G1 X50.6689 Y29.7130 F600.0
G1 X50.7185 Y29.7626 F600.0
G1 X50.7716 Y29.8086 F600.0
G1 X50.8277 Y29.8508 F600.0
G1 X50.8867 Y29.8890 F600.0
G1 X50.9482 Y29.9229 F600.0
G1 X50.8996 Y30.0189 F600.0
G1 X50.3140 Y29.2605 F600.0
G1 X49.8665 Y28.6965 F600.0
G1 X49.4114 Y28.1385 F600.0
G1 X48.9263 Y27.6065 F600.0
G1 X48.4336 Y27.0815 F600.0
G1 X47.9254 Y26.5714 F702.1
G1 X47.4095 Y26.0692 F600.0
G1 X46.8559 Y25.6088 F600.0
G1 X46.2949 Y25.1575 F600.0
G1 X45.7189 Y24.7255 F660.8
G1 X45.1354 Y24.3038 F600.0
G1 X44.5226 Y23.9258 F600.0
G1 X43.9026 Y23.5597 F600.0
G1 X43.2683 Y23.2189 F600.0
G1 X42.6269 Y22.8918 F600.0
G1 X41.9530 Y22.6383 F600.0
G1 X41.2761 Y22.3929 F600.0
G1 X40.5931 Y22.1651 F743.1
G1 X39.9071 Y21.9466 F600.0
G1 X39.2094 Y21.7687 F600.0
G1 X38.5090 Y21.6020 F600.0
G1 X37.8032 Y21.4595 F655.3
G1 X37.0949 Y21.3303 F600.0
G1 X36.6313 Y21.8812 F600.0
G1 X36.1733 Y22.4368 F600.0
G1 X35.7273 Y23.0020 F785.1
G1 X35.2879 Y23.5724 F600.0
G1 X34.8767 Y24.1634 F600.0
G1 X34.4730 Y24.7596 F600.0
G1 X34.0860 Y25.3667 F723.3
G1 X33.7082 Y25.9796 F600.0
G1 X33.4217 Y26.6402 F600.0
G1 X33.1538 Y27.3085 F600.0
G1 X32.9265 Y27.9917 F600.0
G1 X32.7215 Y28.6819 F600.0
G1 X32.6072 Y29.3927 F600.0
G1 X32.5163 Y30.1070 F600.0
G1 X32.4760 Y30.8258 F600.0
G1 X32.4632 Y31.5457 F600.0
G1 X32.5784 Y32.2565 F600.0
G1 X32.7181 Y32.9628 F600.0
G1 X32.9098 Y33.6568 F600.0
G1 X33.1293 Y34.3425 F600.0
G1 X33.4532 Y34.9855 F600.0
G1 X33.8018 Y35.6155 F600.0
G1 X34.5181 Y35.6879 F600.0
G1 X35.2345 Y35.7603 F600.0
G1 X35.9542 Y35.7813 F600.0
G1 X36.6736 Y35.8113 F600.0
G1 X37.3906 Y35.8764 F600.0
G1 X38.1071 Y35.9473 F600.0
G1 X38.8240 Y36.0140 F917.2
G1 X39.5412 Y36.0775 F867.2
G1 X40.2575 Y36.1504 F858.5
G1 X40.9748 Y36.2133 F600.0
G1 X41.6942 Y36.2425 F600.0
G1 X42.4140 Y36.2573 F600.0
G1 X43.1340 Y36.2520 F721.1
G1 X43.8536 Y36.2281 F600.0
G1 X44.5684 Y36.1415 F600.0
G1 X43.8613 Y36.0059 F600.0
G1 X43.6555 Y35.3159 F600.0
G1 X44.0026 Y34.6851 F600.0
G1 X43.8177 Y33.9893 F600.0
G1 X43.6235 Y33.2959 F600.0
G1 X43.4009 Y32.6112 F600.0
G1 X43.1686 Y31.9297 F600.0
G1 X42.9012 Y31.2612 F600.0
G1 X42.6185 Y30.5991 F600.0
G1 X42.2904 Y29.9581 F600.0
G1 X41.9466 Y29.3255 F600.0
G1 X41.5661 Y28.7143 F600.0
G1 X41.1697 Y28.1132 F600.0
G1 X40.7307 Y27.5425 F600.0
G1 X40.2756 Y26.9846 F600.0
G1 X39.7830 Y26.4595 F600.0
G1 X39.2790 Y25.9453 F600.0
G1 X38.7335 Y25.4753 F600.0
G1 X37.9441 Y24.8214 F600.0
G1 X37.9195 Y24.9911 F600.0
G1 X38.0020 Y25.0066 F600.0
G1 X38.0828 Y25.0290 F600.0
G1 X38.1615 Y25.0580 F600.0
G1 X38.2375 Y25.0936 F600.0
G1 X38.3103 Y25.1354 F600.0
G1 X38.3793 Y25.1831 F600.0
G1 X38.4827 Y25.0463 F600.0
G1 X37.1086 Y24.9091 F600.0
G1 X36.3899 Y24.8655 F600.0
G1 X35.6711 Y24.9064 F600.0
G1 X34.9553 Y24.9840 F600.0
G1 X34.2791 Y25.2313 F600.0
G1 X33.6376 Y25.5582 F600.0
G1 X33.4400 Y26.2506 F600.0
G1 X33.2723 Y26.9508 F600.0
G1 X33.1835 Y27.6653 F600.0
G1 X33.1295 Y28.3832 F600.0
G1 X33.1534 Y29.1028 F600.0
G1 X33.2173 Y29.8200 F600.0
G1 X33.3865 Y30.5199 F600.0
G1 X33.5777 Y31.2140 F600.0
G1 X33.8111 Y31.8951 F600.0
G1 X34.6141 Y32.0920 F600.0
G1 X35.3134 Y32.2634 F600.0
G1 X36.0138 Y32.4304 F930.8
G1 X36.7153 Y32.5925 F709.3
G1 X37.4212 Y32.7341 F709.3
G1 X38.1282 Y32.8703 F709.3
G1 X38.8374 Y32.9948 F834.9
G1 X39.5476 Y33.1130 F600.0
G1 X40.2624 Y33.1997 F600.0
G1 X40.9779 Y33.2798 F600.0
G1 X41.6949 Y33.3459 F805.9
G1 X42.4125 Y33.4048 F600.0
G1 X43.1319 Y33.4336 F600.0
G1 X43.8516 Y33.4547 F600.0
G1 X44.5716 Y33.4594 F773.5
G1 X45.2915 Y33.4556 F600.0
G1 X46.0100 Y33.4087 F600.0
G1 X46.7282 Y33.3573 F600.0
G1 X47.4456 Y33.2967 F872.0
G1 X48.1627 Y33.2313 F727.0
G1 X48.8776 Y33.1464 F727.0
G1 X49.5920 Y33.0565 F727.0
G1 X50.3050 Y32.9561 F853.5
G1 X51.2397 Y32.8172 F600.0
G1 X51.1876 Y32.7359 F600.0
G1 X51.1298 Y32.7703 F600.0
G1 X51.0699 Y32.8007 F600.0
G1 X51.0081 Y32.8270 F600.0
G1 X50.9447 Y32.8491 F600.0
G1 X50.8799 Y32.8669 F600.0
G1 X50.8141 Y32.8803 F600.0
G1 X50.8302 Y32.9755 F600.0
G1 X51.6153 Y32.4496 F600.0
G1 X52.2111 Y32.0453 F600.0
G1 X52.8017 Y31.6334 F873.6
G1 X53.3895 Y31.2177 F727.7
G1 X53.9658 Y30.7861 F727.7
G1 X54.5391 Y30.3505 F727.7
G1 X55.1059 Y29.9064 F852.6
G1 X55.6692 Y29.4580 F600.0
G1 X56.1963 Y28.9676 F600.0
G1 X56.7156 Y28.4689 F600.0
G1 X57.2183 Y27.9534 F670.5
G1 X57.7119 Y27.4292 F600.0
G1 X58.1671 Y26.8714 F600.0
G1 X58.6119 Y26.3052 F600.0
G1 X59.0343 Y25.7221 F611.1
G1 X59.4447 Y25.1306 F600.0
G1 X59.7920 Y24.4998 F600.0
G1 X60.1255 Y23.8618 F600.0
G1 X60.4297 Y23.2092 F600.0
G1 X60.7181 Y22.5494 F600.0
G1 X60.9392 Y21.8642 F600.0
G1 X61.1419 Y21.1734 F600.0
G1 X61.3335 Y20.4793 F600.0
G1 X62.0132 Y20.2417 F600.0
G1 X62.6035 Y20.6539 F600.0
G1 X62.5856 Y21.3737 F600.0
G1 X62.5677 Y22.0935 F600.0
G1 X61.8670 Y22.2591 F600.0
G1 X61.1684 Y22.4333 F600.0
G1 X60.4701 Y22.6086 F878.4
(FEED_HINT END)
G1 X59.7710 Y22.7809 F957.0
(FEED_HINT START scale=0.729)
G1 X59.0722 Y22.9545 F728.8
G1 X58.3784 Y23.1469 F728.8
G1 X57.6849 Y23.3406 F728.8
G1 X56.9871 Y23.5177 F763.0
G1 X56.2896 Y23.6964 F642.8
G1 X55.5989 Y23.8998 F642.8
G1 X54.9087 Y24.1048 F642.8
G1 X54.2118 Y24.2856 F650.8
G1 X53.5154 Y24.4682 F600.0
G1 X52.8418 Y24.7228 F600.0
G1 X52.1641 Y24.9658 F600.0
G1 X51.4491 Y25.0506 F600.0
G1 X50.7342 Y25.1361 F600.0
G1 X50.0474 Y25.3523 F600.0
G1 X49.9884 Y25.6920 F600.0
G1 X49.9899 Y26.4120 F600.0
G1 X49.9924 Y27.1320 F600.0
G1 X50.0004 Y26.4120 F600.0
G1 X50.0117 Y25.6921 F600.0
G1 X50.1212 Y25.4766 F600.0
G1 X50.2143 Y25.6583 F600.0
G1 X50.3500 Y25.5393 F600.0
G1 X50.6350 Y25.6044 F600.0
G1 X50.6397 Y25.3798 F600.0
G1 X49.8673 Y24.9985 F600.0
G1 X49.8647 Y25.0997 F600.0
G1 X49.9330 Y25.1038 F600.0
G1 X50.0009 Y25.1127 F600.0
G1 X50.0681 Y25.1261 F600.0
G1 X50.1341 Y25.1441 F600.0
G1 X50.1988 Y25.1666 F600.0
G1 X50.2618 Y25.1935 F600.0
G1 X50.3047 Y25.1018 F600.0
G1 X49.3541 Y25.0967 F600.0
G1 X48.8934 Y24.5434 F600.0
G1 X49.4007 Y24.0325 F600.0
G1 X50.9112 Y23.2485 F600.0
G1 X51.5502 Y22.9169 F600.0
G1 X52.2440 Y22.7242 F600.0
G1 X52.9104 Y22.9968 F600.0
G1 X53.4749 Y23.4437 F600.0
G1 X54.0402 Y23.8896 F600.0
G1 X54.6089 Y24.3312 F600.0
G1 X55.2032 Y24.7376 F600.0
G1 X55.8008 Y25.1392 F600.0
G1 X56.4049 Y25.5309 F834.6
G1 X57.0124 Y25.9174 F641.6
G1 X57.6333 Y26.2819 F641.6
G1 X58.2577 Y26.6405 F641.6
G1 X58.8889 Y26.9868 F803.4
G1 X59.5237 Y27.3265 F600.0
G1 X60.1917 Y27.5952 F600.0
G1 X60.8613 Y27.8599 F600.0
G1 X61.5341 Y28.1162 F874.7
G1 X62.2086 Y28.3681 F715.7
G1 X62.8900 Y28.6007 F715.7
G1 X63.5732 Y28.8281 F715.7
G1 X64.2600 Y29.0442 F835.4
G1 X64.9487 Y29.2542 F600.0
G1 X65.6518 Y29.4093 F600.0
G1 X66.3565 Y29.5569 F600.0
G1 X67.0646 Y29.6871 F755.6
G1 X67.7745 Y29.8075 F600.0
G1 X68.4906 Y29.8823 F600.0
G1 X69.2080 Y29.9436 F600.0
G1 X69.9274 Y29.9719 F600.0
G1 X70.6474 Y29.9795 F600.0
G1 X70.7856 Y29.2729 F600.0
G1 X70.9227 Y28.5661 F600.0
(FEED_HINT END)
G1 X71.0569 Y27.8587 F960.2
(FEED_HINT START scale=0.899)
G1 X71.1895 Y27.1510 F898.9
G1 X71.3149 Y26.4420 F898.9
G1 X71.4383 Y25.7327 F898.9
G1 X71.5572 Y25.0225 F935.4
G1 X71.6734 Y24.3120 F686.6
G1 X71.7673 Y23.5981 F686.6
G1 X71.8582 Y22.8839 F686.6
G1 X71.9420 Y22.1688 F901.9
G1 X72.0218 Y21.4532 F733.4
G1 X72.0824 Y20.7358 F733.4
G1 X72.1375 Y20.0179 F733.4
G1 X72.1783 Y19.2990 F802.5
G1 X72.2097 Y18.5797 F600.0
G1 X72.1099 Y17.8667 F600.0
G1 X72.0015 Y17.1549 F600.0
G1 X71.8692 Y16.4471 F663.6
G1 X71.7192 Y15.7429 F600.0
G1 X71.4901 Y15.0604 F600.0
G1 X71.2136 Y14.3965 F600.0
G1 X70.8579 Y13.7707 F600.0
G1 X70.2870 Y13.1138 F600.0
G1 X69.2017 Y13.1135 F600.0
G1 X68.4817 Y13.1132 F600.0
(FEED_HINT END)
G1 X67.7617 Y13.1137 F965.6
(FEED_HINT START scale=0.721)
G1 X67.0417 Y13.1166 F721.4
G1 X66.3221 Y13.1395 F721.4
G1 X65.6026 Y13.1651 F721.4
G1 X64.8832 Y13.1959 F926.0
G1 X64.1640 Y13.2296 F843.6
G1 X63.4454 Y13.2744 F843.6
G1 X62.7270 Y13.3222 F843.6
G1 X62.0090 Y13.3759 F917.1
G1 X61.2912 Y13.4327 F600.0
G1 X60.5766 Y13.5202 F600.0
G1 X59.8621 Y13.6092 F600.0
(FEED_HINT END)
G1 X59.1480 Y13.7015 F955.0
(FEED_HINT START scale=0.906)
G1 X58.4342 Y13.7954 F905.5
G1 X57.7213 Y13.8960 F905.5
G1 X57.0086 Y13.9984 F905.5
(FEED_HINT END)
G1 X56.2964 Y14.1043 F950.3
(FEED_HINT START scale=0.791)
G1 X55.5845 Y14.2121 F791.3
G1 X54.8750 Y14.3346 F791.3
G1 X54.1659 Y14.4591 F791.3
G1 X53.4574 Y14.5874 F945.0
G1 X52.7493 Y14.7178 F883.4
G1 X52.0428 Y14.8564 F883.4
G1 X51.3366 Y14.9972 F883.4
G1 X50.6314 Y15.1423 F938.0
G1 X49.7423 Y15.3282 F600.0
G1 X49.7791 Y15.3861 F600.0
G1 X49.8290 Y15.3564 F600.0
G1 X49.8804 Y15.3296 F600.0
G1 X49.9334 Y15.3059 F600.0
G1 X49.9876 Y15.2853 F600.0
G1 X50.0430 Y15.2678 F600.0
G1 X50.0992 Y15.2536 F600.0
G1 X50.0844 Y15.1867 F600.0
G1 X49.3238 Y15.6833 F600.0
G1 X48.7220 Y16.0785 F600.0
G1 X48.1223 Y16.4770 F946.6
G1 X47.5237 Y16.8770 F885.8
G1 X46.9297 Y17.2839 F885.8
G1 X46.3369 Y17.6926 F885.8
G1 X45.7466 Y18.1049 F938.8
G1 X45.1576 Y18.5190 F740.9
G1 X44.5796 Y18.9483 F740.9
G1 X44.0030 Y19.3795 F740.9
G1 X43.4294 Y19.8147 F930.6
G1 X42.8574 Y20.2519 F850.7
G1 X42.2919 Y20.6977 F850.7
G1 X41.7282 Y21.1456 F850.7
G1 X41.1681 Y21.5980 F919.3
G1 X40.6100 Y22.0528 F600.0
G1 X40.0919 Y22.5529 F600.0
G1 X39.5781 Y23.0572 F600.0
G1 X39.0733 Y23.5707 F822.6
G1 X38.5734 Y24.0888 F612.7
G1 X38.0938 Y24.6258 F612.7
G1 X37.6198 Y25.1677 F612.7
G1 X37.1573 Y25.7196 F786.7
G1 X36.7012 Y26.2767 F600.0
G1 X36.2979 Y26.8731 F600.0
G1 X35.7269 Y27.7199 F600.0
G1 X35.6563 Y27.5680 F600.0
G1 X35.7302 Y27.5298 F600.0
G1 X35.8007 Y27.4856 F600.0
G1 X35.8673 Y27.4357 F600.0
G1 X35.9294 Y27.3804 F600.0
G1 X35.9868 Y27.3202 F600.0
G1 X36.0390 Y27.2554 F600.0
G1 X36.1737 Y27.3549 F600.0
G1 X35.2300 Y27.7453 F600.0
G1 X34.6296 Y27.3480 F600.0
G1 X34.9746 Y26.6606 F600.0
G1 X35.4345 Y25.7444 F600.0
G1 X35.5253 Y25.8900 F600.0
G1 X35.4560 Y25.9373 F600.0
G1 X35.3910 Y25.9903 F600.0
G1 X35.3306 Y26.0485 F600.0
G1 X35.2753 Y26.1116 F600.0
G1 X35.2255 Y26.1792 F600.0
G1 X35.1815 Y26.2506 F600.0
G1 X35.0318 Y26.1670 F600.0
G1 X36.1400 Y25.5423 F600.0
G1 X36.1463 Y25.6575 F600.0
G1 X36.0744 Y25.6640 F600.0
G1 X36.0031 Y25.6757 F600.0
G1 X35.9329 Y25.6926 F600.0
G1 X35.8641 Y25.7144 F600.0
G1 X35.7970 Y25.7411 F600.0
G1 X35.7321 Y25.7727 F600.0
G1 X35.6780 Y25.6708 F600.0
G1 X36.6446 Y25.6428 F600.0
G1 X37.3639 Y25.6126 F600.0
G1 X38.0839 Y25.6118 F600.0
G1 X38.8039 Y25.6112 F600.0
G1 X39.5235 Y25.5851 F644.7
G1 X40.2430 Y25.5591 F644.7
G1 X40.9628 Y25.5440 F848.7
G1 X41.6827 Y25.5291 F832.6
G1 X42.4022 Y25.5021 F832.6
G1 X43.1217 Y25.4753 F600.0
G1 X43.8407 Y25.5122 F600.0
G1 X44.5600 Y25.5446 F600.0
G1 X45.2777 Y25.4875 F600.0
G1 X45.9955 Y25.4304 F600.0
G1 X46.7141 Y25.3868 F810.5
G1 X47.4328 Y25.3434 F708.3
G1 X48.1499 Y25.2790 F708.3
G1 X48.8671 Y25.2148 F600.0
G1 X49.5819 Y25.3009 F600.0
G1 X49.9910 Y25.1634 F600.0
G1 X49.9972 Y25.7881 F600.0
G1 X49.9976 Y26.5081 F600.0
G1 X49.9982 Y27.2281 F600.0
G1 X50.0000 Y26.5081 F600.0
G1 X50.0024 Y25.7881 F600.0
G1 X50.0198 Y25.1688 F600.0
G1 X50.0617 Y25.2361 F600.0
G1 X50.2103 Y25.7515 F600.0
G1 X50.1528 Y25.3544 F600.0
G1 X50.2937 Y25.5438 F600.0
G1 X49.5751 Y25.4984 F600.0
G1 X51.5268 Y25.8440 F600.0
G1 X53.8444 Y26.2543 F600.0
G1 X53.8177 Y26.1545 F600.0
G1 X53.7504 Y26.1700 F600.0
G1 X53.6822 Y26.1808 F600.0
G1 X53.6134 Y26.1869 F600.0
G1 X53.5444 Y26.1882 F600.0
G1 X53.4754 Y26.1848 F600.0
G1 X53.4068 Y26.1766 F600.0
G1 X53.3910 Y26.2787 F600.0
G1 X54.3063 Y26.0128 F600.0
G1 X54.9973 Y25.8107 F600.0
(FEED_HINT END)
G1 X55.6876 Y25.6060 F963.3
(FEED_HINT START scale=0.920)
G1 X56.3775 Y25.4001 F920.4
G1 X57.0658 Y25.1886 F920.4
G1 X57.7536 Y24.9758 F920.4
(FEED_HINT END)
G1 X58.4405 Y24.7599 F956.7
(FEED_HINT START scale=0.814)
G1 X59.1269 Y24.5425 F813.5
G1 X59.8091 Y24.3123 F813.5
G1 X60.4907 Y24.0804 F813.5
G1 X61.1712 Y23.8450 F949.0
G1 X61.8510 Y23.6078 F887.6
G1 X62.5281 Y23.3631 F887.6
G1 X63.2045 Y23.1165 F887.6
G1 X63.8794 Y22.8656 F937.5
G1 X64.5534 Y22.6124 F600.0
G1 X65.2123 Y22.3221 F600.0
G1 X65.8701 Y22.0292 F600.0
G1 X66.5255 Y21.7312 F920.5
G1 X67.1797 Y21.4304 F816.0
G1 X67.8282 Y21.1177 F816.0
G1 X68.4752 Y20.8018 F816.0
G1 X69.1187 Y20.4788 F890.5
G1 X69.7602 Y20.1519 F600.0
G1 X70.3830 Y19.7906 F600.0
G1 X71.0029 Y19.4244 F600.0
G1 X71.6162 Y19.0473 F822.8
G1 X72.2257 Y18.6639 F600.0
G1 X72.8143 Y18.2493 F600.0
G1 X73.3962 Y17.8253 F600.0
G1 X73.9567 Y17.3733 F600.0
G1 X74.4955 Y16.8957 F600.0
G1 X74.3508 Y16.1904 F600.0
G1 X75.0692 Y16.1415 F600.0
G1 X75.5248 Y17.0285 F600.0
G1 X75.3815 Y17.0240 F600.0
G1 X75.3809 Y16.9454 F600.0
G1 X75.3741 Y16.8671 F600.0
G1 X75.3612 Y16.7896 F600.0
G1 X75.3423 Y16.7133 F600.0
G1 X75.3174 Y16.6388 F600.0
G1 X75.2868 Y16.5664 F600.0
G1 X75.4165 Y16.5054 F600.0
G1 X75.3505 Y17.5004 F600.0
G1 X75.3158 Y18.2196 F600.0
G1 X75.2815 Y18.9387 F847.9
(FEED_HINT END)
G1 X75.2480 Y19.6580 F989.2
G1 X75.2149 Y20.3772 F977.5
G1 X75.1835 Y21.0965 F977.5
G1 X75.1524 Y21.8158 F977.5
G1 X75.1222 Y22.5352 F988.2
(FEED_HINT START scale=0.948)
G1 X75.0924 Y23.2546 F947.9
G1 X75.0663 Y23.9741 F947.9
G1 X75.0408 Y24.6937 F947.9
(FEED_HINT END)
G1 X75.0163 Y25.4132 F985.4
G1 X74.9924 Y26.1328 F966.1
G1 X74.9709 Y26.8525 F966.1
G1 X74.9501 Y27.5722 F966.1
G1 X74.9308 Y28.2920 F979.0
(FEED_HINT START scale=0.712)
G1 X74.9124 Y29.0117 F711.6
G1 X74.9147 Y29.7317 F711.6
G1 X74.9194 Y30.4517 F711.6
G1 X74.9377 Y31.0795 F600.0
G1 X74.9904 Y30.3615 F600.0
G1 X74.6057 Y30.0730 F600.0
G1 X73.4937 Y30.1739 F600.0
G1 X72.7766 Y30.2389 F600.0
G1 X72.0586 Y30.2923 F600.0
G1 X71.3620 Y30.1101 F600.0
G1 X70.6764 Y29.8904 F600.0
G1 X69.9842 Y29.6922 F600.0
G1 X69.2918 Y29.4946 F686.8
(FEED_HINT END)
G1 X68.5991 Y29.2982 F982.8
G1 X67.9063 Y29.1024 F964.8
G1 X67.2127 Y28.9091 F964.8
G1 X66.5190 Y28.7163 F964.8
G1 X65.8249 Y28.5248 F982.0
(FEED_HINT START scale=0.925)
G1 X65.1307 Y28.3340 F925.0
G1 X64.4350 Y28.1483 F925.0
G1 X63.7392 Y27.9633 F925.0
(FEED_HINT END)
G1 X63.0430 Y27.7797 F980.7
G1 X62.3467 Y27.5967 F959.8
G1 X61.6496 Y27.4166 F959.8
G1 X60.9523 Y27.2371 F959.8
G1 X60.2546 Y27.0591 F979.0
(FEED_HINT START scale=0.826)
G1 X59.5568 Y26.8819 F826.3
G1 X58.8560 Y26.7168 F826.3
G1 X58.1550 Y26.5525 F826.3
(FEED_HINT END)
G1 X57.4536 Y26.3898 F977.6
G1 X56.7520 Y26.2278 F952.7
G1 X56.0497 Y26.0692 F952.7
G1 X55.3472 Y25.9114 F952.7
G1 X54.6443 Y25.7554 F975.0
(FEED_HINT START scale=0.896)
G1 X53.9412 Y25.6003 F896.2
G1 X53.2366 Y25.4525 F896.2
G1 X52.5317 Y25.3057 F896.2
(FEED_HINT END)
G1 X51.8264 Y25.1608 F972.5
(FEED_HINT START scale=0.942)
G1 X51.1210 Y25.0169 F942.4
G1 X50.4147 Y24.8770 F942.4
G1 X49.7082 Y24.7383 F942.4
(FEED_HINT END)
G1 X49.0013 Y24.6016 F969.8
(FEED_HINT START scale=0.600)
G1 X48.0834 Y24.4257 F600.0
G1 X48.1023 Y24.5118 F600.0
G1 X48.1659 Y24.5000 F600.0
G1 X48.2301 Y24.4923 F600.0
G1 X48.2946 Y24.4888 F600.0
G1 X48.3593 Y24.4895 F600.0
G1 X48.4238 Y24.4943 F600.0
G1 X48.4878 Y24.5033 F600.0
G1 X48.5029 Y24.4165 F600.0
G1 X47.5936 Y24.6325 F600.0
G1 X46.8934 Y24.8001 F600.0
(FEED_HINT END)
G1 X46.1938 Y24.9700 F965.6
(FEED_HINT START scale=0.926)
G1 X45.4944 Y25.1413 F925.8
G1 X44.7964 Y25.3177 F925.8
G1 X44.0986 Y25.4954 F925.8
(FEED_HINT END)
G1 X43.4017 Y25.6760 F959.8
(FEED_HINT START scale=0.828)
G1 X42.7050 Y25.8580 F828.2
G1 X42.0117 Y26.0520 F828.2
G1 X41.3187 Y26.2476 F828.2
(FEED_HINT END)
G1 X40.6267 Y26.4464 F953.3
(FEED_HINT START scale=0.898)
G1 X39.9352 Y26.6469 F898.1
G1 X39.2457 Y26.8543 F898.1
G1 X38.5568 Y27.0635 F898.1
G1 X37.8690 Y27.2766 F944.0
G1 X37.1820 Y27.4918 F600.0
G1 X36.5063 Y27.7406 F600.0
G1 X35.8315 Y27.9917 F600.0
G1 X35.1585 Y28.2475 F930.4
G1 X34.4864 Y28.5057 F842.2
G1 X33.8184 Y28.7745 F842.2
G1 X33.1516 Y29.0460 F842.2
G1 X32.4873 Y29.3236 F908.7
G1 X31.8244 Y29.6046 F600.0
G1 X31.1743 Y29.9142 F600.0
G1 X30.5262 Y30.2279 F600.0
G1 X29.8824 Y30.5502 F865.8
G1 X29.2410 Y30.8772 F646.3
G1 X28.6115 Y31.2268 F646.3
G1 X27.9856 Y31.5826 F646.3
G1 X27.3691 Y31.9545 F741.5
G1 X26.7592 Y32.3372 F600.0
G1 X27.4355 Y32.0902 F600.0
G1 X28.3136 Y31.7696 F600.0
G1 X28.2530 Y31.7052 F600.0
G1 X28.2045 Y31.7481 F600.0
G1 X28.1533 Y31.7877 F600.0
G1 X28.0997 Y31.8239 F600.0
G1 X28.0438 Y31.8566 F600.0
G1 X27.9860 Y31.8856 F600.0
G1 X27.9263 Y31.9108 F600.0
G1 X27.9581 Y31.9933 F600.0
G1 X28.6271 Y31.3403 F600.0
G1 X29.2451 Y30.9710 F600.0
G1 X29.9505 Y30.8268 F600.0
G1 X30.6480 Y30.6478 F600.0
G1 X31.3396 Y30.4479 F600.0
G1 X32.0313 Y30.2479 F697.0
(FEED_HINT END)
G1 X32.7233 Y30.0492 F981.8
G1 X33.4154 Y29.8505 F980.3
G1 X34.1070 Y29.6504 F980.3
(FEED_HINT START scale=0.934)
G1 X34.7987 Y29.4503 F934.0
G1 X35.4916 Y29.2548 F934.0
G1 X36.1846 Y29.0594 F927.8
G1 X36.8761 Y28.8589 F927.8
G1 X37.5676 Y28.6584 F927.8
(FEED_HINT END)
G1 X38.2597 Y28.4598 F972.6
G1 X38.9518 Y28.2612 F969.8
G1 X39.6432 Y28.0606 F969.8
(FEED_HINT START scale=0.750)
G1 X40.3347 Y27.8599 F750.2
G1 X41.0310 Y27.6766 F750.2
G1 X41.7273 Y27.4933 F708.5
G1 X42.4179 Y27.2897 F708.5
G1 X43.1085 Y27.0862 F708.5
G1 X43.8002 Y26.8862 F948.9
G1 X44.4919 Y26.6862 F938.3
G1 X45.1823 Y26.4820 F938.3
G1 X45.8727 Y26.2779 F743.9
G1 X46.5682 Y26.0915 F743.9
G1 X47.2636 Y25.9051 F616.4
G1 X47.9514 Y25.6921 F616.4
G1 X48.6392 Y25.4791 F616.4
G1 X49.3323 Y25.2842 F600.0
G1 X49.9985 Y25.0681 F600.0
G1 X49.9993 Y25.7664 F600.0
G1 X49.9994 Y26.4864 F600.0
G1 X49.9996 Y27.2064 F600.0
G1 X50.0000 Y26.4864 F600.0
G1 X50.0006 Y25.7664 F600.0
G1 X50.0041 Y25.0735 F600.0
G1 X50.0293 Y25.2139 F600.0
G1 X50.0570 Y25.2108 F600.0
G1 X50.4138 Y25.7197 F600.0
G1 X51.1249 Y25.8325 F600.0
G1 X53.4342 Y26.1988 F600.0
G1 X53.4152 Y26.1192 F600.0
G1 X53.3538 Y26.1318 F600.0
G1 X53.2918 Y26.1405 F600.0
G1 X53.2293 Y26.1454 F600.0
G1 X53.1667 Y26.1463 F600.0
G1 X53.1041 Y26.1433 F600.0
G1 X53.0419 Y26.1364 F600.0
G1 X53.0303 Y26.2175 F600.0
G1 X53.9280 Y25.9885 F600.0
G1 X54.6255 Y25.8100 F600.0
(FEED_HINT END)
G1 X55.3227 Y25.6303 F983.8
G1 X56.0198 Y25.4501 F965.1
G1 X56.7162 Y25.2674 F965.1
G1 X57.4125 Y25.0840 F965.1
G1 X58.1084 Y24.8994 F981.1
(FEED_HINT START scale=0.919)
G1 X58.8042 Y24.7141 F919.0
G1 X59.4984 Y24.5231 F919.0
G1 X60.1924 Y24.3315 F919.0
(FEED_HINT END)
G1 X60.8860 Y24.1384 F978.5
G1 X61.5794 Y23.9445 F952.1
G1 X62.2719 Y23.7472 F952.1
G1 X62.9641 Y23.5491 F952.1
G1 X63.6557 Y23.3491 F973.1
(FEED_HINT START scale=0.770)
G1 X64.3471 Y23.1481 F770.3
G1 X65.0337 Y22.9312 F770.3
G1 X65.7199 Y22.7131 F770.3
(FEED_HINT END)
G1 X66.4053 Y22.4927 F965.9
(FEED_HINT START scale=0.927)
G1 X67.0904 Y22.2712 F927.4
G1 X67.7738 Y22.0448 F927.4
G1 X68.4569 Y21.8170 F927.4
(FEED_HINT END)
G1 X69.1390 Y21.5865 F960.9
(FEED_HINT START scale=0.804)
G1 X69.8206 Y21.3547 F803.6
G1 X70.4976 Y21.1096 F803.6
G1 X71.1741 Y20.8632 F803.6
G1 X71.8493 Y20.6130 F944.1
G1 X72.5234 Y20.3601 F848.1
G1 X73.1936 Y20.0971 F848.1
G1 X73.8627 Y19.8310 F848.1
G1 X74.5287 Y19.5575 F888.8
G1 X75.1928 Y19.2793 F600.0
G1 X75.9749 Y18.7487 F600.0
G1 X75.9915 Y18.8439 F600.0
G1 X75.9258 Y18.8577 F600.0
G1 X75.8611 Y18.8759 F600.0
G1 X75.7978 Y18.8984 F600.0
G1 X75.7361 Y18.9250 F600.0
G1 X75.6764 Y18.9558 F600.0
G1 X75.6188 Y18.9905 F600.0
G1 X75.5661 Y18.9094 F600.0
G1 X76.5002 Y18.7651 F600.0
G1 X76.8498 Y19.5978 F600.0
G1 X76.7850 Y19.6008 F600.0
G1 X76.7807 Y19.5443 F600.0
G1 X76.7733 Y19.4882 F600.0
G1 X76.7627 Y19.4326 F600.0
G1 X76.7490 Y19.3776 F600.0
G1 X76.7322 Y19.3235 F600.0
G1 X76.7123 Y19.2705 F600.0
G1 X76.7725 Y19.2460 F600.0
G1 X76.8044 Y20.1485 F600.0
G1 X76.8357 Y20.8679 F600.0
G1 X76.8671 Y21.5872 F929.1
(FEED_HINT END)
G1 X76.8990 Y22.3065 F993.7
G1 X76.9312 Y23.0257 F985.6
G1 X76.9643 Y23.7450 F985.6
G1 X76.9978 Y24.4642 F985.6
G1 X77.0319 Y25.1834 F991.4
G1 X77.0663 Y25.9026 F957.4
G1 X77.1038 Y26.6216 F957.4
G1 X77.1417 Y27.3406 F957.4
G1 X77.1806 Y28.0595 F985.7
G1 X77.2202 Y28.7785 F952.2
G1 X77.2632 Y29.4972 F952.2
(FEED_HINT START scale=0.926)
G1 X77.3074 Y30.2158 F926.0
G1 X77.3569 Y30.9341 F600.0
G1 X77.3968 Y30.2164 F600.0
G1 X76.7018 Y29.9793 F600.0
G1 X76.7036 Y30.0459 F600.0
G1 X76.7609 Y30.0460 F600.0
G1 X76.8181 Y30.0494 F600.0
G1 X76.8750 Y30.0561 F600.0
G1 X76.9314 Y30.0660 F600.0
G1 X76.9871 Y30.0791 F600.0
G1 X77.0420 Y30.0954 F600.0
G1 X77.0628 Y30.0321 F600.0
G1 X75.6656 Y30.0854 F600.0
G1 X74.9462 Y30.1128 F600.0
G1 X74.2266 Y30.1378 F600.0
G1 X73.5230 Y29.9850 F600.0
G1 X72.8226 Y29.8182 F600.0
G1 X72.1204 Y29.6589 F801.7
G1 X71.4182 Y29.4999 F892.5
(FEED_HINT END)
G1 X70.7159 Y29.3415 F992.5
G1 X70.0134 Y29.1833 F984.3
G1 X69.3108 Y29.0262 F984.3
G1 X68.6081 Y28.8694 F984.3
G1 X67.9052 Y28.7132 F991.8
G1 X67.2023 Y28.5573 F966.2
G1 X66.4989 Y28.4037 F966.2
G1 X65.7954 Y28.2504 F966.2
G1 X65.0918 Y28.0978 F991.5
G1 X64.3881 Y27.9454 F981.8
G1 X63.6841 Y27.7944 F981.8
G1 X62.9800 Y27.6436 F981.8
G1 X62.2759 Y27.4935 F990.3
(FEED_HINT START scale=0.923)
G1 X61.5716 Y27.3438 F922.7
G1 X60.8662 Y27.1996 F922.7
G1 X60.1607 Y27.0557 F922.7
(FEED_HINT END)
G1 X59.4551 Y26.9125 F989.9
G1 X58.7494 Y26.7697 F979.0
G1 X58.0434 Y26.6283 F979.0
G1 X57.3374 Y26.4873 F979.0
G1 X56.6311 Y26.3471 F989.0
G1 X55.9248 Y26.2073 F954.8
G1 X55.2179 Y26.0707 F954.8
G1 X54.5109 Y25.9346 F954.8
G1 X53.8037 Y25.7993 F987.9
G1 X53.0965 Y25.6644 F975.5
G1 X52.3889 Y25.5313 F975.5
G1 X51.6812 Y25.3985 F975.5
G1 X50.9734 Y25.2667 F987.6
(FEED_HINT START scale=0.600)
G1 X50.0878 Y25.1023 F600.0
G1 X50.0981 Y25.1648 F600.0
G1 X50.1536 Y25.1572 F600.0
G1 X50.2094 Y25.1528 F600.0
G1 X50.2654 Y25.1515 F600.0
G1 X50.3214 Y25.1533 F600.0
G1 X50.3772 Y25.1583 F600.0
G1 X50.4326 Y25.1663 F600.0
G1 X50.4435 Y25.1040 F600.0
G1 X49.5564 Y25.2600 F600.0
G1 X48.8473 Y25.3851 F600.0
(FEED_HINT END)
G1 X48.1385 Y25.5113 F985.5
G1 X47.4297 Y25.6381 F968.9
G1 X46.7214 Y25.7670 F968.9
G1 X46.0131 Y25.8966 F968.9
G1 X45.3051 Y26.0273 F983.4
(FEED_HINT START scale=0.929)
G1 X44.5972 Y26.1586 F929.3
G1 X43.8902 Y26.2949 F929.3
G1 X43.1833 Y26.4318 F929.3
(FEED_HINT END)
G1 X42.4767 Y26.5700 F981.4
G1 X41.7703 Y26.7090 F959.1
G1 X41.0644 Y26.8508 F959.1
G1 X40.3586 Y26.9934 F959.1
G1 X39.6532 Y27.1376 F977.4
(FEED_HINT START scale=0.810)
G1 X38.9480 Y27.2827 F809.8
G1 X38.2456 Y27.4411 F809.8
G1 X37.5435 Y27.6006 F809.8
(FEED_HINT END)
G1 X36.8418 Y27.7620 F972.3
(FEED_HINT START scale=0.943)
G1 X36.1404 Y27.9243 F942.5
G1 X35.4399 Y28.0907 F942.5
G1 X34.7396 Y28.2581 F942.5
(FEED_HINT END)
G1 X34.0398 Y28.4276 F970.0
(FEED_HINT START scale=0.855)
G1 X33.3403 Y28.5981 F855.4
G1 X32.6433 Y28.7787 F855.4
G1 X31.9466 Y28.9603 F855.4
(FEED_HINT END)
G1 X31.2506 Y29.1446 F961.1
(FEED_HINT START scale=0.903)
G1 X30.5551 Y29.3307 F902.5
G1 X29.8614 Y29.5236 F902.5
G1 X29.1682 Y29.7184 F902.5
G1 X28.4763 Y29.9176 F937.3
G1 X27.7851 Y30.1192 F600.0
G1 X28.4843 Y29.9473 F600.0
G1 X29.1835 Y29.7755 F600.0
G1 X29.7883 Y29.3847 F600.0
G1 X30.4304 Y29.0591 F600.0
G1 X31.1400 Y28.9369 F600.0
G1 X31.8468 Y28.7998 F600.0
G1 X32.5517 Y28.6533 F789.0
G1 X33.2567 Y28.5068 F867.5
(FEED_HINT END)
G1 X33.9618 Y28.3611 F989.2
G1 X34.6669 Y28.2153 F988.5
G1 X35.3718 Y28.0688 F988.5
G1 X36.0767 Y27.9223 F960.9
G1 X36.7822 Y27.7785 F960.9
G1 X37.4877 Y27.6348 F956.2
G1 X38.1926 Y27.4879 F956.2
G1 X38.8975 Y27.3410 F956.2
G1 X39.6026 Y27.1954 F982.8
G1 X40.3077 Y27.0497 F981.6
G1 X41.0125 Y26.9028 F981.6
(FEED_HINT START scale=0.846)
G1 X41.7174 Y26.7560 F845.5
G1 X42.4245 Y26.6201 F845.5
G1 X43.1315 Y26.4840 F812.9
G1 X43.8359 Y26.3348 F812.9
G1 X44.5402 Y26.1856 F812.9
(FEED_HINT END)
G1 X45.2451 Y26.0387 F965.8
G1 X45.9500 Y25.8919 F954.5
G1 X46.6541 Y25.7418 F954.5
(FEED_HINT START scale=0.790)
G1 X47.3584 Y25.5919 F790.0
G1 X48.0656 Y25.4568 F790.0
G1 X48.7729 Y25.3222 F600.0
G1 X49.4735 Y25.1561 F600.0
G1 X49.9998 Y25.1672 F600.0
G1 X49.9998 Y25.8872 F600.0
G1 X49.9999 Y26.6072 F600.0
G1 X50.0000 Y25.8872 F600.0
G1 X50.0002 Y25.1672 F600.0
G1 X50.0060 Y25.0589 F600.0
G1 X50.0350 Y25.2606 F600.0
(FEED_HINT END)
G0 Z5.0000
M5
M30
(End of program)