; Les Paul CNC Files
; Generated: 2025-12-11 22:45
; Generator: Luthier's ToolBox - Les Paul Body Generator
; Machine: TXRX Labs Router
; Stock: 1.75" thick
;
; Body size: 17.33" × 12.79"
; Perimeter: 52.9"
;

( SAFE START )
G20         ; Inches
G17         ; XY plane
G90         ; Absolute
G94         ; Feed per minute
G54         ; Work offset
G0 Z0.7500


( ============================================ )
( OP20: Neck Pocket Rough )
( ============================================ )
( Layer: Neck Mortise )
( Paths: 1 )
( Depth: 0.75" )

( TOOL CHANGE: T1 - 10mm Flat End Mill )
( OP20: Neck Pocket Rough )
T1 M6
S18000 M3
G4 P2       ; Dwell for spindle
G0 Z0.7500
( Pocket at (1.68, 6.43), 3.37" × 1.50" )
G0 Z0.7500
G0 X1.6835 Y6.4328
G0 Z0.2500
( Pass 1: helical entry to Z-0.2200 )
G2 X1.6835 Y6.4328 I0.0985 J0 Z-0.2200 F31.0
F220.0
G1 X1.5062 Y6.2555
G1 X1.8608 Y6.2555
G1 X1.8608 Y6.6101
G1 X1.5062 Y6.6101
G1 X1.5062 Y6.2555
G1 X1.3289 Y6.0782
G1 X2.0381 Y6.0782
G1 X2.0381 Y6.7874
G1 X1.3289 Y6.7874
G1 X1.3289 Y6.0782
G1 X1.1516 Y5.9009
G1 X2.2154 Y5.9009
G1 X2.2154 Y6.9647
G1 X1.1516 Y6.9647
G1 X1.1516 Y5.9009
G1 X0.0000 Y7.1809
G1 X3.3670 Y7.1809
G1 X3.3670 Y5.6848
G1 X0.0000 Y5.6848
G1 X0.0000 Y7.1809
G0 Z0.7500
G0 X1.6835 Y6.4328
G0 Z0.2500
( Pass 2: helical entry to Z-0.4400 )
G2 X1.6835 Y6.4328 I0.0985 J0 Z-0.4400 F31.0
F220.0
G1 X1.5062 Y6.2555
G1 X1.8608 Y6.2555
G1 X1.8608 Y6.6101
G1 X1.5062 Y6.6101
G1 X1.5062 Y6.2555
G1 X1.3289 Y6.0782
G1 X2.0381 Y6.0782
G1 X2.0381 Y6.7874
G1 X1.3289 Y6.7874
G1 X1.3289 Y6.0782
G1 X1.1516 Y5.9009
G1 X2.2154 Y5.9009
G1 X2.2154 Y6.9647
G1 X1.1516 Y6.9647
G1 X1.1516 Y5.9009
G1 X0.0000 Y7.1809
G1 X3.3670 Y7.1809
G1 X3.3670 Y5.6848
G1 X0.0000 Y5.6848
G1 X0.0000 Y7.1809
G0 Z0.7500
G0 X1.6835 Y6.4328
G0 Z0.2500
( Pass 3: helical entry to Z-0.6600 )
G2 X1.6835 Y6.4328 I0.0985 J0 Z-0.6600 F31.0
F220.0
G1 X1.5062 Y6.2555
G1 X1.8608 Y6.2555
G1 X1.8608 Y6.6101
G1 X1.5062 Y6.6101
G1 X1.5062 Y6.2555
G1 X1.3289 Y6.0782
G1 X2.0381 Y6.0782
G1 X2.0381 Y6.7874
G1 X1.3289 Y6.7874
G1 X1.3289 Y6.0782
G1 X1.1516 Y5.9009
G1 X2.2154 Y5.9009
G1 X2.2154 Y6.9647
G1 X1.1516 Y6.9647
G1 X1.1516 Y5.9009
G1 X0.0000 Y7.1809
G1 X3.3670 Y7.1809
G1 X3.3670 Y5.6848
G1 X0.0000 Y5.6848
G1 X0.0000 Y7.1809
G0 Z0.7500
G0 X1.6835 Y6.4328
G0 Z0.2500
( Pass 4: helical entry to Z-0.7500 )
G2 X1.6835 Y6.4328 I0.0985 J0 Z-0.7500 F31.0
F220.0
G1 X1.5062 Y6.2555
G1 X1.8608 Y6.2555
G1 X1.8608 Y6.6101
G1 X1.5062 Y6.6101
G1 X1.5062 Y6.2555
G1 X1.3289 Y6.0782
G1 X2.0381 Y6.0782
G1 X2.0381 Y6.7874
G1 X1.3289 Y6.7874
G1 X1.3289 Y6.0782
G1 X1.1516 Y5.9009
G1 X2.2154 Y5.9009
G1 X2.2154 Y6.9647
G1 X1.1516 Y6.9647
G1 X1.1516 Y5.9009
G1 X0.0000 Y7.1809
G1 X3.3670 Y7.1809
G1 X3.3670 Y5.6848
G1 X0.0000 Y5.6848
G1 X0.0000 Y7.1809
G0 Z0.2500

( ============================================ )
( OP21: Pickup Cavity Rough )
( ============================================ )
( Layer: Pickup Cavity )
( Paths: 2 )
( Depth: 0.75" )
( Pocket at (8.31, 6.43), 1.60" × 2.85" )
G0 Z0.7500
G0 X8.3122 Y6.4280
G0 Z0.2500
( Pass 1: helical entry to Z-0.2200 )
G2 X8.3122 Y6.4280 I0.0985 J0 Z-0.2200 F31.0
F220.0
G1 X8.1349 Y6.2507
G1 X8.4895 Y6.2507
G1 X8.4895 Y6.6053
G1 X8.1349 Y6.6053
G1 X8.1349 Y6.2507
G1 X7.9576 Y6.0734
G1 X8.6668 Y6.0734
G1 X8.6668 Y6.7826
G1 X7.9576 Y6.7826
G1 X7.9576 Y6.0734
G1 X7.7803 Y5.8961
G1 X8.8441 Y5.8961
G1 X8.8441 Y6.9599
G1 X7.7803 Y6.9599
G1 X7.7803 Y5.8961
G1 X7.5145 Y7.1318
G1 X7.5145 Y7.6987
G1 X7.6720 Y7.8544
G1 X8.9523 Y7.8544
G1 X9.1098 Y7.6969
G1 X9.1098 Y5.1591
G1 X8.9523 Y5.0016
G1 X7.6720 Y5.0016
G1 X7.5145 Y5.1591
G1 X7.5145 Y7.1318
G0 Z0.7500
G0 X8.3122 Y6.4280
G0 Z0.2500
( Pass 2: helical entry to Z-0.4400 )
G2 X8.3122 Y6.4280 I0.0985 J0 Z-0.4400 F31.0
F220.0
G1 X8.1349 Y6.2507
G1 X8.4895 Y6.2507
G1 X8.4895 Y6.6053
G1 X8.1349 Y6.6053
G1 X8.1349 Y6.2507
G1 X7.9576 Y6.0734
G1 X8.6668 Y6.0734
G1 X8.6668 Y6.7826
G1 X7.9576 Y6.7826
G1 X7.9576 Y6.0734
G1 X7.7803 Y5.8961
G1 X8.8441 Y5.8961
G1 X8.8441 Y6.9599
G1 X7.7803 Y6.9599
G1 X7.7803 Y5.8961
G1 X7.5145 Y7.1318
G1 X7.5145 Y7.6987
G1 X7.6720 Y7.8544
G1 X8.9523 Y7.8544
G1 X9.1098 Y7.6969
G1 X9.1098 Y5.1591
G1 X8.9523 Y5.0016
G1 X7.6720 Y5.0016
G1 X7.5145 Y5.1591
G1 X7.5145 Y7.1318
G0 Z0.7500
G0 X8.3122 Y6.4280
G0 Z0.2500
( Pass 3: helical entry to Z-0.6600 )
G2 X8.3122 Y6.4280 I0.0985 J0 Z-0.6600 F31.0
F220.0
G1 X8.1349 Y6.2507
G1 X8.4895 Y6.2507
G1 X8.4895 Y6.6053
G1 X8.1349 Y6.6053
G1 X8.1349 Y6.2507
G1 X7.9576 Y6.0734
G1 X8.6668 Y6.0734
G1 X8.6668 Y6.7826
G1 X7.9576 Y6.7826
G1 X7.9576 Y6.0734
G1 X7.7803 Y5.8961
G1 X8.8441 Y5.8961
G1 X8.8441 Y6.9599
G1 X7.7803 Y6.9599
G1 X7.7803 Y5.8961
G1 X7.5145 Y7.1318
G1 X7.5145 Y7.6987
G1 X7.6720 Y7.8544
G1 X8.9523 Y7.8544
G1 X9.1098 Y7.6969
G1 X9.1098 Y5.1591
G1 X8.9523 Y5.0016
G1 X7.6720 Y5.0016
G1 X7.5145 Y5.1591
G1 X7.5145 Y7.1318
G0 Z0.7500
G0 X8.3122 Y6.4280
G0 Z0.2500
( Pass 4: helical entry to Z-0.7500 )
G2 X8.3122 Y6.4280 I0.0985 J0 Z-0.7500 F31.0
F220.0
G1 X8.1349 Y6.2507
G1 X8.4895 Y6.2507
G1 X8.4895 Y6.6053
G1 X8.1349 Y6.6053
G1 X8.1349 Y6.2507
G1 X7.9576 Y6.0734
G1 X8.6668 Y6.0734
G1 X8.6668 Y6.7826
G1 X7.9576 Y6.7826
G1 X7.9576 Y6.0734
G1 X7.7803 Y5.8961
G1 X8.8441 Y5.8961
G1 X8.8441 Y6.9599
G1 X7.7803 Y6.9599
G1 X7.7803 Y5.8961
G1 X7.5145 Y7.1318
G1 X7.5145 Y7.6987
G1 X7.6720 Y7.8544
G1 X8.9523 Y7.8544
G1 X9.1098 Y7.6969
G1 X9.1098 Y5.1591
G1 X8.9523 Y5.0016
G1 X7.6720 Y5.0016
G1 X7.5145 Y5.1591
G1 X7.5145 Y7.1318
G0 Z0.2500
( Pocket at (4.16, 6.43), 1.60" × 2.85" )
G0 Z0.7500
G0 X4.1646 Y6.4280
G0 Z0.2500
( Pass 1: helical entry to Z-0.2200 )
G2 X4.1646 Y6.4280 I0.0985 J0 Z-0.2200 F31.0
F220.0
G1 X3.9873 Y6.2507
G1 X4.3419 Y6.2507
G1 X4.3419 Y6.6053
G1 X3.9873 Y6.6053
G1 X3.9873 Y6.2507
G1 X3.8100 Y6.0734
G1 X4.5192 Y6.0734
G1 X4.5192 Y6.7826
G1 X3.8100 Y6.7826
G1 X3.8100 Y6.0734
G1 X3.6327 Y5.8961
G1 X4.6965 Y5.8961
G1 X4.6965 Y6.9599
G1 X3.6327 Y6.9599
G1 X3.6327 Y5.8961
G1 X4.9622 Y5.1591
G1 X4.8048 Y5.0016
G1 X3.5244 Y5.0016
G1 X3.3670 Y5.1591
G1 X3.3670 Y7.6969
G1 X3.5244 Y7.8544
G1 X4.8048 Y7.8544
G1 X4.9622 Y7.6969
G1 X4.9622 Y5.6071
G1 X4.9622 Y5.1591
G0 Z0.7500
G0 X4.1646 Y6.4280
G0 Z0.2500
( Pass 2: helical entry to Z-0.4400 )
G2 X4.1646 Y6.4280 I0.0985 J0 Z-0.4400 F31.0
F220.0
G1 X3.9873 Y6.2507
G1 X4.3419 Y6.2507
G1 X4.3419 Y6.6053
G1 X3.9873 Y6.6053
G1 X3.9873 Y6.2507
G1 X3.8100 Y6.0734
G1 X4.5192 Y6.0734
G1 X4.5192 Y6.7826
G1 X3.8100 Y6.7826
G1 X3.8100 Y6.0734
G1 X3.6327 Y5.8961
G1 X4.6965 Y5.8961
G1 X4.6965 Y6.9599
G1 X3.6327 Y6.9599
G1 X3.6327 Y5.8961
G1 X4.9622 Y5.1591
G1 X4.8048 Y5.0016
G1 X3.5244 Y5.0016
G1 X3.3670 Y5.1591
G1 X3.3670 Y7.6969
G1 X3.5244 Y7.8544
G1 X4.8048 Y7.8544
G1 X4.9622 Y7.6969
G1 X4.9622 Y5.6071
G1 X4.9622 Y5.1591
G0 Z0.7500
G0 X4.1646 Y6.4280
G0 Z0.2500
( Pass 3: helical entry to Z-0.6600 )
G2 X4.1646 Y6.4280 I0.0985 J0 Z-0.6600 F31.0
F220.0
G1 X3.9873 Y6.2507
G1 X4.3419 Y6.2507
G1 X4.3419 Y6.6053
G1 X3.9873 Y6.6053
G1 X3.9873 Y6.2507
G1 X3.8100 Y6.0734
G1 X4.5192 Y6.0734
G1 X4.5192 Y6.7826
G1 X3.8100 Y6.7826
G1 X3.8100 Y6.0734
G1 X3.6327 Y5.8961
G1 X4.6965 Y5.8961
G1 X4.6965 Y6.9599
G1 X3.6327 Y6.9599
G1 X3.6327 Y5.8961
G1 X4.9622 Y5.1591
G1 X4.8048 Y5.0016
G1 X3.5244 Y5.0016
G1 X3.3670 Y5.1591
G1 X3.3670 Y7.6969
G1 X3.5244 Y7.8544
G1 X4.8048 Y7.8544
G1 X4.9622 Y7.6969
G1 X4.9622 Y5.6071
G1 X4.9622 Y5.1591
G0 Z0.7500
G0 X4.1646 Y6.4280
G0 Z0.2500
( Pass 4: helical entry to Z-0.7500 )
G2 X4.1646 Y6.4280 I0.0985 J0 Z-0.7500 F31.0
F220.0
G1 X3.9873 Y6.2507
G1 X4.3419 Y6.2507
G1 X4.3419 Y6.6053
G1 X3.9873 Y6.6053
G1 X3.9873 Y6.2507
G1 X3.8100 Y6.0734
G1 X4.5192 Y6.0734
G1 X4.5192 Y6.7826
G1 X3.8100 Y6.7826
G1 X3.8100 Y6.0734
G1 X3.6327 Y5.8961
G1 X4.6965 Y5.8961
G1 X4.6965 Y6.9599
G1 X3.6327 Y6.9599
G1 X3.6327 Y5.8961
G1 X4.9622 Y5.1591
G1 X4.8048 Y5.0016
G1 X3.5244 Y5.0016
G1 X3.3670 Y5.1591
G1 X3.3670 Y7.6969
G1 X3.5244 Y7.8544
G1 X4.8048 Y7.8544
G1 X4.9622 Y7.6969
G1 X4.9622 Y5.6071
G1 X4.9622 Y5.1591
G0 Z0.2500

( ============================================ )
( OP22: Electronics Cavity Rough )
( ============================================ )
( Layer: Electronic Cavities )
( Paths: 2 )
( Depth: 1.25" )
( Pocket at (12.96, 10.60), 5.55" × 2.86" )
G0 Z0.7500
G0 X12.9575 Y10.6021
G0 Z0.2500
( Pass 1: helical entry to Z-0.2200 )
G2 X12.9575 Y10.6021 I0.0985 J0 Z-0.2200 F31.0
F220.0
G1 X12.7802 Y10.4248
G1 X13.1348 Y10.4248
G1 X13.1348 Y10.7794
G1 X12.7802 Y10.7794
G1 X12.7802 Y10.4248
G1 X12.6029 Y10.2475
G1 X13.3121 Y10.2475
G1 X13.3121 Y10.9567
G1 X12.6029 Y10.9567
G1 X12.6029 Y10.2475
G1 X12.4256 Y10.0702
G1 X13.4894 Y10.0702
G1 X13.4894 Y11.1340
G1 X12.4256 Y11.1340
G1 X12.4256 Y10.0702
G1 X12.2483 Y9.8929
G1 X13.6667 Y9.8929
G1 X13.6667 Y11.3113
G1 X12.2483 Y11.3113
G1 X12.2483 Y9.8929
G1 X12.0710 Y9.7156
G1 X13.8440 Y9.7156
G1 X13.8440 Y11.4886
G1 X12.0710 Y11.4886
G1 X12.0710 Y9.7156
G1 X11.8937 Y9.5383
G1 X14.0213 Y9.5383
G1 X14.0213 Y11.6659
G1 X11.8937 Y11.6659
G1 X11.8937 Y9.5383
G1 X11.5912 Y11.6151
G1 X12.4460 Y11.6151
G1 X13.8632 Y11.2807
G1 X13.7473 Y10.8807
G1 X13.7892 Y10.8091
G1 X14.9804 Y12.0335
G1 X15.7317 Y11.3716
G1 X14.5429 Y10.1497
G1 X14.8824 Y9.5231
G1 X13.4745 Y9.1708
G1 X12.6104 Y9.1708
G1 X11.2025 Y9.5231
G1 X11.3130 Y9.9144
G1 X10.8817 Y10.5164
G1 X10.1833 Y11.2628
G1 X11.5912 Y11.6151
G0 Z0.7500
G0 X12.9575 Y10.6021
G0 Z0.2500
( Pass 2: helical entry to Z-0.4400 )
G2 X12.9575 Y10.6021 I0.0985 J0 Z-0.4400 F31.0
F220.0
G1 X12.7802 Y10.4248
G1 X13.1348 Y10.4248
G1 X13.1348 Y10.7794
G1 X12.7802 Y10.7794
G1 X12.7802 Y10.4248
G1 X12.6029 Y10.2475
G1 X13.3121 Y10.2475
G1 X13.3121 Y10.9567
G1 X12.6029 Y10.9567
G1 X12.6029 Y10.2475
G1 X12.4256 Y10.0702
G1 X13.4894 Y10.0702
G1 X13.4894 Y11.1340
G1 X12.4256 Y11.1340
G1 X12.4256 Y10.0702
G1 X12.2483 Y9.8929
G1 X13.6667 Y9.8929
G1 X13.6667 Y11.3113
G1 X12.2483 Y11.3113
G1 X12.2483 Y9.8929
G1 X12.0710 Y9.7156
G1 X13.8440 Y9.7156
G1 X13.8440 Y11.4886
G1 X12.0710 Y11.4886
G1 X12.0710 Y9.7156
G1 X11.8937 Y9.5383
G1 X14.0213 Y9.5383
G1 X14.0213 Y11.6659
G1 X11.8937 Y11.6659
G1 X11.8937 Y9.5383
G1 X11.5912 Y11.6151
G1 X12.4460 Y11.6151
G1 X13.8632 Y11.2807
G1 X13.7473 Y10.8807
G1 X13.7892 Y10.8091
G1 X14.9804 Y12.0335
G1 X15.7317 Y11.3716
G1 X14.5429 Y10.1497
G1 X14.8824 Y9.5231
G1 X13.4745 Y9.1708
G1 X12.6104 Y9.1708
G1 X11.2025 Y9.5231
G1 X11.3130 Y9.9144
G1 X10.8817 Y10.5164
G1 X10.1833 Y11.2628
G1 X11.5912 Y11.6151
G0 Z0.7500
G0 X12.9575 Y10.6021
G0 Z0.2500
( Pass 3: helical entry to Z-0.6600 )
G2 X12.9575 Y10.6021 I0.0985 J0 Z-0.6600 F31.0
F220.0
G1 X12.7802 Y10.4248
G1 X13.1348 Y10.4248
G1 X13.1348 Y10.7794
G1 X12.7802 Y10.7794
G1 X12.7802 Y10.4248
G1 X12.6029 Y10.2475
G1 X13.3121 Y10.2475
G1 X13.3121 Y10.9567
G1 X12.6029 Y10.9567
G1 X12.6029 Y10.2475
G1 X12.4256 Y10.0702
G1 X13.4894 Y10.0702
G1 X13.4894 Y11.1340
G1 X12.4256 Y11.1340
G1 X12.4256 Y10.0702
G1 X12.2483 Y9.8929
G1 X13.6667 Y9.8929
G1 X13.6667 Y11.3113
G1 X12.2483 Y11.3113
G1 X12.2483 Y9.8929
G1 X12.0710 Y9.7156
G1 X13.8440 Y9.7156
G1 X13.8440 Y11.4886
G1 X12.0710 Y11.4886
G1 X12.0710 Y9.7156
G1 X11.8937 Y9.5383
G1 X14.0213 Y9.5383
G1 X14.0213 Y11.6659
G1 X11.8937 Y11.6659
G1 X11.8937 Y9.5383
G1 X11.5912 Y11.6151
G1 X12.4460 Y11.6151
G1 X13.8632 Y11.2807
G1 X13.7473 Y10.8807
G1 X13.7892 Y10.8091
G1 X14.9804 Y12.0335
G1 X15.7317 Y11.3716
G1 X14.5429 Y10.1497
G1 X14.8824 Y9.5231
G1 X13.4745 Y9.1708
G1 X12.6104 Y9.1708
G1 X11.2025 Y9.5231
G1 X11.3130 Y9.9144
G1 X10.8817 Y10.5164
G1 X10.1833 Y11.2628
G1 X11.5912 Y11.6151
G0 Z0.7500
G0 X12.9575 Y10.6021
G0 Z0.2500
( Pass 4: helical entry to Z-0.8800 )
G2 X12.9575 Y10.6021 I0.0985 J0 Z-0.8800 F31.0
F220.0
G1 X12.7802 Y10.4248
G1 X13.1348 Y10.4248
G1 X13.1348 Y10.7794
G1 X12.7802 Y10.7794
G1 X12.7802 Y10.4248
G1 X12.6029 Y10.2475
G1 X13.3121 Y10.2475
G1 X13.3121 Y10.9567
G1 X12.6029 Y10.9567
G1 X12.6029 Y10.2475
G1 X12.4256 Y10.0702
G1 X13.4894 Y10.0702
G1 X13.4894 Y11.1340
G1 X12.4256 Y11.1340
G1 X12.4256 Y10.0702
G1 X12.2483 Y9.8929
G1 X13.6667 Y9.8929
G1 X13.6667 Y11.3113
G1 X12.2483 Y11.3113
G1 X12.2483 Y9.8929
G1 X12.0710 Y9.7156
G1 X13.8440 Y9.7156
G1 X13.8440 Y11.4886
G1 X12.0710 Y11.4886
G1 X12.0710 Y9.7156
G1 X11.8937 Y9.5383
G1 X14.0213 Y9.5383
G1 X14.0213 Y11.6659
G1 X11.8937 Y11.6659
G1 X11.8937 Y9.5383
G1 X11.5912 Y11.6151
G1 X12.4460 Y11.6151
G1 X13.8632 Y11.2807
G1 X13.7473 Y10.8807
G1 X13.7892 Y10.8091
G1 X14.9804 Y12.0335
G1 X15.7317 Y11.3716
G1 X14.5429 Y10.1497
G1 X14.8824 Y9.5231
G1 X13.4745 Y9.1708
G1 X12.6104 Y9.1708
G1 X11.2025 Y9.5231
G1 X11.3130 Y9.9144
G1 X10.8817 Y10.5164
G1 X10.1833 Y11.2628
G1 X11.5912 Y11.6151
G0 Z0.7500
G0 X12.9575 Y10.6021
G0 Z0.2500
( Pass 5: helical entry to Z-1.1000 )
G2 X12.9575 Y10.6021 I0.0985 J0 Z-1.1000 F31.0
F220.0
G1 X12.7802 Y10.4248
G1 X13.1348 Y10.4248
G1 X13.1348 Y10.7794
G1 X12.7802 Y10.7794
G1 X12.7802 Y10.4248
G1 X12.6029 Y10.2475
G1 X13.3121 Y10.2475
G1 X13.3121 Y10.9567
G1 X12.6029 Y10.9567
G1 X12.6029 Y10.2475
G1 X12.4256 Y10.0702
G1 X13.4894 Y10.0702
G1 X13.4894 Y11.1340
G1 X12.4256 Y11.1340
G1 X12.4256 Y10.0702
G1 X12.2483 Y9.8929
G1 X13.6667 Y9.8929
G1 X13.6667 Y11.3113
G1 X12.2483 Y11.3113
G1 X12.2483 Y9.8929
G1 X12.0710 Y9.7156
G1 X13.8440 Y9.7156
G1 X13.8440 Y11.4886
G1 X12.0710 Y11.4886
G1 X12.0710 Y9.7156
G1 X11.8937 Y9.5383
G1 X14.0213 Y9.5383
G1 X14.0213 Y11.6659
G1 X11.8937 Y11.6659
G1 X11.8937 Y9.5383
G1 X11.5912 Y11.6151
G1 X12.4460 Y11.6151
G1 X13.8632 Y11.2807
G1 X13.7473 Y10.8807
G1 X13.7892 Y10.8091
G1 X14.9804 Y12.0335
G1 X15.7317 Y11.3716
G1 X14.5429 Y10.1497
G1 X14.8824 Y9.5231
G1 X13.4745 Y9.1708
G1 X12.6104 Y9.1708
G1 X11.2025 Y9.5231
G1 X11.3130 Y9.9144
G1 X10.8817 Y10.5164
G1 X10.1833 Y11.2628
G1 X11.5912 Y11.6151
G0 Z0.7500
G0 X12.9575 Y10.6021
G0 Z0.2500
( Pass 6: helical entry to Z-1.2500 )
G2 X12.9575 Y10.6021 I0.0985 J0 Z-1.2500 F31.0
F220.0
G1 X12.7802 Y10.4248
G1 X13.1348 Y10.4248
G1 X13.1348 Y10.7794
G1 X12.7802 Y10.7794
G1 X12.7802 Y10.4248
G1 X12.6029 Y10.2475
G1 X13.3121 Y10.2475
G1 X13.3121 Y10.9567
G1 X12.6029 Y10.9567
G1 X12.6029 Y10.2475
G1 X12.4256 Y10.0702
G1 X13.4894 Y10.0702
G1 X13.4894 Y11.1340
G1 X12.4256 Y11.1340
G1 X12.4256 Y10.0702
G1 X12.2483 Y9.8929
G1 X13.6667 Y9.8929
G1 X13.6667 Y11.3113
G1 X12.2483 Y11.3113
G1 X12.2483 Y9.8929
G1 X12.0710 Y9.7156
G1 X13.8440 Y9.7156
G1 X13.8440 Y11.4886
G1 X12.0710 Y11.4886
G1 X12.0710 Y9.7156
G1 X11.8937 Y9.5383
G1 X14.0213 Y9.5383
G1 X14.0213 Y11.6659
G1 X11.8937 Y11.6659
G1 X11.8937 Y9.5383
G1 X11.5912 Y11.6151
G1 X12.4460 Y11.6151
G1 X13.8632 Y11.2807
G1 X13.7473 Y10.8807
G1 X13.7892 Y10.8091
G1 X14.9804 Y12.0335
G1 X15.7317 Y11.3716
G1 X14.5429 Y10.1497
G1 X14.8824 Y9.5231
G1 X13.4745 Y9.1708
G1 X12.6104 Y9.1708
G1 X11.2025 Y9.5231
G1 X11.3130 Y9.9144
G1 X10.8817 Y10.5164
G1 X10.1833 Y11.2628
G1 X11.5912 Y11.6151
G0 Z0.2500
( Pocket at (2.46, 3.46), 1.50" × 0.00" )
G0 Z0.7500
G0 X2.4559 Y3.4639
G0 Z0.2500
( Pass 1: helical entry to Z-0.2200 )
G2 X2.4559 Y3.4639 I0.0985 J0 Z-0.2200 F31.0
F220.0
G1 X3.2039 Y3.4639
G1 X1.7078 Y3.4639
G1 X3.2039 Y3.4639
G0 Z0.7500
G0 X2.4559 Y3.4639
G0 Z0.2500
( Pass 2: helical entry to Z-0.4400 )
G2 X2.4559 Y3.4639 I0.0985 J0 Z-0.4400 F31.0
F220.0
G1 X3.2039 Y3.4639
G1 X1.7078 Y3.4639
G1 X3.2039 Y3.4639
G0 Z0.7500
G0 X2.4559 Y3.4639
G0 Z0.2500
( Pass 3: helical entry to Z-0.6600 )
G2 X2.4559 Y3.4639 I0.0985 J0 Z-0.6600 F31.0
F220.0
G1 X3.2039 Y3.4639
G1 X1.7078 Y3.4639
G1 X3.2039 Y3.4639
G0 Z0.7500
G0 X2.4559 Y3.4639
G0 Z0.2500
( Pass 4: helical entry to Z-0.8800 )
G2 X2.4559 Y3.4639 I0.0985 J0 Z-0.8800 F31.0
F220.0
G1 X3.2039 Y3.4639
G1 X1.7078 Y3.4639
G1 X3.2039 Y3.4639
G0 Z0.7500
G0 X2.4559 Y3.4639
G0 Z0.2500
( Pass 5: helical entry to Z-1.1000 )
G2 X2.4559 Y3.4639 I0.0985 J0 Z-1.1000 F31.0
F220.0
G1 X3.2039 Y3.4639
G1 X1.7078 Y3.4639
G1 X3.2039 Y3.4639
G0 Z0.7500
G0 X2.4559 Y3.4639
G0 Z0.2500
( Pass 6: helical entry to Z-1.2500 )
G2 X2.4559 Y3.4639 I0.0985 J0 Z-1.2500 F31.0
F220.0
G1 X3.2039 Y3.4639
G1 X1.7078 Y3.4639
G1 X3.2039 Y3.4639
G0 Z0.2500

( ============================================ )
( OP25: BACK COVER RECESS )
( ============================================ )
( Rabbet for back cover plate )
( Depth: 0.125" )
M5

( TOOL CHANGE: T2 - 6mm Flat End Mill )
( Back cover recess )
T2 M6
S18000 M3
G4 P2       ; Dwell for spindle
G0 Z0.7500
( Cover recess at (12.53, 10.39), 5.04" × 3.55" )
G0 Z0.7500
G0 X12.5328 Y10.3930
G0 Z0.2500
G2 X12.5328 Y10.3930 I0.0590 J0 Z-0.1250 F24.0
F150.0
G1 X12.4904 Y10.3505
G1 X12.5753 Y10.3505
G1 X12.5753 Y10.4354
G1 X12.4904 Y10.4354
G1 X12.4904 Y10.3505
G1 X12.4479 Y10.3080
G1 X12.6178 Y10.3080
G1 X12.6178 Y10.4779
G1 X12.4479 Y10.4779
G1 X12.4479 Y10.3080
G1 X12.4054 Y10.2655
G1 X12.6603 Y10.2655
G1 X12.6603 Y10.5204
G1 X12.4054 Y10.5204
G1 X12.4054 Y10.2655
G1 X12.3629 Y10.2230
G1 X12.7028 Y10.2230
G1 X12.7028 Y10.5629
G1 X12.3629 Y10.5629
G1 X12.3629 Y10.2230
G1 X12.3204 Y10.1806
G1 X12.7452 Y10.1806
G1 X12.7452 Y10.6054
G1 X12.3204 Y10.6054
G1 X12.3204 Y10.1806
G1 X12.2780 Y10.1381
G1 X12.7877 Y10.1381
G1 X12.7877 Y10.6478
G1 X12.2780 Y10.6478
G1 X12.2780 Y10.1381
G1 X12.2355 Y10.0956
G1 X12.8302 Y10.0956
G1 X12.8302 Y10.6903
G1 X12.2355 Y10.6903
G1 X12.2355 Y10.0956
G1 X12.1930 Y10.0531
G1 X12.8727 Y10.0531
G1 X12.8727 Y10.7328
G1 X12.1930 Y10.7328
G1 X12.1930 Y10.0531
G1 X12.1505 Y10.0106
G1 X12.9152 Y10.0106
G1 X12.9152 Y10.7753
G1 X12.1505 Y10.7753
G1 X12.1505 Y10.0106
G1 X12.1080 Y9.9682
G1 X12.9576 Y9.9682
G1 X12.9576 Y10.8178
G1 X12.1080 Y10.8178
G1 X12.1080 Y9.9682
G1 X12.0656 Y9.9257
G1 X13.0001 Y9.9257
G1 X13.0001 Y10.8602
G1 X12.0656 Y10.8602
G1 X12.0656 Y9.9257
G1 X12.0231 Y9.8832
G1 X13.0426 Y9.8832
G1 X13.0426 Y10.9027
G1 X12.0231 Y10.9027
G1 X12.0231 Y9.8832
G1 X11.9806 Y9.8407
G1 X13.0851 Y9.8407
G1 X13.0851 Y10.9452
G1 X11.9806 Y10.9452
G1 X11.9806 Y9.8407
G1 X11.9381 Y9.7982
G1 X13.1276 Y9.7982
G1 X13.1276 Y10.9877
G1 X11.9381 Y10.9877
G1 X11.9381 Y9.7982
G1 X11.8956 Y9.7558
G1 X13.1700 Y9.7558
G1 X13.1700 Y11.0302
G1 X11.8956 Y11.0302
G1 X11.8956 Y9.7558
G1 X11.8532 Y9.7133
G1 X13.2125 Y9.7133
G1 X13.2125 Y11.0726
G1 X11.8532 Y11.0726
G1 X11.8532 Y9.7133
G1 X11.8107 Y9.6708
G1 X13.2550 Y9.6708
G1 X13.2550 Y11.1151
G1 X11.8107 Y11.1151
G1 X11.8107 Y9.6708
G1 X11.7682 Y9.6283
G1 X13.2975 Y9.6283
G1 X13.2975 Y11.1576
G1 X11.7682 Y11.1576
G1 X11.7682 Y9.6283
G1 X11.7257 Y9.5858
G1 X13.3400 Y9.5858
G1 X13.3400 Y11.2001
G1 X11.7257 Y11.2001
G1 X11.7257 Y9.5858
G1 X11.6832 Y9.5434
G1 X13.3824 Y9.5434
G1 X13.3824 Y11.2426
G1 X11.6832 Y11.2426
G1 X11.6832 Y9.5434
G1 X11.6408 Y9.5009
G1 X13.4249 Y9.5009
G1 X13.4249 Y11.2850
G1 X11.6408 Y11.2850
G1 X11.6408 Y9.5009
G1 X11.5983 Y9.4584
G1 X13.4674 Y9.4584
G1 X13.4674 Y11.3275
G1 X11.5983 Y11.3275
G1 X11.5983 Y9.4584
G1 X11.5558 Y9.4159
G1 X13.5099 Y9.4159
G1 X13.5099 Y11.3700
G1 X11.5558 Y11.3700
G1 X11.5558 Y9.4159
G1 X11.5133 Y9.3734
G1 X13.5524 Y9.3734
G1 X13.5524 Y11.4125
G1 X11.5133 Y11.4125
G1 X11.5133 Y9.3734
G1 X11.4708 Y9.3310
G1 X13.5948 Y9.3310
G1 X13.5948 Y11.4550
G1 X11.4708 Y11.4550
G1 X11.4708 Y9.3310
G1 X11.4284 Y9.2885
G1 X13.6373 Y9.2885
G1 X13.6373 Y11.4974
G1 X11.4284 Y11.4974
G1 X11.4284 Y9.2885
G1 X11.3859 Y9.2460
G1 X13.6798 Y9.2460
G1 X13.6798 Y11.5399
G1 X11.3859 Y11.5399
G1 X11.3859 Y9.2460
G1 X11.3434 Y9.2035
G1 X13.7223 Y9.2035
G1 X13.7223 Y11.5824
G1 X11.3434 Y11.5824
G1 X11.3434 Y9.2035
G1 X11.3009 Y9.1610
G1 X13.7648 Y9.1610
G1 X13.7648 Y11.6249
G1 X11.3009 Y11.6249
G1 X11.3009 Y9.1610
G1 X11.2584 Y9.1186
G1 X13.8072 Y9.1186
G1 X13.8072 Y11.6674
G1 X11.2584 Y11.6674
G1 X11.2584 Y9.1186
G1 X11.2160 Y9.0761
G1 X13.8497 Y9.0761
G1 X13.8497 Y11.7098
G1 X11.2160 Y11.7098
G1 X11.2160 Y9.0761
G1 X11.1735 Y9.0336
G1 X13.8922 Y9.0336
G1 X13.8922 Y11.7523
G1 X11.1735 Y11.7523
G1 X11.1735 Y9.0336
G1 X11.1310 Y8.9911
G1 X13.9347 Y8.9911
G1 X13.9347 Y11.7948
G1 X11.1310 Y11.7948
G1 X11.1310 Y8.9911
G1 X11.0885 Y8.9486
G1 X13.9772 Y8.9486
G1 X13.9772 Y11.8373
G1 X11.0885 Y11.8373
G1 X11.0885 Y8.9486
G1 X11.0460 Y8.9062
G1 X14.0196 Y8.9062
G1 X14.0196 Y11.8798
G1 X11.0460 Y11.8798
G1 X11.0460 Y8.9062
G1 X11.0036 Y8.8637
G1 X14.0621 Y8.8637
G1 X14.0621 Y11.9222
G1 X11.0036 Y11.9222
G1 X11.0036 Y8.8637
G1 X10.9611 Y8.8212
G1 X14.1046 Y8.8212
G1 X14.1046 Y11.9647
G1 X10.9611 Y11.9647
G1 X10.9611 Y8.8212
G1 X10.9186 Y8.7787
G1 X14.1471 Y8.7787
G1 X14.1471 Y12.0072
G1 X10.9186 Y12.0072
G1 X10.9186 Y8.7787
G1 X10.8761 Y8.7362
G1 X14.1896 Y8.7362
G1 X14.1896 Y12.0497
G1 X10.8761 Y12.0497
G1 X10.8761 Y8.7362
G1 X10.0111 Y11.0422
G1 X10.6565 Y12.1683
G1 X13.2054 Y12.1683
G1 X13.8509 Y11.7984
G1 X15.0546 Y9.7437
G1 X14.4092 Y8.6176
G1 X11.8603 Y8.6176
G1 X11.2148 Y8.9875
G1 X10.0111 Y11.0422
G0 Z0.2500

( ============================================ )
( OP30: Neck Pocket Finish )
( ============================================ )
( Layer: Neck Mortise )
( Paths: 1 )
( Depth: 0.75" )
( Pocket at (1.68, 6.43), 3.37" × 1.50" )
G0 Z0.7500
G0 X1.6835 Y6.4328
G0 Z0.2500
( Pass 1: helical entry to Z-0.0600 )
G2 X1.6835 Y6.4328 I0.0590 J0 Z-0.0600 F24.0
F150.0
G1 X1.6410 Y6.3904
G1 X1.7260 Y6.3904
G1 X1.7260 Y6.4753
G1 X1.6410 Y6.4753
G1 X1.6410 Y6.3904
G1 X1.5985 Y6.3479
G1 X1.7684 Y6.3479
G1 X1.7684 Y6.5178
G1 X1.5985 Y6.5178
G1 X1.5985 Y6.3479
G1 X1.5560 Y6.3054
G1 X1.8109 Y6.3054
G1 X1.8109 Y6.5603
G1 X1.5560 Y6.5603
G1 X1.5560 Y6.3054
G1 X1.5136 Y6.2629
G1 X1.8534 Y6.2629
G1 X1.8534 Y6.6028
G1 X1.5136 Y6.6028
G1 X1.5136 Y6.2629
G1 X1.4711 Y6.2204
G1 X1.8959 Y6.2204
G1 X1.8959 Y6.6452
G1 X1.4711 Y6.6452
G1 X1.4711 Y6.2204
G1 X1.4286 Y6.1780
G1 X1.9384 Y6.1780
G1 X1.9384 Y6.6877
G1 X1.4286 Y6.6877
G1 X1.4286 Y6.1780
G1 X1.3861 Y6.1355
G1 X1.9808 Y6.1355
G1 X1.9808 Y6.7302
G1 X1.3861 Y6.7302
G1 X1.3861 Y6.1355
G1 X1.3436 Y6.0930
G1 X2.0233 Y6.0930
G1 X2.0233 Y6.7727
G1 X1.3436 Y6.7727
G1 X1.3436 Y6.0930
G1 X1.3012 Y6.0505
G1 X2.0658 Y6.0505
G1 X2.0658 Y6.8152
G1 X1.3012 Y6.8152
G1 X1.3012 Y6.0505
G1 X1.2587 Y6.0080
G1 X2.1083 Y6.0080
G1 X2.1083 Y6.8576
G1 X1.2587 Y6.8576
G1 X1.2587 Y6.0080
G1 X1.2162 Y5.9656
G1 X2.1508 Y5.9656
G1 X2.1508 Y6.9001
G1 X1.2162 Y6.9001
G1 X1.2162 Y5.9656
G1 X1.1737 Y5.9231
G1 X2.1932 Y5.9231
G1 X2.1932 Y6.9426
G1 X1.1737 Y6.9426
G1 X1.1737 Y5.9231
G1 X1.1312 Y5.8806
G1 X2.2357 Y5.8806
G1 X2.2357 Y6.9851
G1 X1.1312 Y6.9851
G1 X1.1312 Y5.8806
G1 X1.0888 Y5.8381
G1 X2.2782 Y5.8381
G1 X2.2782 Y7.0276
G1 X1.0888 Y7.0276
G1 X1.0888 Y5.8381
G1 X0.0000 Y7.1809
G1 X3.3670 Y7.1809
G1 X3.3670 Y5.6848
G1 X0.0000 Y5.6848
G1 X0.0000 Y7.1809
G0 Z0.7500
G0 X1.6835 Y6.4328
G0 Z0.2500
( Pass 2: helical entry to Z-0.1200 )
G2 X1.6835 Y6.4328 I0.0590 J0 Z-0.1200 F24.0
F150.0
G1 X1.6410 Y6.3904
G1 X1.7260 Y6.3904
G1 X1.7260 Y6.4753
G1 X1.6410 Y6.4753
G1 X1.6410 Y6.3904
G1 X1.5985 Y6.3479
G1 X1.7684 Y6.3479
G1 X1.7684 Y6.5178
G1 X1.5985 Y6.5178
G1 X1.5985 Y6.3479
G1 X1.5560 Y6.3054
G1 X1.8109 Y6.3054
G1 X1.8109 Y6.5603
G1 X1.5560 Y6.5603
G1 X1.5560 Y6.3054
G1 X1.5136 Y6.2629
G1 X1.8534 Y6.2629
G1 X1.8534 Y6.6028
G1 X1.5136 Y6.6028
G1 X1.5136 Y6.2629
G1 X1.4711 Y6.2204
G1 X1.8959 Y6.2204
G1 X1.8959 Y6.6452
G1 X1.4711 Y6.6452
G1 X1.4711 Y6.2204
G1 X1.4286 Y6.1780
G1 X1.9384 Y6.1780
G1 X1.9384 Y6.6877
G1 X1.4286 Y6.6877
G1 X1.4286 Y6.1780
G1 X1.3861 Y6.1355
G1 X1.9808 Y6.1355
G1 X1.9808 Y6.7302
G1 X1.3861 Y6.7302
G1 X1.3861 Y6.1355
G1 X1.3436 Y6.0930
G1 X2.0233 Y6.0930
G1 X2.0233 Y6.7727
G1 X1.3436 Y6.7727
G1 X1.3436 Y6.0930
G1 X1.3012 Y6.0505
G1 X2.0658 Y6.0505
G1 X2.0658 Y6.8152
G1 X1.3012 Y6.8152
G1 X1.3012 Y6.0505
G1 X1.2587 Y6.0080
G1 X2.1083 Y6.0080
G1 X2.1083 Y6.8576
G1 X1.2587 Y6.8576
G1 X1.2587 Y6.0080
G1 X1.2162 Y5.9656
G1 X2.1508 Y5.9656
G1 X2.1508 Y6.9001
G1 X1.2162 Y6.9001
G1 X1.2162 Y5.9656
G1 X1.1737 Y5.9231
G1 X2.1932 Y5.9231
G1 X2.1932 Y6.9426
G1 X1.1737 Y6.9426
G1 X1.1737 Y5.9231
G1 X1.1312 Y5.8806
G1 X2.2357 Y5.8806
G1 X2.2357 Y6.9851
G1 X1.1312 Y6.9851
G1 X1.1312 Y5.8806
G1 X1.0888 Y5.8381
G1 X2.2782 Y5.8381
G1 X2.2782 Y7.0276
G1 X1.0888 Y7.0276
G1 X1.0888 Y5.8381
G1 X0.0000 Y7.1809
G1 X3.3670 Y7.1809
G1 X3.3670 Y5.6848
G1 X0.0000 Y5.6848
G1 X0.0000 Y7.1809
G0 Z0.7500
G0 X1.6835 Y6.4328
G0 Z0.2500
( Pass 3: helical entry to Z-0.1800 )
G2 X1.6835 Y6.4328 I0.0590 J0 Z-0.1800 F24.0
F150.0
G1 X1.6410 Y6.3904
G1 X1.7260 Y6.3904
G1 X1.7260 Y6.4753
G1 X1.6410 Y6.4753
G1 X1.6410 Y6.3904
G1 X1.5985 Y6.3479
G1 X1.7684 Y6.3479
G1 X1.7684 Y6.5178
G1 X1.5985 Y6.5178
G1 X1.5985 Y6.3479
G1 X1.5560 Y6.3054
G1 X1.8109 Y6.3054
G1 X1.8109 Y6.5603
G1 X1.5560 Y6.5603
G1 X1.5560 Y6.3054
G1 X1.5136 Y6.2629
G1 X1.8534 Y6.2629
G1 X1.8534 Y6.6028
G1 X1.5136 Y6.6028
G1 X1.5136 Y6.2629
G1 X1.4711 Y6.2204
G1 X1.8959 Y6.2204
G1 X1.8959 Y6.6452
G1 X1.4711 Y6.6452
G1 X1.4711 Y6.2204
G1 X1.4286 Y6.1780
G1 X1.9384 Y6.1780
G1 X1.9384 Y6.6877
G1 X1.4286 Y6.6877
G1 X1.4286 Y6.1780
G1 X1.3861 Y6.1355
G1 X1.9808 Y6.1355
G1 X1.9808 Y6.7302
G1 X1.3861 Y6.7302
G1 X1.3861 Y6.1355
G1 X1.3436 Y6.0930
G1 X2.0233 Y6.0930
G1 X2.0233 Y6.7727
G1 X1.3436 Y6.7727
G1 X1.3436 Y6.0930
G1 X1.3012 Y6.0505
G1 X2.0658 Y6.0505
G1 X2.0658 Y6.8152
G1 X1.3012 Y6.8152
G1 X1.3012 Y6.0505
G1 X1.2587 Y6.0080
G1 X2.1083 Y6.0080
G1 X2.1083 Y6.8576
G1 X1.2587 Y6.8576
G1 X1.2587 Y6.0080
G1 X1.2162 Y5.9656
G1 X2.1508 Y5.9656
G1 X2.1508 Y6.9001
G1 X1.2162 Y6.9001
G1 X1.2162 Y5.9656
G1 X1.1737 Y5.9231
G1 X2.1932 Y5.9231
G1 X2.1932 Y6.9426
G1 X1.1737 Y6.9426
G1 X1.1737 Y5.9231
G1 X1.1312 Y5.8806
G1 X2.2357 Y5.8806
G1 X2.2357 Y6.9851
G1 X1.1312 Y6.9851
G1 X1.1312 Y5.8806
G1 X1.0888 Y5.8381
G1 X2.2782 Y5.8381
G1 X2.2782 Y7.0276
G1 X1.0888 Y7.0276
G1 X1.0888 Y5.8381
G1 X0.0000 Y7.1809
G1 X3.3670 Y7.1809
G1 X3.3670 Y5.6848
G1 X0.0000 Y5.6848
G1 X0.0000 Y7.1809
G0 Z0.7500
G0 X1.6835 Y6.4328
G0 Z0.2500
( Pass 4: helical entry to Z-0.2400 )
G2 X1.6835 Y6.4328 I0.0590 J0 Z-0.2400 F24.0
F150.0
G1 X1.6410 Y6.3904
G1 X1.7260 Y6.3904
G1 X1.7260 Y6.4753
G1 X1.6410 Y6.4753
G1 X1.6410 Y6.3904
G1 X1.5985 Y6.3479
G1 X1.7684 Y6.3479
G1 X1.7684 Y6.5178
G1 X1.5985 Y6.5178
G1 X1.5985 Y6.3479
G1 X1.5560 Y6.3054
G1 X1.8109 Y6.3054
G1 X1.8109 Y6.5603
G1 X1.5560 Y6.5603
G1 X1.5560 Y6.3054
G1 X1.5136 Y6.2629
G1 X1.8534 Y6.2629
G1 X1.8534 Y6.6028
G1 X1.5136 Y6.6028
G1 X1.5136 Y6.2629
G1 X1.4711 Y6.2204
G1 X1.8959 Y6.2204
G1 X1.8959 Y6.6452
G1 X1.4711 Y6.6452
G1 X1.4711 Y6.2204
G1 X1.4286 Y6.1780
G1 X1.9384 Y6.1780
G1 X1.9384 Y6.6877
G1 X1.4286 Y6.6877
G1 X1.4286 Y6.1780
G1 X1.3861 Y6.1355
G1 X1.9808 Y6.1355
G1 X1.9808 Y6.7302
G1 X1.3861 Y6.7302
G1 X1.3861 Y6.1355
G1 X1.3436 Y6.0930
G1 X2.0233 Y6.0930
G1 X2.0233 Y6.7727
G1 X1.3436 Y6.7727
G1 X1.3436 Y6.0930
G1 X1.3012 Y6.0505
G1 X2.0658 Y6.0505
G1 X2.0658 Y6.8152
G1 X1.3012 Y6.8152
G1 X1.3012 Y6.0505
G1 X1.2587 Y6.0080
G1 X2.1083 Y6.0080
G1 X2.1083 Y6.8576
G1 X1.2587 Y6.8576
G1 X1.2587 Y6.0080
G1 X1.2162 Y5.9656
G1 X2.1508 Y5.9656
G1 X2.1508 Y6.9001
G1 X1.2162 Y6.9001
G1 X1.2162 Y5.9656
G1 X1.1737 Y5.9231
G1 X2.1932 Y5.9231
G1 X2.1932 Y6.9426
G1 X1.1737 Y6.9426
G1 X1.1737 Y5.9231
G1 X1.1312 Y5.8806
G1 X2.2357 Y5.8806
G1 X2.2357 Y6.9851
G1 X1.1312 Y6.9851
G1 X1.1312 Y5.8806
G1 X1.0888 Y5.8381
G1 X2.2782 Y5.8381
G1 X2.2782 Y7.0276
G1 X1.0888 Y7.0276
G1 X1.0888 Y5.8381
G1 X0.0000 Y7.1809
G1 X3.3670 Y7.1809
G1 X3.3670 Y5.6848
G1 X0.0000 Y5.6848
G1 X0.0000 Y7.1809
G0 Z0.7500
G0 X1.6835 Y6.4328
G0 Z0.2500
( Pass 5: helical entry to Z-0.3000 )
G2 X1.6835 Y6.4328 I0.0590 J0 Z-0.3000 F24.0
F150.0
G1 X1.6410 Y6.3904
G1 X1.7260 Y6.3904
G1 X1.7260 Y6.4753
G1 X1.6410 Y6.4753
G1 X1.6410 Y6.3904
G1 X1.5985 Y6.3479
G1 X1.7684 Y6.3479
G1 X1.7684 Y6.5178
G1 X1.5985 Y6.5178
G1 X1.5985 Y6.3479
G1 X1.5560 Y6.3054
G1 X1.8109 Y6.3054
G1 X1.8109 Y6.5603
G1 X1.5560 Y6.5603
G1 X1.5560 Y6.3054
G1 X1.5136 Y6.2629
G1 X1.8534 Y6.2629
G1 X1.8534 Y6.6028
G1 X1.5136 Y6.6028
G1 X1.5136 Y6.2629
G1 X1.4711 Y6.2204
G1 X1.8959 Y6.2204
G1 X1.8959 Y6.6452
G1 X1.4711 Y6.6452
G1 X1.4711 Y6.2204
G1 X1.4286 Y6.1780
G1 X1.9384 Y6.1780
G1 X1.9384 Y6.6877
G1 X1.4286 Y6.6877
G1 X1.4286 Y6.1780
G1 X1.3861 Y6.1355
G1 X1.9808 Y6.1355
G1 X1.9808 Y6.7302
G1 X1.3861 Y6.7302
G1 X1.3861 Y6.1355
G1 X1.3436 Y6.0930
G1 X2.0233 Y6.0930
G1 X2.0233 Y6.7727
G1 X1.3436 Y6.7727
G1 X1.3436 Y6.0930
G1 X1.3012 Y6.0505
G1 X2.0658 Y6.0505
G1 X2.0658 Y6.8152
G1 X1.3012 Y6.8152
G1 X1.3012 Y6.0505
G1 X1.2587 Y6.0080
G1 X2.1083 Y6.0080
G1 X2.1083 Y6.8576
G1 X1.2587 Y6.8576
G1 X1.2587 Y6.0080
G1 X1.2162 Y5.9656
G1 X2.1508 Y5.9656
G1 X2.1508 Y6.9001
G1 X1.2162 Y6.9001
G1 X1.2162 Y5.9656
G1 X1.1737 Y5.9231
G1 X2.1932 Y5.9231
G1 X2.1932 Y6.9426
G1 X1.1737 Y6.9426
G1 X1.1737 Y5.9231
G1 X1.1312 Y5.8806
G1 X2.2357 Y5.8806
G1 X2.2357 Y6.9851
G1 X1.1312 Y6.9851
G1 X1.1312 Y5.8806
G1 X1.0888 Y5.8381
G1 X2.2782 Y5.8381
G1 X2.2782 Y7.0276
G1 X1.0888 Y7.0276
G1 X1.0888 Y5.8381
G1 X0.0000 Y7.1809
G1 X3.3670 Y7.1809
G1 X3.3670 Y5.6848
G1 X0.0000 Y5.6848
G1 X0.0000 Y7.1809
G0 Z0.7500
G0 X1.6835 Y6.4328
G0 Z0.2500
( Pass 6: helical entry to Z-0.3600 )
G2 X1.6835 Y6.4328 I0.0590 J0 Z-0.3600 F24.0
F150.0
G1 X1.6410 Y6.3904
G1 X1.7260 Y6.3904
G1 X1.7260 Y6.4753
G1 X1.6410 Y6.4753
G1 X1.6410 Y6.3904
G1 X1.5985 Y6.3479
G1 X1.7684 Y6.3479
G1 X1.7684 Y6.5178
G1 X1.5985 Y6.5178
G1 X1.5985 Y6.3479
G1 X1.5560 Y6.3054
G1 X1.8109 Y6.3054
G1 X1.8109 Y6.5603
G1 X1.5560 Y6.5603
G1 X1.5560 Y6.3054
G1 X1.5136 Y6.2629
G1 X1.8534 Y6.2629
G1 X1.8534 Y6.6028
G1 X1.5136 Y6.6028
G1 X1.5136 Y6.2629
G1 X1.4711 Y6.2204
G1 X1.8959 Y6.2204
G1 X1.8959 Y6.6452
G1 X1.4711 Y6.6452
G1 X1.4711 Y6.2204
G1 X1.4286 Y6.1780
G1 X1.9384 Y6.1780
G1 X1.9384 Y6.6877
G1 X1.4286 Y6.6877
G1 X1.4286 Y6.1780
G1 X1.3861 Y6.1355
G1 X1.9808 Y6.1355
G1 X1.9808 Y6.7302
G1 X1.3861 Y6.7302
G1 X1.3861 Y6.1355
G1 X1.3436 Y6.0930
G1 X2.0233 Y6.0930
G1 X2.0233 Y6.7727
G1 X1.3436 Y6.7727
G1 X1.3436 Y6.0930
G1 X1.3012 Y6.0505
G1 X2.0658 Y6.0505
G1 X2.0658 Y6.8152
G1 X1.3012 Y6.8152
G1 X1.3012 Y6.0505
G1 X1.2587 Y6.0080
G1 X2.1083 Y6.0080
G1 X2.1083 Y6.8576
G1 X1.2587 Y6.8576
G1 X1.2587 Y6.0080
G1 X1.2162 Y5.9656
G1 X2.1508 Y5.9656
G1 X2.1508 Y6.9001
G1 X1.2162 Y6.9001
G1 X1.2162 Y5.9656
G1 X1.1737 Y5.9231
G1 X2.1932 Y5.9231
G1 X2.1932 Y6.9426
G1 X1.1737 Y6.9426
G1 X1.1737 Y5.9231
G1 X1.1312 Y5.8806
G1 X2.2357 Y5.8806
G1 X2.2357 Y6.9851
G1 X1.1312 Y6.9851
G1 X1.1312 Y5.8806
G1 X1.0888 Y5.8381
G1 X2.2782 Y5.8381
G1 X2.2782 Y7.0276
G1 X1.0888 Y7.0276
G1 X1.0888 Y5.8381
G1 X0.0000 Y7.1809
G1 X3.3670 Y7.1809
G1 X3.3670 Y5.6848
G1 X0.0000 Y5.6848
G1 X0.0000 Y7.1809
G0 Z0.7500
G0 X1.6835 Y6.4328
G0 Z0.2500
( Pass 7: helical entry to Z-0.4200 )
G2 X1.6835 Y6.4328 I0.0590 J0 Z-0.4200 F24.0
F150.0
G1 X1.6410 Y6.3904
G1 X1.7260 Y6.3904
G1 X1.7260 Y6.4753
G1 X1.6410 Y6.4753
G1 X1.6410 Y6.3904
G1 X1.5985 Y6.3479
G1 X1.7684 Y6.3479
G1 X1.7684 Y6.5178
G1 X1.5985 Y6.5178
G1 X1.5985 Y6.3479
G1 X1.5560 Y6.3054
G1 X1.8109 Y6.3054
G1 X1.8109 Y6.5603
G1 X1.5560 Y6.5603
G1 X1.5560 Y6.3054
G1 X1.5136 Y6.2629
G1 X1.8534 Y6.2629
G1 X1.8534 Y6.6028
G1 X1.5136 Y6.6028
G1 X1.5136 Y6.2629
G1 X1.4711 Y6.2204
G1 X1.8959 Y6.2204
G1 X1.8959 Y6.6452
G1 X1.4711 Y6.6452
G1 X1.4711 Y6.2204
G1 X1.4286 Y6.1780
G1 X1.9384 Y6.1780
G1 X1.9384 Y6.6877
G1 X1.4286 Y6.6877
G1 X1.4286 Y6.1780
G1 X1.3861 Y6.1355
G1 X1.9808 Y6.1355
G1 X1.9808 Y6.7302
G1 X1.3861 Y6.7302
G1 X1.3861 Y6.1355
G1 X1.3436 Y6.0930
G1 X2.0233 Y6.0930
G1 X2.0233 Y6.7727
G1 X1.3436 Y6.7727
G1 X1.3436 Y6.0930
G1 X1.3012 Y6.0505
G1 X2.0658 Y6.0505
G1 X2.0658 Y6.8152
G1 X1.3012 Y6.8152
G1 X1.3012 Y6.0505
G1 X1.2587 Y6.0080
G1 X2.1083 Y6.0080
G1 X2.1083 Y6.8576
G1 X1.2587 Y6.8576
G1 X1.2587 Y6.0080
G1 X1.2162 Y5.9656
G1 X2.1508 Y5.9656
G1 X2.1508 Y6.9001
G1 X1.2162 Y6.9001
G1 X1.2162 Y5.9656
G1 X1.1737 Y5.9231
G1 X2.1932 Y5.9231
G1 X2.1932 Y6.9426
G1 X1.1737 Y6.9426
G1 X1.1737 Y5.9231
G1 X1.1312 Y5.8806
G1 X2.2357 Y5.8806
G1 X2.2357 Y6.9851
G1 X1.1312 Y6.9851
G1 X1.1312 Y5.8806
G1 X1.0888 Y5.8381
G1 X2.2782 Y5.8381
G1 X2.2782 Y7.0276
G1 X1.0888 Y7.0276
G1 X1.0888 Y5.8381
G1 X0.0000 Y7.1809
G1 X3.3670 Y7.1809
G1 X3.3670 Y5.6848
G1 X0.0000 Y5.6848
G1 X0.0000 Y7.1809
G0 Z0.7500
G0 X1.6835 Y6.4328
G0 Z0.2500
( Pass 8: helical entry to Z-0.4800 )
G2 X1.6835 Y6.4328 I0.0590 J0 Z-0.4800 F24.0
F150.0
G1 X1.6410 Y6.3904
G1 X1.7260 Y6.3904
G1 X1.7260 Y6.4753
G1 X1.6410 Y6.4753
G1 X1.6410 Y6.3904
G1 X1.5985 Y6.3479
G1 X1.7684 Y6.3479
G1 X1.7684 Y6.5178
G1 X1.5985 Y6.5178
G1 X1.5985 Y6.3479
G1 X1.5560 Y6.3054
G1 X1.8109 Y6.3054
G1 X1.8109 Y6.5603
G1 X1.5560 Y6.5603
G1 X1.5560 Y6.3054
G1 X1.5136 Y6.2629
G1 X1.8534 Y6.2629
G1 X1.8534 Y6.6028
G1 X1.5136 Y6.6028
G1 X1.5136 Y6.2629
G1 X1.4711 Y6.2204
G1 X1.8959 Y6.2204
G1 X1.8959 Y6.6452
G1 X1.4711 Y6.6452
G1 X1.4711 Y6.2204
G1 X1.4286 Y6.1780
G1 X1.9384 Y6.1780
G1 X1.9384 Y6.6877
G1 X1.4286 Y6.6877
G1 X1.4286 Y6.1780
G1 X1.3861 Y6.1355
G1 X1.9808 Y6.1355
G1 X1.9808 Y6.7302
G1 X1.3861 Y6.7302
G1 X1.3861 Y6.1355
G1 X1.3436 Y6.0930
G1 X2.0233 Y6.0930
G1 X2.0233 Y6.7727
G1 X1.3436 Y6.7727
G1 X1.3436 Y6.0930
G1 X1.3012 Y6.0505
G1 X2.0658 Y6.0505
G1 X2.0658 Y6.8152
G1 X1.3012 Y6.8152
G1 X1.3012 Y6.0505
G1 X1.2587 Y6.0080
G1 X2.1083 Y6.0080
G1 X2.1083 Y6.8576
G1 X1.2587 Y6.8576
G1 X1.2587 Y6.0080
G1 X1.2162 Y5.9656
G1 X2.1508 Y5.9656
G1 X2.1508 Y6.9001
G1 X1.2162 Y6.9001
G1 X1.2162 Y5.9656
G1 X1.1737 Y5.9231
G1 X2.1932 Y5.9231
G1 X2.1932 Y6.9426
G1 X1.1737 Y6.9426
G1 X1.1737 Y5.9231
G1 X1.1312 Y5.8806
G1 X2.2357 Y5.8806
G1 X2.2357 Y6.9851
G1 X1.1312 Y6.9851
G1 X1.1312 Y5.8806
G1 X1.0888 Y5.8381
G1 X2.2782 Y5.8381
G1 X2.2782 Y7.0276
G1 X1.0888 Y7.0276
G1 X1.0888 Y5.8381
G1 X0.0000 Y7.1809
G1 X3.3670 Y7.1809
G1 X3.3670 Y5.6848
G1 X0.0000 Y5.6848
G1 X0.0000 Y7.1809
G0 Z0.7500
G0 X1.6835 Y6.4328
G0 Z0.2500
( Pass 9: helical entry to Z-0.5400 )
G2 X1.6835 Y6.4328 I0.0590 J0 Z-0.5400 F24.0
F150.0
G1 X1.6410 Y6.3904
G1 X1.7260 Y6.3904
G1 X1.7260 Y6.4753
G1 X1.6410 Y6.4753
G1 X1.6410 Y6.3904
G1 X1.5985 Y6.3479
G1 X1.7684 Y6.3479
G1 X1.7684 Y6.5178
G1 X1.5985 Y6.5178
G1 X1.5985 Y6.3479
G1 X1.5560 Y6.3054
G1 X1.8109 Y6.3054
G1 X1.8109 Y6.5603
G1 X1.5560 Y6.5603
G1 X1.5560 Y6.3054
G1 X1.5136 Y6.2629
G1 X1.8534 Y6.2629
G1 X1.8534 Y6.6028
G1 X1.5136 Y6.6028
G1 X1.5136 Y6.2629
G1 X1.4711 Y6.2204
G1 X1.8959 Y6.2204
G1 X1.8959 Y6.6452
G1 X1.4711 Y6.6452
G1 X1.4711 Y6.2204
G1 X1.4286 Y6.1780
G1 X1.9384 Y6.1780
G1 X1.9384 Y6.6877
G1 X1.4286 Y6.6877
G1 X1.4286 Y6.1780
G1 X1.3861 Y6.1355
G1 X1.9808 Y6.1355
G1 X1.9808 Y6.7302
G1 X1.3861 Y6.7302
G1 X1.3861 Y6.1355
G1 X1.3436 Y6.0930
G1 X2.0233 Y6.0930
G1 X2.0233 Y6.7727
G1 X1.3436 Y6.7727
G1 X1.3436 Y6.0930
G1 X1.3012 Y6.0505
G1 X2.0658 Y6.0505
G1 X2.0658 Y6.8152
G1 X1.3012 Y6.8152
G1 X1.3012 Y6.0505
G1 X1.2587 Y6.0080
G1 X2.1083 Y6.0080
G1 X2.1083 Y6.8576
G1 X1.2587 Y6.8576
G1 X1.2587 Y6.0080
G1 X1.2162 Y5.9656
G1 X2.1508 Y5.9656
G1 X2.1508 Y6.9001
G1 X1.2162 Y6.9001
G1 X1.2162 Y5.9656
G1 X1.1737 Y5.9231
G1 X2.1932 Y5.9231
G1 X2.1932 Y6.9426
G1 X1.1737 Y6.9426
G1 X1.1737 Y5.9231
G1 X1.1312 Y5.8806
G1 X2.2357 Y5.8806
G1 X2.2357 Y6.9851
G1 X1.1312 Y6.9851
G1 X1.1312 Y5.8806
G1 X1.0888 Y5.8381
G1 X2.2782 Y5.8381
G1 X2.2782 Y7.0276
G1 X1.0888 Y7.0276
G1 X1.0888 Y5.8381
G1 X0.0000 Y7.1809
G1 X3.3670 Y7.1809
G1 X3.3670 Y5.6848
G1 X0.0000 Y5.6848
G1 X0.0000 Y7.1809
G0 Z0.7500
G0 X1.6835 Y6.4328
G0 Z0.2500
( Pass 10: helical entry to Z-0.6000 )
G2 X1.6835 Y6.4328 I0.0590 J0 Z-0.6000 F24.0
F150.0
G1 X1.6410 Y6.3904
G1 X1.7260 Y6.3904
G1 X1.7260 Y6.4753
G1 X1.6410 Y6.4753
G1 X1.6410 Y6.3904
G1 X1.5985 Y6.3479
G1 X1.7684 Y6.3479
G1 X1.7684 Y6.5178
G1 X1.5985 Y6.5178
G1 X1.5985 Y6.3479
G1 X1.5560 Y6.3054
G1 X1.8109 Y6.3054
G1 X1.8109 Y6.5603
G1 X1.5560 Y6.5603
G1 X1.5560 Y6.3054
G1 X1.5136 Y6.2629
G1 X1.8534 Y6.2629
G1 X1.8534 Y6.6028
G1 X1.5136 Y6.6028
G1 X1.5136 Y6.2629
G1 X1.4711 Y6.2204
G1 X1.8959 Y6.2204
G1 X1.8959 Y6.6452
G1 X1.4711 Y6.6452
G1 X1.4711 Y6.2204
G1 X1.4286 Y6.1780
G1 X1.9384 Y6.1780
G1 X1.9384 Y6.6877
G1 X1.4286 Y6.6877
G1 X1.4286 Y6.1780
G1 X1.3861 Y6.1355
G1 X1.9808 Y6.1355
G1 X1.9808 Y6.7302
G1 X1.3861 Y6.7302
G1 X1.3861 Y6.1355
G1 X1.3436 Y6.0930
G1 X2.0233 Y6.0930
G1 X2.0233 Y6.7727
G1 X1.3436 Y6.7727
G1 X1.3436 Y6.0930
G1 X1.3012 Y6.0505
G1 X2.0658 Y6.0505
G1 X2.0658 Y6.8152
G1 X1.3012 Y6.8152
G1 X1.3012 Y6.0505
G1 X1.2587 Y6.0080
G1 X2.1083 Y6.0080
G1 X2.1083 Y6.8576
G1 X1.2587 Y6.8576
G1 X1.2587 Y6.0080
G1 X1.2162 Y5.9656
G1 X2.1508 Y5.9656
G1 X2.1508 Y6.9001
G1 X1.2162 Y6.9001
G1 X1.2162 Y5.9656
G1 X1.1737 Y5.9231
G1 X2.1932 Y5.9231
G1 X2.1932 Y6.9426
G1 X1.1737 Y6.9426
G1 X1.1737 Y5.9231
G1 X1.1312 Y5.8806
G1 X2.2357 Y5.8806
G1 X2.2357 Y6.9851
G1 X1.1312 Y6.9851
G1 X1.1312 Y5.8806
G1 X1.0888 Y5.8381
G1 X2.2782 Y5.8381
G1 X2.2782 Y7.0276
G1 X1.0888 Y7.0276
G1 X1.0888 Y5.8381
G1 X0.0000 Y7.1809
G1 X3.3670 Y7.1809
G1 X3.3670 Y5.6848
G1 X0.0000 Y5.6848
G1 X0.0000 Y7.1809
G0 Z0.7500
G0 X1.6835 Y6.4328
G0 Z0.2500
( Pass 11: helical entry to Z-0.6600 )
G2 X1.6835 Y6.4328 I0.0590 J0 Z-0.6600 F24.0
F150.0
G1 X1.6410 Y6.3904
G1 X1.7260 Y6.3904
G1 X1.7260 Y6.4753
G1 X1.6410 Y6.4753
G1 X1.6410 Y6.3904
G1 X1.5985 Y6.3479
G1 X1.7684 Y6.3479
G1 X1.7684 Y6.5178
G1 X1.5985 Y6.5178
G1 X1.5985 Y6.3479
G1 X1.5560 Y6.3054
G1 X1.8109 Y6.3054
G1 X1.8109 Y6.5603
G1 X1.5560 Y6.5603
G1 X1.5560 Y6.3054
G1 X1.5136 Y6.2629
G1 X1.8534 Y6.2629
G1 X1.8534 Y6.6028
G1 X1.5136 Y6.6028
G1 X1.5136 Y6.2629
G1 X1.4711 Y6.2204
G1 X1.8959 Y6.2204
G1 X1.8959 Y6.6452
G1 X1.4711 Y6.6452
G1 X1.4711 Y6.2204
G1 X1.4286 Y6.1780
G1 X1.9384 Y6.1780
G1 X1.9384 Y6.6877
G1 X1.4286 Y6.6877
G1 X1.4286 Y6.1780
G1 X1.3861 Y6.1355
G1 X1.9808 Y6.1355
G1 X1.9808 Y6.7302
G1 X1.3861 Y6.7302
G1 X1.3861 Y6.1355
G1 X1.3436 Y6.0930
G1 X2.0233 Y6.0930
G1 X2.0233 Y6.7727
G1 X1.3436 Y6.7727
G1 X1.3436 Y6.0930
G1 X1.3012 Y6.0505
G1 X2.0658 Y6.0505
G1 X2.0658 Y6.8152
G1 X1.3012 Y6.8152
G1 X1.3012 Y6.0505
G1 X1.2587 Y6.0080
G1 X2.1083 Y6.0080
G1 X2.1083 Y6.8576
G1 X1.2587 Y6.8576
G1 X1.2587 Y6.0080
G1 X1.2162 Y5.9656
G1 X2.1508 Y5.9656
G1 X2.1508 Y6.9001
G1 X1.2162 Y6.9001
G1 X1.2162 Y5.9656
G1 X1.1737 Y5.9231
G1 X2.1932 Y5.9231
G1 X2.1932 Y6.9426
G1 X1.1737 Y6.9426
G1 X1.1737 Y5.9231
G1 X1.1312 Y5.8806
G1 X2.2357 Y5.8806
G1 X2.2357 Y6.9851
G1 X1.1312 Y6.9851
G1 X1.1312 Y5.8806
G1 X1.0888 Y5.8381
G1 X2.2782 Y5.8381
G1 X2.2782 Y7.0276
G1 X1.0888 Y7.0276
G1 X1.0888 Y5.8381
G1 X0.0000 Y7.1809
G1 X3.3670 Y7.1809
G1 X3.3670 Y5.6848
G1 X0.0000 Y5.6848
G1 X0.0000 Y7.1809
G0 Z0.7500
G0 X1.6835 Y6.4328
G0 Z0.2500
( Pass 12: helical entry to Z-0.7200 )
G2 X1.6835 Y6.4328 I0.0590 J0 Z-0.7200 F24.0
F150.0
G1 X1.6410 Y6.3904
G1 X1.7260 Y6.3904
G1 X1.7260 Y6.4753
G1 X1.6410 Y6.4753
G1 X1.6410 Y6.3904
G1 X1.5985 Y6.3479
G1 X1.7684 Y6.3479
G1 X1.7684 Y6.5178
G1 X1.5985 Y6.5178
G1 X1.5985 Y6.3479
G1 X1.5560 Y6.3054
G1 X1.8109 Y6.3054
G1 X1.8109 Y6.5603
G1 X1.5560 Y6.5603
G1 X1.5560 Y6.3054
G1 X1.5136 Y6.2629
G1 X1.8534 Y6.2629
G1 X1.8534 Y6.6028
G1 X1.5136 Y6.6028
G1 X1.5136 Y6.2629
G1 X1.4711 Y6.2204
G1 X1.8959 Y6.2204
G1 X1.8959 Y6.6452
G1 X1.4711 Y6.6452
G1 X1.4711 Y6.2204
G1 X1.4286 Y6.1780
G1 X1.9384 Y6.1780
G1 X1.9384 Y6.6877
G1 X1.4286 Y6.6877
G1 X1.4286 Y6.1780
G1 X1.3861 Y6.1355
G1 X1.9808 Y6.1355
G1 X1.9808 Y6.7302
G1 X1.3861 Y6.7302
G1 X1.3861 Y6.1355
G1 X1.3436 Y6.0930
G1 X2.0233 Y6.0930
G1 X2.0233 Y6.7727
G1 X1.3436 Y6.7727
G1 X1.3436 Y6.0930
G1 X1.3012 Y6.0505
G1 X2.0658 Y6.0505
G1 X2.0658 Y6.8152
G1 X1.3012 Y6.8152
G1 X1.3012 Y6.0505
G1 X1.2587 Y6.0080
G1 X2.1083 Y6.0080
G1 X2.1083 Y6.8576
G1 X1.2587 Y6.8576
G1 X1.2587 Y6.0080
G1 X1.2162 Y5.9656
G1 X2.1508 Y5.9656
G1 X2.1508 Y6.9001
G1 X1.2162 Y6.9001
G1 X1.2162 Y5.9656
G1 X1.1737 Y5.9231
G1 X2.1932 Y5.9231
G1 X2.1932 Y6.9426
G1 X1.1737 Y6.9426
G1 X1.1737 Y5.9231
G1 X1.1312 Y5.8806
G1 X2.2357 Y5.8806
G1 X2.2357 Y6.9851
G1 X1.1312 Y6.9851
G1 X1.1312 Y5.8806
G1 X1.0888 Y5.8381
G1 X2.2782 Y5.8381
G1 X2.2782 Y7.0276
G1 X1.0888 Y7.0276
G1 X1.0888 Y5.8381
G1 X0.0000 Y7.1809
G1 X3.3670 Y7.1809
G1 X3.3670 Y5.6848
G1 X0.0000 Y5.6848
G1 X0.0000 Y7.1809
G0 Z0.7500
G0 X1.6835 Y6.4328
G0 Z0.2500
( Pass 13: helical entry to Z-0.7500 )
G2 X1.6835 Y6.4328 I0.0590 J0 Z-0.7500 F24.0
F150.0
G1 X1.6410 Y6.3904
G1 X1.7260 Y6.3904
G1 X1.7260 Y6.4753
G1 X1.6410 Y6.4753
G1 X1.6410 Y6.3904
G1 X1.5985 Y6.3479
G1 X1.7684 Y6.3479
G1 X1.7684 Y6.5178
G1 X1.5985 Y6.5178
G1 X1.5985 Y6.3479
G1 X1.5560 Y6.3054
G1 X1.8109 Y6.3054
G1 X1.8109 Y6.5603
G1 X1.5560 Y6.5603
G1 X1.5560 Y6.3054
G1 X1.5136 Y6.2629
G1 X1.8534 Y6.2629
G1 X1.8534 Y6.6028
G1 X1.5136 Y6.6028
G1 X1.5136 Y6.2629
G1 X1.4711 Y6.2204
G1 X1.8959 Y6.2204
G1 X1.8959 Y6.6452
G1 X1.4711 Y6.6452
G1 X1.4711 Y6.2204
G1 X1.4286 Y6.1780
G1 X1.9384 Y6.1780
G1 X1.9384 Y6.6877
G1 X1.4286 Y6.6877
G1 X1.4286 Y6.1780
G1 X1.3861 Y6.1355
G1 X1.9808 Y6.1355
G1 X1.9808 Y6.7302
G1 X1.3861 Y6.7302
G1 X1.3861 Y6.1355
G1 X1.3436 Y6.0930
G1 X2.0233 Y6.0930
G1 X2.0233 Y6.7727
G1 X1.3436 Y6.7727
G1 X1.3436 Y6.0930
G1 X1.3012 Y6.0505
G1 X2.0658 Y6.0505
G1 X2.0658 Y6.8152
G1 X1.3012 Y6.8152
G1 X1.3012 Y6.0505
G1 X1.2587 Y6.0080
G1 X2.1083 Y6.0080
G1 X2.1083 Y6.8576
G1 X1.2587 Y6.8576
G1 X1.2587 Y6.0080
G1 X1.2162 Y5.9656
G1 X2.1508 Y5.9656
G1 X2.1508 Y6.9001
G1 X1.2162 Y6.9001
G1 X1.2162 Y5.9656
G1 X1.1737 Y5.9231
G1 X2.1932 Y5.9231
G1 X2.1932 Y6.9426
G1 X1.1737 Y6.9426
G1 X1.1737 Y5.9231
G1 X1.1312 Y5.8806
G1 X2.2357 Y5.8806
G1 X2.2357 Y6.9851
G1 X1.1312 Y6.9851
G1 X1.1312 Y5.8806
G1 X1.0888 Y5.8381
G1 X2.2782 Y5.8381
G1 X2.2782 Y7.0276
G1 X1.0888 Y7.0276
G1 X1.0888 Y5.8381
G1 X0.0000 Y7.1809
G1 X3.3670 Y7.1809
G1 X3.3670 Y5.6848
G1 X0.0000 Y5.6848
G1 X0.0000 Y7.1809
G0 Z0.2500

( ============================================ )
( OP31: Pickup Cavity Finish )
( ============================================ )
( Layer: Pickup Cavity )
( Paths: 2 )
( Depth: 0.75" )
( Pocket at (8.31, 6.43), 1.60" × 2.85" )
G0 Z0.7500
G0 X8.3122 Y6.4280
G0 Z0.2500
( Pass 1: helical entry to Z-0.0600 )
G2 X8.3122 Y6.4280 I0.0590 J0 Z-0.0600 F24.0
F150.0
G1 X8.2697 Y6.3855
G1 X8.3547 Y6.3855
G1 X8.3547 Y6.4705
G1 X8.2697 Y6.4705
G1 X8.2697 Y6.3855
G1 X8.2272 Y6.3430
G1 X8.3971 Y6.3430
G1 X8.3971 Y6.5130
G1 X8.2272 Y6.5130
G1 X8.2272 Y6.3430
G1 X8.1847 Y6.3006
G1 X8.4396 Y6.3006
G1 X8.4396 Y6.5554
G1 X8.1847 Y6.5554
G1 X8.1847 Y6.3006
G1 X8.1423 Y6.2581
G1 X8.4821 Y6.2581
G1 X8.4821 Y6.5979
G1 X8.1423 Y6.5979
G1 X8.1423 Y6.2581
G1 X8.0998 Y6.2156
G1 X8.5246 Y6.2156
G1 X8.5246 Y6.6404
G1 X8.0998 Y6.6404
G1 X8.0998 Y6.2156
G1 X8.0573 Y6.1731
G1 X8.5671 Y6.1731
G1 X8.5671 Y6.6829
G1 X8.0573 Y6.6829
G1 X8.0573 Y6.1731
G1 X8.0148 Y6.1306
G1 X8.6095 Y6.1306
G1 X8.6095 Y6.7254
G1 X8.0148 Y6.7254
G1 X8.0148 Y6.1306
G1 X7.9723 Y6.0882
G1 X8.6520 Y6.0882
G1 X8.6520 Y6.7678
G1 X7.9723 Y6.7678
G1 X7.9723 Y6.0882
G1 X7.9299 Y6.0457
G1 X8.6945 Y6.0457
G1 X8.6945 Y6.8103
G1 X7.9299 Y6.8103
G1 X7.9299 Y6.0457
G1 X7.8874 Y6.0032
G1 X8.7370 Y6.0032
G1 X8.7370 Y6.8528
G1 X7.8874 Y6.8528
G1 X7.8874 Y6.0032
G1 X7.8449 Y5.9607
G1 X8.7795 Y5.9607
G1 X8.7795 Y6.8953
G1 X7.8449 Y6.8953
G1 X7.8449 Y5.9607
G1 X7.8024 Y5.9182
G1 X8.8219 Y5.9182
G1 X8.8219 Y6.9378
G1 X7.8024 Y6.9378
G1 X7.8024 Y5.9182
G1 X7.7599 Y5.8758
G1 X8.8644 Y5.8758
G1 X8.8644 Y6.9802
G1 X7.7599 Y6.9802
G1 X7.7599 Y5.8758
G1 X7.7175 Y5.8333
G1 X8.9069 Y5.8333
G1 X8.9069 Y7.0227
G1 X7.7175 Y7.0227
G1 X7.7175 Y5.8333
G1 X7.6750 Y5.7908
G1 X8.9494 Y5.7908
G1 X8.9494 Y7.0652
G1 X7.6750 Y7.0652
G1 X7.6750 Y5.7908
G1 X7.5145 Y7.1318
G1 X7.5145 Y7.6987
G1 X7.6720 Y7.8544
G1 X8.9523 Y7.8544
G1 X9.1098 Y7.6969
G1 X9.1098 Y5.1591
G1 X8.9523 Y5.0016
G1 X7.6720 Y5.0016
G1 X7.5145 Y5.1591
G1 X7.5145 Y7.1318
G0 Z0.7500
G0 X8.3122 Y6.4280
G0 Z0.2500
( Pass 2: helical entry to Z-0.1200 )
G2 X8.3122 Y6.4280 I0.0590 J0 Z-0.1200 F24.0
F150.0
G1 X8.2697 Y6.3855
G1 X8.3547 Y6.3855
G1 X8.3547 Y6.4705
G1 X8.2697 Y6.4705
G1 X8.2697 Y6.3855
G1 X8.2272 Y6.3430
G1 X8.3971 Y6.3430
G1 X8.3971 Y6.5130
G1 X8.2272 Y6.5130
G1 X8.2272 Y6.3430
G1 X8.1847 Y6.3006
G1 X8.4396 Y6.3006
G1 X8.4396 Y6.5554
G1 X8.1847 Y6.5554
G1 X8.1847 Y6.3006
G1 X8.1423 Y6.2581
G1 X8.4821 Y6.2581
G1 X8.4821 Y6.5979
G1 X8.1423 Y6.5979
G1 X8.1423 Y6.2581
G1 X8.0998 Y6.2156
G1 X8.5246 Y6.2156
G1 X8.5246 Y6.6404
G1 X8.0998 Y6.6404
G1 X8.0998 Y6.2156
G1 X8.0573 Y6.1731
G1 X8.5671 Y6.1731
G1 X8.5671 Y6.6829
G1 X8.0573 Y6.6829
G1 X8.0573 Y6.1731
G1 X8.0148 Y6.1306
G1 X8.6095 Y6.1306
G1 X8.6095 Y6.7254
G1 X8.0148 Y6.7254
G1 X8.0148 Y6.1306
G1 X7.9723 Y6.0882
G1 X8.6520 Y6.0882
G1 X8.6520 Y6.7678
G1 X7.9723 Y6.7678
G1 X7.9723 Y6.0882
G1 X7.9299 Y6.0457
G1 X8.6945 Y6.0457
G1 X8.6945 Y6.8103
G1 X7.9299 Y6.8103
G1 X7.9299 Y6.0457
G1 X7.8874 Y6.0032
G1 X8.7370 Y6.0032
G1 X8.7370 Y6.8528
G1 X7.8874 Y6.8528
G1 X7.8874 Y6.0032
G1 X7.8449 Y5.9607
G1 X8.7795 Y5.9607
G1 X8.7795 Y6.8953
G1 X7.8449 Y6.8953
G1 X7.8449 Y5.9607
G1 X7.8024 Y5.9182
G1 X8.8219 Y5.9182
G1 X8.8219 Y6.9378
G1 X7.8024 Y6.9378
G1 X7.8024 Y5.9182
G1 X7.7599 Y5.8758
G1 X8.8644 Y5.8758
G1 X8.8644 Y6.9802
G1 X7.7599 Y6.9802
G1 X7.7599 Y5.8758
G1 X7.7175 Y5.8333
G1 X8.9069 Y5.8333
G1 X8.9069 Y7.0227
G1 X7.7175 Y7.0227
G1 X7.7175 Y5.8333
G1 X7.6750 Y5.7908
G1 X8.9494 Y5.7908
G1 X8.9494 Y7.0652
G1 X7.6750 Y7.0652
G1 X7.6750 Y5.7908
G1 X7.5145 Y7.1318
G1 X7.5145 Y7.6987
G1 X7.6720 Y7.8544
G1 X8.9523 Y7.8544
G1 X9.1098 Y7.6969
G1 X9.1098 Y5.1591
G1 X8.9523 Y5.0016
G1 X7.6720 Y5.0016
G1 X7.5145 Y5.1591
G1 X7.5145 Y7.1318
G0 Z0.7500
G0 X8.3122 Y6.4280
G0 Z0.2500
( Pass 3: helical entry to Z-0.1800 )
G2 X8.3122 Y6.4280 I0.0590 J0 Z-0.1800 F24.0
F150.0
G1 X8.2697 Y6.3855
G1 X8.3547 Y6.3855
G1 X8.3547 Y6.4705
G1 X8.2697 Y6.4705
G1 X8.2697 Y6.3855
G1 X8.2272 Y6.3430
G1 X8.3971 Y6.3430
G1 X8.3971 Y6.5130
G1 X8.2272 Y6.5130
G1 X8.2272 Y6.3430
G1 X8.1847 Y6.3006
G1 X8.4396 Y6.3006
G1 X8.4396 Y6.5554
G1 X8.1847 Y6.5554
G1 X8.1847 Y6.3006
G1 X8.1423 Y6.2581
G1 X8.4821 Y6.2581
G1 X8.4821 Y6.5979
G1 X8.1423 Y6.5979
G1 X8.1423 Y6.2581
G1 X8.0998 Y6.2156
G1 X8.5246 Y6.2156
G1 X8.5246 Y6.6404
G1 X8.0998 Y6.6404
G1 X8.0998 Y6.2156
G1 X8.0573 Y6.1731
G1 X8.5671 Y6.1731
G1 X8.5671 Y6.6829
G1 X8.0573 Y6.6829
G1 X8.0573 Y6.1731
G1 X8.0148 Y6.1306
G1 X8.6095 Y6.1306
G1 X8.6095 Y6.7254
G1 X8.0148 Y6.7254
G1 X8.0148 Y6.1306
G1 X7.9723 Y6.0882
G1 X8.6520 Y6.0882
G1 X8.6520 Y6.7678
G1 X7.9723 Y6.7678
G1 X7.9723 Y6.0882
G1 X7.9299 Y6.0457
G1 X8.6945 Y6.0457
G1 X8.6945 Y6.8103
G1 X7.9299 Y6.8103
G1 X7.9299 Y6.0457
G1 X7.8874 Y6.0032
G1 X8.7370 Y6.0032
G1 X8.7370 Y6.8528
G1 X7.8874 Y6.8528
G1 X7.8874 Y6.0032
G1 X7.8449 Y5.9607
G1 X8.7795 Y5.9607
G1 X8.7795 Y6.8953
G1 X7.8449 Y6.8953
G1 X7.8449 Y5.9607
G1 X7.8024 Y5.9182
G1 X8.8219 Y5.9182
G1 X8.8219 Y6.9378
G1 X7.8024 Y6.9378
G1 X7.8024 Y5.9182
G1 X7.7599 Y5.8758
G1 X8.8644 Y5.8758
G1 X8.8644 Y6.9802
G1 X7.7599 Y6.9802
G1 X7.7599 Y5.8758
G1 X7.7175 Y5.8333
G1 X8.9069 Y5.8333
G1 X8.9069 Y7.0227
G1 X7.7175 Y7.0227
G1 X7.7175 Y5.8333
G1 X7.6750 Y5.7908
G1 X8.9494 Y5.7908
G1 X8.9494 Y7.0652
G1 X7.6750 Y7.0652
G1 X7.6750 Y5.7908
G1 X7.5145 Y7.1318
G1 X7.5145 Y7.6987
G1 X7.6720 Y7.8544
G1 X8.9523 Y7.8544
G1 X9.1098 Y7.6969
G1 X9.1098 Y5.1591
G1 X8.9523 Y5.0016
G1 X7.6720 Y5.0016
G1 X7.5145 Y5.1591
G1 X7.5145 Y7.1318
G0 Z0.7500
G0 X8.3122 Y6.4280
G0 Z0.2500
( Pass 4: helical entry to Z-0.2400 )
G2 X8.3122 Y6.4280 I0.0590 J0 Z-0.2400 F24.0
F150.0
G1 X8.2697 Y6.3855
G1 X8.3547 Y6.3855
G1 X8.3547 Y6.4705
G1 X8.2697 Y6.4705
G1 X8.2697 Y6.3855
G1 X8.2272 Y6.3430
G1 X8.3971 Y6.3430
G1 X8.3971 Y6.5130
G1 X8.2272 Y6.5130
G1 X8.2272 Y6.3430
G1 X8.1847 Y6.3006
G1 X8.4396 Y6.3006
G1 X8.4396 Y6.5554
G1 X8.1847 Y6.5554
G1 X8.1847 Y6.3006
G1 X8.1423 Y6.2581
G1 X8.4821 Y6.2581
G1 X8.4821 Y6.5979
G1 X8.1423 Y6.5979
G1 X8.1423 Y6.2581
G1 X8.0998 Y6.2156
G1 X8.5246 Y6.2156
G1 X8.5246 Y6.6404
G1 X8.0998 Y6.6404
G1 X8.0998 Y6.2156
G1 X8.0573 Y6.1731
G1 X8.5671 Y6.1731
G1 X8.5671 Y6.6829
G1 X8.0573 Y6.6829
G1 X8.0573 Y6.1731
G1 X8.0148 Y6.1306
G1 X8.6095 Y6.1306
G1 X8.6095 Y6.7254
G1 X8.0148 Y6.7254
G1 X8.0148 Y6.1306
G1 X7.9723 Y6.0882
G1 X8.6520 Y6.0882
G1 X8.6520 Y6.7678
G1 X7.9723 Y6.7678
G1 X7.9723 Y6.0882
G1 X7.9299 Y6.0457
G1 X8.6945 Y6.0457
G1 X8.6945 Y6.8103
G1 X7.9299 Y6.8103
G1 X7.9299 Y6.0457
G1 X7.8874 Y6.0032
G1 X8.7370 Y6.0032
G1 X8.7370 Y6.8528
G1 X7.8874 Y6.8528
G1 X7.8874 Y6.0032
G1 X7.8449 Y5.9607
G1 X8.7795 Y5.9607
G1 X8.7795 Y6.8953
G1 X7.8449 Y6.8953
G1 X7.8449 Y5.9607
G1 X7.8024 Y5.9182
G1 X8.8219 Y5.9182
G1 X8.8219 Y6.9378
G1 X7.8024 Y6.9378
G1 X7.8024 Y5.9182
G1 X7.7599 Y5.8758
G1 X8.8644 Y5.8758
G1 X8.8644 Y6.9802
G1 X7.7599 Y6.9802
G1 X7.7599 Y5.8758
G1 X7.7175 Y5.8333
G1 X8.9069 Y5.8333
G1 X8.9069 Y7.0227
G1 X7.7175 Y7.0227
G1 X7.7175 Y5.8333
G1 X7.6750 Y5.7908
G1 X8.9494 Y5.7908
G1 X8.9494 Y7.0652
G1 X7.6750 Y7.0652
G1 X7.6750 Y5.7908
G1 X7.5145 Y7.1318
G1 X7.5145 Y7.6987
G1 X7.6720 Y7.8544
G1 X8.9523 Y7.8544
G1 X9.1098 Y7.6969
G1 X9.1098 Y5.1591
G1 X8.9523 Y5.0016
G1 X7.6720 Y5.0016
G1 X7.5145 Y5.1591
G1 X7.5145 Y7.1318
G0 Z0.7500
G0 X8.3122 Y6.4280
G0 Z0.2500
( Pass 5: helical entry to Z-0.3000 )
G2 X8.3122 Y6.4280 I0.0590 J0 Z-0.3000 F24.0
F150.0
G1 X8.2697 Y6.3855
G1 X8.3547 Y6.3855
G1 X8.3547 Y6.4705
G1 X8.2697 Y6.4705
G1 X8.2697 Y6.3855
G1 X8.2272 Y6.3430
G1 X8.3971 Y6.3430
G1 X8.3971 Y6.5130
G1 X8.2272 Y6.5130
G1 X8.2272 Y6.3430
G1 X8.1847 Y6.3006
G1 X8.4396 Y6.3006
G1 X8.4396 Y6.5554
G1 X8.1847 Y6.5554
G1 X8.1847 Y6.3006
G1 X8.1423 Y6.2581
G1 X8.4821 Y6.2581
G1 X8.4821 Y6.5979
G1 X8.1423 Y6.5979
G1 X8.1423 Y6.2581
G1 X8.0998 Y6.2156
G1 X8.5246 Y6.2156
G1 X8.5246 Y6.6404
G1 X8.0998 Y6.6404
G1 X8.0998 Y6.2156
G1 X8.0573 Y6.1731
G1 X8.5671 Y6.1731
G1 X8.5671 Y6.6829
G1 X8.0573 Y6.6829
G1 X8.0573 Y6.1731
G1 X8.0148 Y6.1306
G1 X8.6095 Y6.1306
G1 X8.6095 Y6.7254
G1 X8.0148 Y6.7254
G1 X8.0148 Y6.1306
G1 X7.9723 Y6.0882
G1 X8.6520 Y6.0882
G1 X8.6520 Y6.7678
G1 X7.9723 Y6.7678
G1 X7.9723 Y6.0882
G1 X7.9299 Y6.0457
G1 X8.6945 Y6.0457
G1 X8.6945 Y6.8103
G1 X7.9299 Y6.8103
G1 X7.9299 Y6.0457
G1 X7.8874 Y6.0032
G1 X8.7370 Y6.0032
G1 X8.7370 Y6.8528
G1 X7.8874 Y6.8528
G1 X7.8874 Y6.0032
G1 X7.8449 Y5.9607
G1 X8.7795 Y5.9607
G1 X8.7795 Y6.8953
G1 X7.8449 Y6.8953
G1 X7.8449 Y5.9607
G1 X7.8024 Y5.9182
G1 X8.8219 Y5.9182
G1 X8.8219 Y6.9378
G1 X7.8024 Y6.9378
G1 X7.8024 Y5.9182
G1 X7.7599 Y5.8758
G1 X8.8644 Y5.8758
G1 X8.8644 Y6.9802
G1 X7.7599 Y6.9802
G1 X7.7599 Y5.8758
G1 X7.7175 Y5.8333
G1 X8.9069 Y5.8333
G1 X8.9069 Y7.0227
G1 X7.7175 Y7.0227
G1 X7.7175 Y5.8333
G1 X7.6750 Y5.7908
G1 X8.9494 Y5.7908
G1 X8.9494 Y7.0652
G1 X7.6750 Y7.0652
G1 X7.6750 Y5.7908
G1 X7.5145 Y7.1318
G1 X7.5145 Y7.6987
G1 X7.6720 Y7.8544
G1 X8.9523 Y7.8544
G1 X9.1098 Y7.6969
G1 X9.1098 Y5.1591
G1 X8.9523 Y5.0016
G1 X7.6720 Y5.0016
G1 X7.5145 Y5.1591
G1 X7.5145 Y7.1318
G0 Z0.7500
G0 X8.3122 Y6.4280
G0 Z0.2500
( Pass 6: helical entry to Z-0.3600 )
G2 X8.3122 Y6.4280 I0.0590 J0 Z-0.3600 F24.0
F150.0
G1 X8.2697 Y6.3855
G1 X8.3547 Y6.3855
G1 X8.3547 Y6.4705
G1 X8.2697 Y6.4705
G1 X8.2697 Y6.3855
G1 X8.2272 Y6.3430
G1 X8.3971 Y6.3430
G1 X8.3971 Y6.5130
G1 X8.2272 Y6.5130
G1 X8.2272 Y6.3430
G1 X8.1847 Y6.3006
G1 X8.4396 Y6.3006
G1 X8.4396 Y6.5554
G1 X8.1847 Y6.5554
G1 X8.1847 Y6.3006
G1 X8.1423 Y6.2581
G1 X8.4821 Y6.2581
G1 X8.4821 Y6.5979
G1 X8.1423 Y6.5979
G1 X8.1423 Y6.2581
G1 X8.0998 Y6.2156
G1 X8.5246 Y6.2156
G1 X8.5246 Y6.6404
G1 X8.0998 Y6.6404
G1 X8.0998 Y6.2156
G1 X8.0573 Y6.1731
G1 X8.5671 Y6.1731
G1 X8.5671 Y6.6829
G1 X8.0573 Y6.6829
G1 X8.0573 Y6.1731
G1 X8.0148 Y6.1306
G1 X8.6095 Y6.1306
G1 X8.6095 Y6.7254
G1 X8.0148 Y6.7254
G1 X8.0148 Y6.1306
G1 X7.9723 Y6.0882
G1 X8.6520 Y6.0882
G1 X8.6520 Y6.7678
G1 X7.9723 Y6.7678
G1 X7.9723 Y6.0882
G1 X7.9299 Y6.0457
G1 X8.6945 Y6.0457
G1 X8.6945 Y6.8103
G1 X7.9299 Y6.8103
G1 X7.9299 Y6.0457
G1 X7.8874 Y6.0032
G1 X8.7370 Y6.0032
G1 X8.7370 Y6.8528
G1 X7.8874 Y6.8528
G1 X7.8874 Y6.0032
G1 X7.8449 Y5.9607
G1 X8.7795 Y5.9607
G1 X8.7795 Y6.8953
G1 X7.8449 Y6.8953
G1 X7.8449 Y5.9607
G1 X7.8024 Y5.9182
G1 X8.8219 Y5.9182
G1 X8.8219 Y6.9378
G1 X7.8024 Y6.9378
G1 X7.8024 Y5.9182
G1 X7.7599 Y5.8758
G1 X8.8644 Y5.8758
G1 X8.8644 Y6.9802
G1 X7.7599 Y6.9802
G1 X7.7599 Y5.8758
G1 X7.7175 Y5.8333
G1 X8.9069 Y5.8333
G1 X8.9069 Y7.0227
G1 X7.7175 Y7.0227
G1 X7.7175 Y5.8333
G1 X7.6750 Y5.7908
G1 X8.9494 Y5.7908
G1 X8.9494 Y7.0652
G1 X7.6750 Y7.0652
G1 X7.6750 Y5.7908
G1 X7.5145 Y7.1318
G1 X7.5145 Y7.6987
G1 X7.6720 Y7.8544
G1 X8.9523 Y7.8544
G1 X9.1098 Y7.6969
G1 X9.1098 Y5.1591
G1 X8.9523 Y5.0016
G1 X7.6720 Y5.0016
G1 X7.5145 Y5.1591
G1 X7.5145 Y7.1318
G0 Z0.7500
G0 X8.3122 Y6.4280
G0 Z0.2500
( Pass 7: helical entry to Z-0.4200 )
G2 X8.3122 Y6.4280 I0.0590 J0 Z-0.4200 F24.0
F150.0
G1 X8.2697 Y6.3855
G1 X8.3547 Y6.3855
G1 X8.3547 Y6.4705
G1 X8.2697 Y6.4705
G1 X8.2697 Y6.3855
G1 X8.2272 Y6.3430
G1 X8.3971 Y6.3430
G1 X8.3971 Y6.5130
G1 X8.2272 Y6.5130
G1 X8.2272 Y6.3430
G1 X8.1847 Y6.3006
G1 X8.4396 Y6.3006
G1 X8.4396 Y6.5554
G1 X8.1847 Y6.5554
G1 X8.1847 Y6.3006
G1 X8.1423 Y6.2581
G1 X8.4821 Y6.2581
G1 X8.4821 Y6.5979
G1 X8.1423 Y6.5979
G1 X8.1423 Y6.2581
G1 X8.0998 Y6.2156
G1 X8.5246 Y6.2156
G1 X8.5246 Y6.6404
G1 X8.0998 Y6.6404
G1 X8.0998 Y6.2156
G1 X8.0573 Y6.1731
G1 X8.5671 Y6.1731
G1 X8.5671 Y6.6829
G1 X8.0573 Y6.6829
G1 X8.0573 Y6.1731
G1 X8.0148 Y6.1306
G1 X8.6095 Y6.1306
G1 X8.6095 Y6.7254
G1 X8.0148 Y6.7254
G1 X8.0148 Y6.1306
G1 X7.9723 Y6.0882
G1 X8.6520 Y6.0882
G1 X8.6520 Y6.7678
G1 X7.9723 Y6.7678
G1 X7.9723 Y6.0882
G1 X7.9299 Y6.0457
G1 X8.6945 Y6.0457
G1 X8.6945 Y6.8103
G1 X7.9299 Y6.8103
G1 X7.9299 Y6.0457
G1 X7.8874 Y6.0032
G1 X8.7370 Y6.0032
G1 X8.7370 Y6.8528
G1 X7.8874 Y6.8528
G1 X7.8874 Y6.0032
G1 X7.8449 Y5.9607
G1 X8.7795 Y5.9607
G1 X8.7795 Y6.8953
G1 X7.8449 Y6.8953
G1 X7.8449 Y5.9607
G1 X7.8024 Y5.9182
G1 X8.8219 Y5.9182
G1 X8.8219 Y6.9378
G1 X7.8024 Y6.9378
G1 X7.8024 Y5.9182
G1 X7.7599 Y5.8758
G1 X8.8644 Y5.8758
G1 X8.8644 Y6.9802
G1 X7.7599 Y6.9802
G1 X7.7599 Y5.8758
G1 X7.7175 Y5.8333
G1 X8.9069 Y5.8333
G1 X8.9069 Y7.0227
G1 X7.7175 Y7.0227
G1 X7.7175 Y5.8333
G1 X7.6750 Y5.7908
G1 X8.9494 Y5.7908
G1 X8.9494 Y7.0652
G1 X7.6750 Y7.0652
G1 X7.6750 Y5.7908
G1 X7.5145 Y7.1318
G1 X7.5145 Y7.6987
G1 X7.6720 Y7.8544
G1 X8.9523 Y7.8544
G1 X9.1098 Y7.6969
G1 X9.1098 Y5.1591
G1 X8.9523 Y5.0016
G1 X7.6720 Y5.0016
G1 X7.5145 Y5.1591
G1 X7.5145 Y7.1318
G0 Z0.7500
G0 X8.3122 Y6.4280
G0 Z0.2500
( Pass 8: helical entry to Z-0.4800 )
G2 X8.3122 Y6.4280 I0.0590 J0 Z-0.4800 F24.0
F150.0
G1 X8.2697 Y6.3855
G1 X8.3547 Y6.3855
G1 X8.3547 Y6.4705
G1 X8.2697 Y6.4705
G1 X8.2697 Y6.3855
G1 X8.2272 Y6.3430
G1 X8.3971 Y6.3430
G1 X8.3971 Y6.5130
G1 X8.2272 Y6.5130
G1 X8.2272 Y6.3430
G1 X8.1847 Y6.3006
G1 X8.4396 Y6.3006
G1 X8.4396 Y6.5554
G1 X8.1847 Y6.5554
G1 X8.1847 Y6.3006
G1 X8.1423 Y6.2581
G1 X8.4821 Y6.2581
G1 X8.4821 Y6.5979
G1 X8.1423 Y6.5979
G1 X8.1423 Y6.2581
G1 X8.0998 Y6.2156
G1 X8.5246 Y6.2156
G1 X8.5246 Y6.6404
G1 X8.0998 Y6.6404
G1 X8.0998 Y6.2156
G1 X8.0573 Y6.1731
G1 X8.5671 Y6.1731
G1 X8.5671 Y6.6829
G1 X8.0573 Y6.6829
G1 X8.0573 Y6.1731
G1 X8.0148 Y6.1306
G1 X8.6095 Y6.1306
G1 X8.6095 Y6.7254
G1 X8.0148 Y6.7254
G1 X8.0148 Y6.1306
G1 X7.9723 Y6.0882
G1 X8.6520 Y6.0882
G1 X8.6520 Y6.7678
G1 X7.9723 Y6.7678
G1 X7.9723 Y6.0882
G1 X7.9299 Y6.0457
G1 X8.6945 Y6.0457
G1 X8.6945 Y6.8103
G1 X7.9299 Y6.8103
G1 X7.9299 Y6.0457
G1 X7.8874 Y6.0032
G1 X8.7370 Y6.0032
G1 X8.7370 Y6.8528
G1 X7.8874 Y6.8528
G1 X7.8874 Y6.0032
G1 X7.8449 Y5.9607
G1 X8.7795 Y5.9607
G1 X8.7795 Y6.8953
G1 X7.8449 Y6.8953
G1 X7.8449 Y5.9607
G1 X7.8024 Y5.9182
G1 X8.8219 Y5.9182
G1 X8.8219 Y6.9378
G1 X7.8024 Y6.9378
G1 X7.8024 Y5.9182
G1 X7.7599 Y5.8758
G1 X8.8644 Y5.8758
G1 X8.8644 Y6.9802
G1 X7.7599 Y6.9802
G1 X7.7599 Y5.8758
G1 X7.7175 Y5.8333
G1 X8.9069 Y5.8333
G1 X8.9069 Y7.0227
G1 X7.7175 Y7.0227
G1 X7.7175 Y5.8333
G1 X7.6750 Y5.7908
G1 X8.9494 Y5.7908
G1 X8.9494 Y7.0652
G1 X7.6750 Y7.0652
G1 X7.6750 Y5.7908
G1 X7.5145 Y7.1318
G1 X7.5145 Y7.6987
G1 X7.6720 Y7.8544
G1 X8.9523 Y7.8544
G1 X9.1098 Y7.6969
G1 X9.1098 Y5.1591
G1 X8.9523 Y5.0016
G1 X7.6720 Y5.0016
G1 X7.5145 Y5.1591
G1 X7.5145 Y7.1318
G0 Z0.7500
G0 X8.3122 Y6.4280
G0 Z0.2500
( Pass 9: helical entry to Z-0.5400 )
G2 X8.3122 Y6.4280 I0.0590 J0 Z-0.5400 F24.0
F150.0
G1 X8.2697 Y6.3855
G1 X8.3547 Y6.3855
G1 X8.3547 Y6.4705
G1 X8.2697 Y6.4705
G1 X8.2697 Y6.3855
G1 X8.2272 Y6.3430
G1 X8.3971 Y6.3430
G1 X8.3971 Y6.5130
G1 X8.2272 Y6.5130
G1 X8.2272 Y6.3430
G1 X8.1847 Y6.3006
G1 X8.4396 Y6.3006
G1 X8.4396 Y6.5554
G1 X8.1847 Y6.5554
G1 X8.1847 Y6.3006
G1 X8.1423 Y6.2581
G1 X8.4821 Y6.2581
G1 X8.4821 Y6.5979
G1 X8.1423 Y6.5979
G1 X8.1423 Y6.2581
G1 X8.0998 Y6.2156
G1 X8.5246 Y6.2156
G1 X8.5246 Y6.6404
G1 X8.0998 Y6.6404
G1 X8.0998 Y6.2156
G1 X8.0573 Y6.1731
G1 X8.5671 Y6.1731
G1 X8.5671 Y6.6829
G1 X8.0573 Y6.6829
G1 X8.0573 Y6.1731
G1 X8.0148 Y6.1306
G1 X8.6095 Y6.1306
G1 X8.6095 Y6.7254
G1 X8.0148 Y6.7254
G1 X8.0148 Y6.1306
G1 X7.9723 Y6.0882
G1 X8.6520 Y6.0882
G1 X8.6520 Y6.7678
G1 X7.9723 Y6.7678
G1 X7.9723 Y6.0882
G1 X7.9299 Y6.0457
G1 X8.6945 Y6.0457
G1 X8.6945 Y6.8103
G1 X7.9299 Y6.8103
G1 X7.9299 Y6.0457
G1 X7.8874 Y6.0032
G1 X8.7370 Y6.0032
G1 X8.7370 Y6.8528
G1 X7.8874 Y6.8528
G1 X7.8874 Y6.0032
G1 X7.8449 Y5.9607
G1 X8.7795 Y5.9607
G1 X8.7795 Y6.8953
G1 X7.8449 Y6.8953
G1 X7.8449 Y5.9607
G1 X7.8024 Y5.9182
G1 X8.8219 Y5.9182
G1 X8.8219 Y6.9378
G1 X7.8024 Y6.9378
G1 X7.8024 Y5.9182
G1 X7.7599 Y5.8758
G1 X8.8644 Y5.8758
G1 X8.8644 Y6.9802
G1 X7.7599 Y6.9802
G1 X7.7599 Y5.8758
G1 X7.7175 Y5.8333
G1 X8.9069 Y5.8333
G1 X8.9069 Y7.0227
G1 X7.7175 Y7.0227
G1 X7.7175 Y5.8333
G1 X7.6750 Y5.7908
G1 X8.9494 Y5.7908
G1 X8.9494 Y7.0652
G1 X7.6750 Y7.0652
G1 X7.6750 Y5.7908
G1 X7.5145 Y7.1318
G1 X7.5145 Y7.6987
G1 X7.6720 Y7.8544
G1 X8.9523 Y7.8544
G1 X9.1098 Y7.6969
G1 X9.1098 Y5.1591
G1 X8.9523 Y5.0016
G1 X7.6720 Y5.0016
G1 X7.5145 Y5.1591
G1 X7.5145 Y7.1318
G0 Z0.7500
G0 X8.3122 Y6.4280
G0 Z0.2500
( Pass 10: helical entry to Z-0.6000 )
G2 X8.3122 Y6.4280 I0.0590 J0 Z-0.6000 F24.0
F150.0
G1 X8.2697 Y6.3855
G1 X8.3547 Y6.3855
G1 X8.3547 Y6.4705
G1 X8.2697 Y6.4705
G1 X8.2697 Y6.3855
G1 X8.2272 Y6.3430
G1 X8.3971 Y6.3430
G1 X8.3971 Y6.5130
G1 X8.2272 Y6.5130
G1 X8.2272 Y6.3430
G1 X8.1847 Y6.3006
G1 X8.4396 Y6.3006
G1 X8.4396 Y6.5554
G1 X8.1847 Y6.5554
G1 X8.1847 Y6.3006
G1 X8.1423 Y6.2581
G1 X8.4821 Y6.2581
G1 X8.4821 Y6.5979
G1 X8.1423 Y6.5979
G1 X8.1423 Y6.2581
G1 X8.0998 Y6.2156
G1 X8.5246 Y6.2156
G1 X8.5246 Y6.6404
G1 X8.0998 Y6.6404
G1 X8.0998 Y6.2156
G1 X8.0573 Y6.1731
G1 X8.5671 Y6.1731
G1 X8.5671 Y6.6829
G1 X8.0573 Y6.6829
G1 X8.0573 Y6.1731
G1 X8.0148 Y6.1306
G1 X8.6095 Y6.1306
G1 X8.6095 Y6.7254
G1 X8.0148 Y6.7254
G1 X8.0148 Y6.1306
G1 X7.9723 Y6.0882
G1 X8.6520 Y6.0882
G1 X8.6520 Y6.7678
G1 X7.9723 Y6.7678
G1 X7.9723 Y6.0882
G1 X7.9299 Y6.0457
G1 X8.6945 Y6.0457
G1 X8.6945 Y6.8103
G1 X7.9299 Y6.8103
G1 X7.9299 Y6.0457
G1 X7.8874 Y6.0032
G1 X8.7370 Y6.0032
G1 X8.7370 Y6.8528
G1 X7.8874 Y6.8528
G1 X7.8874 Y6.0032
G1 X7.8449 Y5.9607
G1 X8.7795 Y5.9607
G1 X8.7795 Y6.8953
G1 X7.8449 Y6.8953
G1 X7.8449 Y5.9607
G1 X7.8024 Y5.9182
G1 X8.8219 Y5.9182
G1 X8.8219 Y6.9378
G1 X7.8024 Y6.9378
G1 X7.8024 Y5.9182
G1 X7.7599 Y5.8758
G1 X8.8644 Y5.8758
G1 X8.8644 Y6.9802
G1 X7.7599 Y6.9802
G1 X7.7599 Y5.8758
G1 X7.7175 Y5.8333
G1 X8.9069 Y5.8333
G1 X8.9069 Y7.0227
G1 X7.7175 Y7.0227
G1 X7.7175 Y5.8333
G1 X7.6750 Y5.7908
G1 X8.9494 Y5.7908
G1 X8.9494 Y7.0652
G1 X7.6750 Y7.0652
G1 X7.6750 Y5.7908
G1 X7.5145 Y7.1318
G1 X7.5145 Y7.6987
G1 X7.6720 Y7.8544
G1 X8.9523 Y7.8544
G1 X9.1098 Y7.6969
G1 X9.1098 Y5.1591
G1 X8.9523 Y5.0016
G1 X7.6720 Y5.0016
G1 X7.5145 Y5.1591
G1 X7.5145 Y7.1318
G0 Z0.7500
G0 X8.3122 Y6.4280
G0 Z0.2500
( Pass 11: helical entry to Z-0.6600 )
G2 X8.3122 Y6.4280 I0.0590 J0 Z-0.6600 F24.0
F150.0
G1 X8.2697 Y6.3855
G1 X8.3547 Y6.3855
G1 X8.3547 Y6.4705
G1 X8.2697 Y6.4705
G1 X8.2697 Y6.3855
G1 X8.2272 Y6.3430
G1 X8.3971 Y6.3430
G1 X8.3971 Y6.5130
G1 X8.2272 Y6.5130
G1 X8.2272 Y6.3430
G1 X8.1847 Y6.3006
G1 X8.4396 Y6.3006
G1 X8.4396 Y6.5554
G1 X8.1847 Y6.5554
G1 X8.1847 Y6.3006
G1 X8.1423 Y6.2581
G1 X8.4821 Y6.2581
G1 X8.4821 Y6.5979
G1 X8.1423 Y6.5979
G1 X8.1423 Y6.2581
G1 X8.0998 Y6.2156
G1 X8.5246 Y6.2156
G1 X8.5246 Y6.6404
G1 X8.0998 Y6.6404
G1 X8.0998 Y6.2156
G1 X8.0573 Y6.1731
G1 X8.5671 Y6.1731
G1 X8.5671 Y6.6829
G1 X8.0573 Y6.6829
G1 X8.0573 Y6.1731
G1 X8.0148 Y6.1306
G1 X8.6095 Y6.1306
G1 X8.6095 Y6.7254
G1 X8.0148 Y6.7254
G1 X8.0148 Y6.1306
G1 X7.9723 Y6.0882
G1 X8.6520 Y6.0882
G1 X8.6520 Y6.7678
G1 X7.9723 Y6.7678
G1 X7.9723 Y6.0882
G1 X7.9299 Y6.0457
G1 X8.6945 Y6.0457
G1 X8.6945 Y6.8103
G1 X7.9299 Y6.8103
G1 X7.9299 Y6.0457
G1 X7.8874 Y6.0032
G1 X8.7370 Y6.0032
G1 X8.7370 Y6.8528
G1 X7.8874 Y6.8528
G1 X7.8874 Y6.0032
G1 X7.8449 Y5.9607
G1 X8.7795 Y5.9607
G1 X8.7795 Y6.8953
G1 X7.8449 Y6.8953
G1 X7.8449 Y5.9607
G1 X7.8024 Y5.9182
G1 X8.8219 Y5.9182
G1 X8.8219 Y6.9378
G1 X7.8024 Y6.9378
G1 X7.8024 Y5.9182
G1 X7.7599 Y5.8758
G1 X8.8644 Y5.8758
G1 X8.8644 Y6.9802
G1 X7.7599 Y6.9802
G1 X7.7599 Y5.8758
G1 X7.7175 Y5.8333
G1 X8.9069 Y5.8333
G1 X8.9069 Y7.0227
G1 X7.7175 Y7.0227
G1 X7.7175 Y5.8333
G1 X7.6750 Y5.7908
G1 X8.9494 Y5.7908
G1 X8.9494 Y7.0652
G1 X7.6750 Y7.0652
G1 X7.6750 Y5.7908
G1 X7.5145 Y7.1318
G1 X7.5145 Y7.6987
G1 X7.6720 Y7.8544
G1 X8.9523 Y7.8544
G1 X9.1098 Y7.6969
G1 X9.1098 Y5.1591
G1 X8.9523 Y5.0016
G1 X7.6720 Y5.0016
G1 X7.5145 Y5.1591
G1 X7.5145 Y7.1318
G0 Z0.7500
G0 X8.3122 Y6.4280
G0 Z0.2500
( Pass 12: helical entry to Z-0.7200 )
G2 X8.3122 Y6.4280 I0.0590 J0 Z-0.7200 F24.0
F150.0
G1 X8.2697 Y6.3855
G1 X8.3547 Y6.3855
G1 X8.3547 Y6.4705
G1 X8.2697 Y6.4705
G1 X8.2697 Y6.3855
G1 X8.2272 Y6.3430
G1 X8.3971 Y6.3430
G1 X8.3971 Y6.5130
G1 X8.2272 Y6.5130
G1 X8.2272 Y6.3430
G1 X8.1847 Y6.3006
G1 X8.4396 Y6.3006
G1 X8.4396 Y6.5554
G1 X8.1847 Y6.5554
G1 X8.1847 Y6.3006
G1 X8.1423 Y6.2581
G1 X8.4821 Y6.2581
G1 X8.4821 Y6.5979
G1 X8.1423 Y6.5979
G1 X8.1423 Y6.2581
G1 X8.0998 Y6.2156
G1 X8.5246 Y6.2156
G1 X8.5246 Y6.6404
G1 X8.0998 Y6.6404
G1 X8.0998 Y6.2156
G1 X8.0573 Y6.1731
G1 X8.5671 Y6.1731
G1 X8.5671 Y6.6829
G1 X8.0573 Y6.6829
G1 X8.0573 Y6.1731
G1 X8.0148 Y6.1306
G1 X8.6095 Y6.1306
G1 X8.6095 Y6.7254
G1 X8.0148 Y6.7254
G1 X8.0148 Y6.1306
G1 X7.9723 Y6.0882
G1 X8.6520 Y6.0882
G1 X8.6520 Y6.7678
G1 X7.9723 Y6.7678
G1 X7.9723 Y6.0882
G1 X7.9299 Y6.0457
G1 X8.6945 Y6.0457
G1 X8.6945 Y6.8103
G1 X7.9299 Y6.8103
G1 X7.9299 Y6.0457
G1 X7.8874 Y6.0032
G1 X8.7370 Y6.0032
G1 X8.7370 Y6.8528
G1 X7.8874 Y6.8528
G1 X7.8874 Y6.0032
G1 X7.8449 Y5.9607
G1 X8.7795 Y5.9607
G1 X8.7795 Y6.8953
G1 X7.8449 Y6.8953
G1 X7.8449 Y5.9607
G1 X7.8024 Y5.9182
G1 X8.8219 Y5.9182
G1 X8.8219 Y6.9378
G1 X7.8024 Y6.9378
G1 X7.8024 Y5.9182
G1 X7.7599 Y5.8758
G1 X8.8644 Y5.8758
G1 X8.8644 Y6.9802
G1 X7.7599 Y6.9802
G1 X7.7599 Y5.8758
G1 X7.7175 Y5.8333
G1 X8.9069 Y5.8333
G1 X8.9069 Y7.0227
G1 X7.7175 Y7.0227
G1 X7.7175 Y5.8333
G1 X7.6750 Y5.7908
G1 X8.9494 Y5.7908
G1 X8.9494 Y7.0652
G1 X7.6750 Y7.0652
G1 X7.6750 Y5.7908
G1 X7.5145 Y7.1318
G1 X7.5145 Y7.6987
G1 X7.6720 Y7.8544
G1 X8.9523 Y7.8544
G1 X9.1098 Y7.6969
G1 X9.1098 Y5.1591
G1 X8.9523 Y5.0016
G1 X7.6720 Y5.0016
G1 X7.5145 Y5.1591
G1 X7.5145 Y7.1318
G0 Z0.7500
G0 X8.3122 Y6.4280
G0 Z0.2500
( Pass 13: helical entry to Z-0.7500 )
G2 X8.3122 Y6.4280 I0.0590 J0 Z-0.7500 F24.0
F150.0
G1 X8.2697 Y6.3855
G1 X8.3547 Y6.3855
G1 X8.3547 Y6.4705
G1 X8.2697 Y6.4705
G1 X8.2697 Y6.3855
G1 X8.2272 Y6.3430
G1 X8.3971 Y6.3430
G1 X8.3971 Y6.5130
G1 X8.2272 Y6.5130
G1 X8.2272 Y6.3430
G1 X8.1847 Y6.3006
G1 X8.4396 Y6.3006
G1 X8.4396 Y6.5554
G1 X8.1847 Y6.5554
G1 X8.1847 Y6.3006
G1 X8.1423 Y6.2581
G1 X8.4821 Y6.2581
G1 X8.4821 Y6.5979
G1 X8.1423 Y6.5979
G1 X8.1423 Y6.2581
G1 X8.0998 Y6.2156
G1 X8.5246 Y6.2156
G1 X8.5246 Y6.6404
G1 X8.0998 Y6.6404
G1 X8.0998 Y6.2156
G1 X8.0573 Y6.1731
G1 X8.5671 Y6.1731
G1 X8.5671 Y6.6829
G1 X8.0573 Y6.6829
G1 X8.0573 Y6.1731
G1 X8.0148 Y6.1306
G1 X8.6095 Y6.1306
G1 X8.6095 Y6.7254
G1 X8.0148 Y6.7254
G1 X8.0148 Y6.1306
G1 X7.9723 Y6.0882
G1 X8.6520 Y6.0882
G1 X8.6520 Y6.7678
G1 X7.9723 Y6.7678
G1 X7.9723 Y6.0882
G1 X7.9299 Y6.0457
G1 X8.6945 Y6.0457
G1 X8.6945 Y6.8103
G1 X7.9299 Y6.8103
G1 X7.9299 Y6.0457
G1 X7.8874 Y6.0032
G1 X8.7370 Y6.0032
G1 X8.7370 Y6.8528
G1 X7.8874 Y6.8528
G1 X7.8874 Y6.0032
G1 X7.8449 Y5.9607
G1 X8.7795 Y5.9607
G1 X8.7795 Y6.8953
G1 X7.8449 Y6.8953
G1 X7.8449 Y5.9607
G1 X7.8024 Y5.9182
G1 X8.8219 Y5.9182
G1 X8.8219 Y6.9378
G1 X7.8024 Y6.9378
G1 X7.8024 Y5.9182
G1 X7.7599 Y5.8758
G1 X8.8644 Y5.8758
G1 X8.8644 Y6.9802
G1 X7.7599 Y6.9802
G1 X7.7599 Y5.8758
G1 X7.7175 Y5.8333
G1 X8.9069 Y5.8333
G1 X8.9069 Y7.0227
G1 X7.7175 Y7.0227
G1 X7.7175 Y5.8333
G1 X7.6750 Y5.7908
G1 X8.9494 Y5.7908
G1 X8.9494 Y7.0652
G1 X7.6750 Y7.0652
G1 X7.6750 Y5.7908
G1 X7.5145 Y7.1318
G1 X7.5145 Y7.6987
G1 X7.6720 Y7.8544
G1 X8.9523 Y7.8544
G1 X9.1098 Y7.6969
G1 X9.1098 Y5.1591
G1 X8.9523 Y5.0016
G1 X7.6720 Y5.0016
G1 X7.5145 Y5.1591
G1 X7.5145 Y7.1318
G0 Z0.2500
( Pocket at (4.16, 6.43), 1.60" × 2.85" )
G0 Z0.7500
G0 X4.1646 Y6.4280
G0 Z0.2500
( Pass 1: helical entry to Z-0.0600 )
G2 X4.1646 Y6.4280 I0.0590 J0 Z-0.0600 F24.0
F150.0
G1 X4.1221 Y6.3855
G1 X4.2071 Y6.3855
G1 X4.2071 Y6.4705
G1 X4.1221 Y6.4705
G1 X4.1221 Y6.3855
G1 X4.0796 Y6.3430
G1 X4.2496 Y6.3430
G1 X4.2496 Y6.5130
G1 X4.0796 Y6.5130
G1 X4.0796 Y6.3430
G1 X4.0372 Y6.3006
G1 X4.2920 Y6.3006
G1 X4.2920 Y6.5554
G1 X4.0372 Y6.5554
G1 X4.0372 Y6.3006
G1 X3.9947 Y6.2581
G1 X4.3345 Y6.2581
G1 X4.3345 Y6.5979
G1 X3.9947 Y6.5979
G1 X3.9947 Y6.2581
G1 X3.9522 Y6.2156
G1 X4.3770 Y6.2156
G1 X4.3770 Y6.6404
G1 X3.9522 Y6.6404
G1 X3.9522 Y6.2156
G1 X3.9097 Y6.1731
G1 X4.4195 Y6.1731
G1 X4.4195 Y6.6829
G1 X3.9097 Y6.6829
G1 X3.9097 Y6.1731
G1 X3.8672 Y6.1306
G1 X4.4620 Y6.1306
G1 X4.4620 Y6.7254
G1 X3.8672 Y6.7254
G1 X3.8672 Y6.1306
G1 X3.8248 Y6.0882
G1 X4.5044 Y6.0882
G1 X4.5044 Y6.7678
G1 X3.8248 Y6.7678
G1 X3.8248 Y6.0882
G1 X3.7823 Y6.0457
G1 X4.5469 Y6.0457
G1 X4.5469 Y6.8103
G1 X3.7823 Y6.8103
G1 X3.7823 Y6.0457
G1 X3.7398 Y6.0032
G1 X4.5894 Y6.0032
G1 X4.5894 Y6.8528
G1 X3.7398 Y6.8528
G1 X3.7398 Y6.0032
G1 X3.6973 Y5.9607
G1 X4.6319 Y5.9607
G1 X4.6319 Y6.8953
G1 X3.6973 Y6.8953
G1 X3.6973 Y5.9607
G1 X3.6548 Y5.9182
G1 X4.6744 Y5.9182
G1 X4.6744 Y6.9378
G1 X3.6548 Y6.9378
G1 X3.6548 Y5.9182
G1 X3.6124 Y5.8758
G1 X4.7168 Y5.8758
G1 X4.7168 Y6.9802
G1 X3.6124 Y6.9802
G1 X3.6124 Y5.8758
G1 X3.5699 Y5.8333
G1 X4.7593 Y5.8333
G1 X4.7593 Y7.0227
G1 X3.5699 Y7.0227
G1 X3.5699 Y5.8333
G1 X3.5274 Y5.7908
G1 X4.8018 Y5.7908
G1 X4.8018 Y7.0652
G1 X3.5274 Y7.0652
G1 X3.5274 Y5.7908
G1 X4.9622 Y5.1591
G1 X4.8048 Y5.0016
G1 X3.5244 Y5.0016
G1 X3.3670 Y5.1591
G1 X3.3670 Y7.6969
G1 X3.5244 Y7.8544
G1 X4.8048 Y7.8544
G1 X4.9622 Y7.6969
G1 X4.9622 Y5.6071
G1 X4.9622 Y5.1591
G0 Z0.7500
G0 X4.1646 Y6.4280
G0 Z0.2500
( Pass 2: helical entry to Z-0.1200 )
G2 X4.1646 Y6.4280 I0.0590 J0 Z-0.1200 F24.0
F150.0
G1 X4.1221 Y6.3855
G1 X4.2071 Y6.3855
G1 X4.2071 Y6.4705
G1 X4.1221 Y6.4705
G1 X4.1221 Y6.3855
G1 X4.0796 Y6.3430
G1 X4.2496 Y6.3430
G1 X4.2496 Y6.5130
G1 X4.0796 Y6.5130
G1 X4.0796 Y6.3430
G1 X4.0372 Y6.3006
G1 X4.2920 Y6.3006
G1 X4.2920 Y6.5554
G1 X4.0372 Y6.5554
G1 X4.0372 Y6.3006
G1 X3.9947 Y6.2581
G1 X4.3345 Y6.2581
G1 X4.3345 Y6.5979
G1 X3.9947 Y6.5979
G1 X3.9947 Y6.2581
G1 X3.9522 Y6.2156
G1 X4.3770 Y6.2156
G1 X4.3770 Y6.6404
G1 X3.9522 Y6.6404
G1 X3.9522 Y6.2156
G1 X3.9097 Y6.1731
G1 X4.4195 Y6.1731
G1 X4.4195 Y6.6829
G1 X3.9097 Y6.6829
G1 X3.9097 Y6.1731
G1 X3.8672 Y6.1306
G1 X4.4620 Y6.1306
G1 X4.4620 Y6.7254
G1 X3.8672 Y6.7254
G1 X3.8672 Y6.1306
G1 X3.8248 Y6.0882
G1 X4.5044 Y6.0882
G1 X4.5044 Y6.7678
G1 X3.8248 Y6.7678
G1 X3.8248 Y6.0882
G1 X3.7823 Y6.0457
G1 X4.5469 Y6.0457
G1 X4.5469 Y6.8103
G1 X3.7823 Y6.8103
G1 X3.7823 Y6.0457
G1 X3.7398 Y6.0032
G1 X4.5894 Y6.0032
G1 X4.5894 Y6.8528
G1 X3.7398 Y6.8528
G1 X3.7398 Y6.0032
G1 X3.6973 Y5.9607
G1 X4.6319 Y5.9607
G1 X4.6319 Y6.8953
G1 X3.6973 Y6.8953
G1 X3.6973 Y5.9607
G1 X3.6548 Y5.9182
G1 X4.6744 Y5.9182
G1 X4.6744 Y6.9378
G1 X3.6548 Y6.9378
G1 X3.6548 Y5.9182
G1 X3.6124 Y5.8758
G1 X4.7168 Y5.8758
G1 X4.7168 Y6.9802
G1 X3.6124 Y6.9802
G1 X3.6124 Y5.8758
G1 X3.5699 Y5.8333
G1 X4.7593 Y5.8333
G1 X4.7593 Y7.0227
G1 X3.5699 Y7.0227
G1 X3.5699 Y5.8333
G1 X3.5274 Y5.7908
G1 X4.8018 Y5.7908
G1 X4.8018 Y7.0652
G1 X3.5274 Y7.0652
G1 X3.5274 Y5.7908
G1 X4.9622 Y5.1591
G1 X4.8048 Y5.0016
G1 X3.5244 Y5.0016
G1 X3.3670 Y5.1591
G1 X3.3670 Y7.6969
G1 X3.5244 Y7.8544
G1 X4.8048 Y7.8544
G1 X4.9622 Y7.6969
G1 X4.9622 Y5.6071
G1 X4.9622 Y5.1591
G0 Z0.7500
G0 X4.1646 Y6.4280
G0 Z0.2500
( Pass 3: helical entry to Z-0.1800 )
G2 X4.1646 Y6.4280 I0.0590 J0 Z-0.1800 F24.0
F150.0
G1 X4.1221 Y6.3855
G1 X4.2071 Y6.3855
G1 X4.2071 Y6.4705
G1 X4.1221 Y6.4705
G1 X4.1221 Y6.3855
G1 X4.0796 Y6.3430
G1 X4.2496 Y6.3430
G1 X4.2496 Y6.5130
G1 X4.0796 Y6.5130
G1 X4.0796 Y6.3430
G1 X4.0372 Y6.3006
G1 X4.2920 Y6.3006
G1 X4.2920 Y6.5554
G1 X4.0372 Y6.5554
G1 X4.0372 Y6.3006
G1 X3.9947 Y6.2581
G1 X4.3345 Y6.2581
G1 X4.3345 Y6.5979
G1 X3.9947 Y6.5979
G1 X3.9947 Y6.2581
G1 X3.9522 Y6.2156
G1 X4.3770 Y6.2156
G1 X4.3770 Y6.6404
G1 X3.9522 Y6.6404
G1 X3.9522 Y6.2156
G1 X3.9097 Y6.1731
G1 X4.4195 Y6.1731
G1 X4.4195 Y6.6829
G1 X3.9097 Y6.6829
G1 X3.9097 Y6.1731
G1 X3.8672 Y6.1306
G1 X4.4620 Y6.1306
G1 X4.4620 Y6.7254
G1 X3.8672 Y6.7254
G1 X3.8672 Y6.1306
G1 X3.8248 Y6.0882
G1 X4.5044 Y6.0882
G1 X4.5044 Y6.7678
G1 X3.8248 Y6.7678
G1 X3.8248 Y6.0882
G1 X3.7823 Y6.0457
G1 X4.5469 Y6.0457
G1 X4.5469 Y6.8103
G1 X3.7823 Y6.8103
G1 X3.7823 Y6.0457
G1 X3.7398 Y6.0032
G1 X4.5894 Y6.0032
G1 X4.5894 Y6.8528
G1 X3.7398 Y6.8528
G1 X3.7398 Y6.0032
G1 X3.6973 Y5.9607
G1 X4.6319 Y5.9607
G1 X4.6319 Y6.8953
G1 X3.6973 Y6.8953
G1 X3.6973 Y5.9607
G1 X3.6548 Y5.9182
G1 X4.6744 Y5.9182
G1 X4.6744 Y6.9378
G1 X3.6548 Y6.9378
G1 X3.6548 Y5.9182
G1 X3.6124 Y5.8758
G1 X4.7168 Y5.8758
G1 X4.7168 Y6.9802
G1 X3.6124 Y6.9802
G1 X3.6124 Y5.8758
G1 X3.5699 Y5.8333
G1 X4.7593 Y5.8333
G1 X4.7593 Y7.0227
G1 X3.5699 Y7.0227
G1 X3.5699 Y5.8333
G1 X3.5274 Y5.7908
G1 X4.8018 Y5.7908
G1 X4.8018 Y7.0652
G1 X3.5274 Y7.0652
G1 X3.5274 Y5.7908
G1 X4.9622 Y5.1591
G1 X4.8048 Y5.0016
G1 X3.5244 Y5.0016
G1 X3.3670 Y5.1591
G1 X3.3670 Y7.6969
G1 X3.5244 Y7.8544
G1 X4.8048 Y7.8544
G1 X4.9622 Y7.6969
G1 X4.9622 Y5.6071
G1 X4.9622 Y5.1591
G0 Z0.7500
G0 X4.1646 Y6.4280
G0 Z0.2500
( Pass 4: helical entry to Z-0.2400 )
G2 X4.1646 Y6.4280 I0.0590 J0 Z-0.2400 F24.0
F150.0
G1 X4.1221 Y6.3855
G1 X4.2071 Y6.3855
G1 X4.2071 Y6.4705
G1 X4.1221 Y6.4705
G1 X4.1221 Y6.3855
G1 X4.0796 Y6.3430
G1 X4.2496 Y6.3430
G1 X4.2496 Y6.5130
G1 X4.0796 Y6.5130
G1 X4.0796 Y6.3430
G1 X4.0372 Y6.3006
G1 X4.2920 Y6.3006
G1 X4.2920 Y6.5554
G1 X4.0372 Y6.5554
G1 X4.0372 Y6.3006
G1 X3.9947 Y6.2581
G1 X4.3345 Y6.2581
G1 X4.3345 Y6.5979
G1 X3.9947 Y6.5979
G1 X3.9947 Y6.2581
G1 X3.9522 Y6.2156
G1 X4.3770 Y6.2156
G1 X4.3770 Y6.6404
G1 X3.9522 Y6.6404
G1 X3.9522 Y6.2156
G1 X3.9097 Y6.1731
G1 X4.4195 Y6.1731
G1 X4.4195 Y6.6829
G1 X3.9097 Y6.6829
G1 X3.9097 Y6.1731
G1 X3.8672 Y6.1306
G1 X4.4620 Y6.1306
G1 X4.4620 Y6.7254
G1 X3.8672 Y6.7254
G1 X3.8672 Y6.1306
G1 X3.8248 Y6.0882
G1 X4.5044 Y6.0882
G1 X4.5044 Y6.7678
G1 X3.8248 Y6.7678
G1 X3.8248 Y6.0882
G1 X3.7823 Y6.0457
G1 X4.5469 Y6.0457
G1 X4.5469 Y6.8103
G1 X3.7823 Y6.8103
G1 X3.7823 Y6.0457
G1 X3.7398 Y6.0032
G1 X4.5894 Y6.0032
G1 X4.5894 Y6.8528
G1 X3.7398 Y6.8528
G1 X3.7398 Y6.0032
G1 X3.6973 Y5.9607
G1 X4.6319 Y5.9607
G1 X4.6319 Y6.8953
G1 X3.6973 Y6.8953
G1 X3.6973 Y5.9607
G1 X3.6548 Y5.9182
G1 X4.6744 Y5.9182
G1 X4.6744 Y6.9378
G1 X3.6548 Y6.9378
G1 X3.6548 Y5.9182
G1 X3.6124 Y5.8758
G1 X4.7168 Y5.8758
G1 X4.7168 Y6.9802
G1 X3.6124 Y6.9802
G1 X3.6124 Y5.8758
G1 X3.5699 Y5.8333
G1 X4.7593 Y5.8333
G1 X4.7593 Y7.0227
G1 X3.5699 Y7.0227
G1 X3.5699 Y5.8333
G1 X3.5274 Y5.7908
G1 X4.8018 Y5.7908
G1 X4.8018 Y7.0652
G1 X3.5274 Y7.0652
G1 X3.5274 Y5.7908
G1 X4.9622 Y5.1591
G1 X4.8048 Y5.0016
G1 X3.5244 Y5.0016
G1 X3.3670 Y5.1591
G1 X3.3670 Y7.6969
G1 X3.5244 Y7.8544
G1 X4.8048 Y7.8544
G1 X4.9622 Y7.6969
G1 X4.9622 Y5.6071
G1 X4.9622 Y5.1591
G0 Z0.7500
G0 X4.1646 Y6.4280
G0 Z0.2500
( Pass 5: helical entry to Z-0.3000 )
G2 X4.1646 Y6.4280 I0.0590 J0 Z-0.3000 F24.0
F150.0
G1 X4.1221 Y6.3855
G1 X4.2071 Y6.3855
G1 X4.2071 Y6.4705
G1 X4.1221 Y6.4705
G1 X4.1221 Y6.3855
G1 X4.0796 Y6.3430
G1 X4.2496 Y6.3430
G1 X4.2496 Y6.5130
G1 X4.0796 Y6.5130
G1 X4.0796 Y6.3430
G1 X4.0372 Y6.3006
G1 X4.2920 Y6.3006
G1 X4.2920 Y6.5554
G1 X4.0372 Y6.5554
G1 X4.0372 Y6.3006
G1 X3.9947 Y6.2581
G1 X4.3345 Y6.2581
G1 X4.3345 Y6.5979
G1 X3.9947 Y6.5979
G1 X3.9947 Y6.2581
G1 X3.9522 Y6.2156
G1 X4.3770 Y6.2156
G1 X4.3770 Y6.6404
G1 X3.9522 Y6.6404
G1 X3.9522 Y6.2156
G1 X3.9097 Y6.1731
G1 X4.4195 Y6.1731
G1 X4.4195 Y6.6829
G1 X3.9097 Y6.6829
G1 X3.9097 Y6.1731
G1 X3.8672 Y6.1306
G1 X4.4620 Y6.1306
G1 X4.4620 Y6.7254
G1 X3.8672 Y6.7254
G1 X3.8672 Y6.1306
G1 X3.8248 Y6.0882
G1 X4.5044 Y6.0882
G1 X4.5044 Y6.7678
G1 X3.8248 Y6.7678
G1 X3.8248 Y6.0882
G1 X3.7823 Y6.0457
G1 X4.5469 Y6.0457
G1 X4.5469 Y6.8103
G1 X3.7823 Y6.8103
G1 X3.7823 Y6.0457
G1 X3.7398 Y6.0032
G1 X4.5894 Y6.0032
G1 X4.5894 Y6.8528
G1 X3.7398 Y6.8528
G1 X3.7398 Y6.0032
G1 X3.6973 Y5.9607
G1 X4.6319 Y5.9607
G1 X4.6319 Y6.8953
G1 X3.6973 Y6.8953
G1 X3.6973 Y5.9607
G1 X3.6548 Y5.9182
G1 X4.6744 Y5.9182
G1 X4.6744 Y6.9378
G1 X3.6548 Y6.9378
G1 X3.6548 Y5.9182
G1 X3.6124 Y5.8758
G1 X4.7168 Y5.8758
G1 X4.7168 Y6.9802
G1 X3.6124 Y6.9802
G1 X3.6124 Y5.8758
G1 X3.5699 Y5.8333
G1 X4.7593 Y5.8333
G1 X4.7593 Y7.0227
G1 X3.5699 Y7.0227
G1 X3.5699 Y5.8333
G1 X3.5274 Y5.7908
G1 X4.8018 Y5.7908
G1 X4.8018 Y7.0652
G1 X3.5274 Y7.0652
G1 X3.5274 Y5.7908
G1 X4.9622 Y5.1591
G1 X4.8048 Y5.0016
G1 X3.5244 Y5.0016
G1 X3.3670 Y5.1591
G1 X3.3670 Y7.6969
G1 X3.5244 Y7.8544
G1 X4.8048 Y7.8544
G1 X4.9622 Y7.6969
G1 X4.9622 Y5.6071
G1 X4.9622 Y5.1591
G0 Z0.7500
G0 X4.1646 Y6.4280
G0 Z0.2500
( Pass 6: helical entry to Z-0.3600 )
G2 X4.1646 Y6.4280 I0.0590 J0 Z-0.3600 F24.0
F150.0
G1 X4.1221 Y6.3855
G1 X4.2071 Y6.3855
G1 X4.2071 Y6.4705
G1 X4.1221 Y6.4705
G1 X4.1221 Y6.3855
G1 X4.0796 Y6.3430
G1 X4.2496 Y6.3430
G1 X4.2496 Y6.5130
G1 X4.0796 Y6.5130
G1 X4.0796 Y6.3430
G1 X4.0372 Y6.3006
G1 X4.2920 Y6.3006
G1 X4.2920 Y6.5554
G1 X4.0372 Y6.5554
G1 X4.0372 Y6.3006
G1 X3.9947 Y6.2581
G1 X4.3345 Y6.2581
G1 X4.3345 Y6.5979
G1 X3.9947 Y6.5979
G1 X3.9947 Y6.2581
G1 X3.9522 Y6.2156
G1 X4.3770 Y6.2156
G1 X4.3770 Y6.6404
G1 X3.9522 Y6.6404
G1 X3.9522 Y6.2156
G1 X3.9097 Y6.1731
G1 X4.4195 Y6.1731
G1 X4.4195 Y6.6829
G1 X3.9097 Y6.6829
G1 X3.9097 Y6.1731
G1 X3.8672 Y6.1306
G1 X4.4620 Y6.1306
G1 X4.4620 Y6.7254
G1 X3.8672 Y6.7254
G1 X3.8672 Y6.1306
G1 X3.8248 Y6.0882
G1 X4.5044 Y6.0882
G1 X4.5044 Y6.7678
G1 X3.8248 Y6.7678
G1 X3.8248 Y6.0882
G1 X3.7823 Y6.0457
G1 X4.5469 Y6.0457
G1 X4.5469 Y6.8103
G1 X3.7823 Y6.8103
G1 X3.7823 Y6.0457
G1 X3.7398 Y6.0032
G1 X4.5894 Y6.0032
G1 X4.5894 Y6.8528
G1 X3.7398 Y6.8528
G1 X3.7398 Y6.0032
G1 X3.6973 Y5.9607
G1 X4.6319 Y5.9607
G1 X4.6319 Y6.8953
G1 X3.6973 Y6.8953
G1 X3.6973 Y5.9607
G1 X3.6548 Y5.9182
G1 X4.6744 Y5.9182
G1 X4.6744 Y6.9378
G1 X3.6548 Y6.9378
G1 X3.6548 Y5.9182
G1 X3.6124 Y5.8758
G1 X4.7168 Y5.8758
G1 X4.7168 Y6.9802
G1 X3.6124 Y6.9802
G1 X3.6124 Y5.8758
G1 X3.5699 Y5.8333
G1 X4.7593 Y5.8333
G1 X4.7593 Y7.0227
G1 X3.5699 Y7.0227
G1 X3.5699 Y5.8333
G1 X3.5274 Y5.7908
G1 X4.8018 Y5.7908
G1 X4.8018 Y7.0652
G1 X3.5274 Y7.0652
G1 X3.5274 Y5.7908
G1 X4.9622 Y5.1591
G1 X4.8048 Y5.0016
G1 X3.5244 Y5.0016
G1 X3.3670 Y5.1591
G1 X3.3670 Y7.6969
G1 X3.5244 Y7.8544
G1 X4.8048 Y7.8544
G1 X4.9622 Y7.6969
G1 X4.9622 Y5.6071
G1 X4.9622 Y5.1591
G0 Z0.7500
G0 X4.1646 Y6.4280
G0 Z0.2500
( Pass 7: helical entry to Z-0.4200 )
G2 X4.1646 Y6.4280 I0.0590 J0 Z-0.4200 F24.0
F150.0
G1 X4.1221 Y6.3855
G1 X4.2071 Y6.3855
G1 X4.2071 Y6.4705
G1 X4.1221 Y6.4705
G1 X4.1221 Y6.3855
G1 X4.0796 Y6.3430
G1 X4.2496 Y6.3430
G1 X4.2496 Y6.5130
G1 X4.0796 Y6.5130
G1 X4.0796 Y6.3430
G1 X4.0372 Y6.3006
G1 X4.2920 Y6.3006
G1 X4.2920 Y6.5554
G1 X4.0372 Y6.5554
G1 X4.0372 Y6.3006
G1 X3.9947 Y6.2581
G1 X4.3345 Y6.2581
G1 X4.3345 Y6.5979
G1 X3.9947 Y6.5979
G1 X3.9947 Y6.2581
G1 X3.9522 Y6.2156
G1 X4.3770 Y6.2156
G1 X4.3770 Y6.6404
G1 X3.9522 Y6.6404
G1 X3.9522 Y6.2156
G1 X3.9097 Y6.1731
G1 X4.4195 Y6.1731
G1 X4.4195 Y6.6829
G1 X3.9097 Y6.6829
G1 X3.9097 Y6.1731
G1 X3.8672 Y6.1306
G1 X4.4620 Y6.1306
G1 X4.4620 Y6.7254
G1 X3.8672 Y6.7254
G1 X3.8672 Y6.1306
G1 X3.8248 Y6.0882
G1 X4.5044 Y6.0882
G1 X4.5044 Y6.7678
G1 X3.8248 Y6.7678
G1 X3.8248 Y6.0882
G1 X3.7823 Y6.0457
G1 X4.5469 Y6.0457
G1 X4.5469 Y6.8103
G1 X3.7823 Y6.8103
G1 X3.7823 Y6.0457
G1 X3.7398 Y6.0032
G1 X4.5894 Y6.0032
G1 X4.5894 Y6.8528
G1 X3.7398 Y6.8528
G1 X3.7398 Y6.0032
G1 X3.6973 Y5.9607
G1 X4.6319 Y5.9607
G1 X4.6319 Y6.8953
G1 X3.6973 Y6.8953
G1 X3.6973 Y5.9607
G1 X3.6548 Y5.9182
G1 X4.6744 Y5.9182
G1 X4.6744 Y6.9378
G1 X3.6548 Y6.9378
G1 X3.6548 Y5.9182
G1 X3.6124 Y5.8758
G1 X4.7168 Y5.8758
G1 X4.7168 Y6.9802
G1 X3.6124 Y6.9802
G1 X3.6124 Y5.8758
G1 X3.5699 Y5.8333
G1 X4.7593 Y5.8333
G1 X4.7593 Y7.0227
G1 X3.5699 Y7.0227
G1 X3.5699 Y5.8333
G1 X3.5274 Y5.7908
G1 X4.8018 Y5.7908
G1 X4.8018 Y7.0652
G1 X3.5274 Y7.0652
G1 X3.5274 Y5.7908
G1 X4.9622 Y5.1591
G1 X4.8048 Y5.0016
G1 X3.5244 Y5.0016
G1 X3.3670 Y5.1591
G1 X3.3670 Y7.6969
G1 X3.5244 Y7.8544
G1 X4.8048 Y7.8544
G1 X4.9622 Y7.6969
G1 X4.9622 Y5.6071
G1 X4.9622 Y5.1591
G0 Z0.7500
G0 X4.1646 Y6.4280
G0 Z0.2500
( Pass 8: helical entry to Z-0.4800 )
G2 X4.1646 Y6.4280 I0.0590 J0 Z-0.4800 F24.0
F150.0
G1 X4.1221 Y6.3855
G1 X4.2071 Y6.3855
G1 X4.2071 Y6.4705
G1 X4.1221 Y6.4705
G1 X4.1221 Y6.3855
G1 X4.0796 Y6.3430
G1 X4.2496 Y6.3430
G1 X4.2496 Y6.5130
G1 X4.0796 Y6.5130
G1 X4.0796 Y6.3430
G1 X4.0372 Y6.3006
G1 X4.2920 Y6.3006
G1 X4.2920 Y6.5554
G1 X4.0372 Y6.5554
G1 X4.0372 Y6.3006
G1 X3.9947 Y6.2581
G1 X4.3345 Y6.2581
G1 X4.3345 Y6.5979
G1 X3.9947 Y6.5979
G1 X3.9947 Y6.2581
G1 X3.9522 Y6.2156
G1 X4.3770 Y6.2156
G1 X4.3770 Y6.6404
G1 X3.9522 Y6.6404
G1 X3.9522 Y6.2156
G1 X3.9097 Y6.1731
G1 X4.4195 Y6.1731
G1 X4.4195 Y6.6829
G1 X3.9097 Y6.6829
G1 X3.9097 Y6.1731
G1 X3.8672 Y6.1306
G1 X4.4620 Y6.1306
G1 X4.4620 Y6.7254
G1 X3.8672 Y6.7254
G1 X3.8672 Y6.1306
G1 X3.8248 Y6.0882
G1 X4.5044 Y6.0882
G1 X4.5044 Y6.7678
G1 X3.8248 Y6.7678
G1 X3.8248 Y6.0882
G1 X3.7823 Y6.0457
G1 X4.5469 Y6.0457
G1 X4.5469 Y6.8103
G1 X3.7823 Y6.8103
G1 X3.7823 Y6.0457
G1 X3.7398 Y6.0032
G1 X4.5894 Y6.0032
G1 X4.5894 Y6.8528
G1 X3.7398 Y6.8528
G1 X3.7398 Y6.0032
G1 X3.6973 Y5.9607
G1 X4.6319 Y5.9607
G1 X4.6319 Y6.8953
G1 X3.6973 Y6.8953
G1 X3.6973 Y5.9607
G1 X3.6548 Y5.9182
G1 X4.6744 Y5.9182
G1 X4.6744 Y6.9378
G1 X3.6548 Y6.9378
G1 X3.6548 Y5.9182
G1 X3.6124 Y5.8758
G1 X4.7168 Y5.8758
G1 X4.7168 Y6.9802
G1 X3.6124 Y6.9802
G1 X3.6124 Y5.8758
G1 X3.5699 Y5.8333
G1 X4.7593 Y5.8333
G1 X4.7593 Y7.0227
G1 X3.5699 Y7.0227
G1 X3.5699 Y5.8333
G1 X3.5274 Y5.7908
G1 X4.8018 Y5.7908
G1 X4.8018 Y7.0652
G1 X3.5274 Y7.0652
G1 X3.5274 Y5.7908
G1 X4.9622 Y5.1591
G1 X4.8048 Y5.0016
G1 X3.5244 Y5.0016
G1 X3.3670 Y5.1591
G1 X3.3670 Y7.6969
G1 X3.5244 Y7.8544
G1 X4.8048 Y7.8544
G1 X4.9622 Y7.6969
G1 X4.9622 Y5.6071
G1 X4.9622 Y5.1591
G0 Z0.7500
G0 X4.1646 Y6.4280
G0 Z0.2500
( Pass 9: helical entry to Z-0.5400 )
G2 X4.1646 Y6.4280 I0.0590 J0 Z-0.5400 F24.0
F150.0
G1 X4.1221 Y6.3855
G1 X4.2071 Y6.3855
G1 X4.2071 Y6.4705
G1 X4.1221 Y6.4705
G1 X4.1221 Y6.3855
G1 X4.0796 Y6.3430
G1 X4.2496 Y6.3430
G1 X4.2496 Y6.5130
G1 X4.0796 Y6.5130
G1 X4.0796 Y6.3430
G1 X4.0372 Y6.3006
G1 X4.2920 Y6.3006
G1 X4.2920 Y6.5554
G1 X4.0372 Y6.5554
G1 X4.0372 Y6.3006
G1 X3.9947 Y6.2581
G1 X4.3345 Y6.2581
G1 X4.3345 Y6.5979
G1 X3.9947 Y6.5979
G1 X3.9947 Y6.2581
G1 X3.9522 Y6.2156
G1 X4.3770 Y6.2156
G1 X4.3770 Y6.6404
G1 X3.9522 Y6.6404
G1 X3.9522 Y6.2156
G1 X3.9097 Y6.1731
G1 X4.4195 Y6.1731
G1 X4.4195 Y6.6829
G1 X3.9097 Y6.6829
G1 X3.9097 Y6.1731
G1 X3.8672 Y6.1306
G1 X4.4620 Y6.1306
G1 X4.4620 Y6.7254
G1 X3.8672 Y6.7254
G1 X3.8672 Y6.1306
G1 X3.8248 Y6.0882
G1 X4.5044 Y6.0882
G1 X4.5044 Y6.7678
G1 X3.8248 Y6.7678
G1 X3.8248 Y6.0882
G1 X3.7823 Y6.0457
G1 X4.5469 Y6.0457
G1 X4.5469 Y6.8103
G1 X3.7823 Y6.8103
G1 X3.7823 Y6.0457
G1 X3.7398 Y6.0032
G1 X4.5894 Y6.0032
G1 X4.5894 Y6.8528
G1 X3.7398 Y6.8528
G1 X3.7398 Y6.0032
G1 X3.6973 Y5.9607
G1 X4.6319 Y5.9607
G1 X4.6319 Y6.8953
G1 X3.6973 Y6.8953
G1 X3.6973 Y5.9607
G1 X3.6548 Y5.9182
G1 X4.6744 Y5.9182
G1 X4.6744 Y6.9378
G1 X3.6548 Y6.9378
G1 X3.6548 Y5.9182
G1 X3.6124 Y5.8758
G1 X4.7168 Y5.8758
G1 X4.7168 Y6.9802
G1 X3.6124 Y6.9802
G1 X3.6124 Y5.8758
G1 X3.5699 Y5.8333
G1 X4.7593 Y5.8333
G1 X4.7593 Y7.0227
G1 X3.5699 Y7.0227
G1 X3.5699 Y5.8333
G1 X3.5274 Y5.7908
G1 X4.8018 Y5.7908
G1 X4.8018 Y7.0652
G1 X3.5274 Y7.0652
G1 X3.5274 Y5.7908
G1 X4.9622 Y5.1591
G1 X4.8048 Y5.0016
G1 X3.5244 Y5.0016
G1 X3.3670 Y5.1591
G1 X3.3670 Y7.6969
G1 X3.5244 Y7.8544
G1 X4.8048 Y7.8544
G1 X4.9622 Y7.6969
G1 X4.9622 Y5.6071
G1 X4.9622 Y5.1591
G0 Z0.7500
G0 X4.1646 Y6.4280
G0 Z0.2500
( Pass 10: helical entry to Z-0.6000 )
G2 X4.1646 Y6.4280 I0.0590 J0 Z-0.6000 F24.0
F150.0
G1 X4.1221 Y6.3855
G1 X4.2071 Y6.3855
G1 X4.2071 Y6.4705
G1 X4.1221 Y6.4705
G1 X4.1221 Y6.3855
G1 X4.0796 Y6.3430
G1 X4.2496 Y6.3430
G1 X4.2496 Y6.5130
G1 X4.0796 Y6.5130
G1 X4.0796 Y6.3430
G1 X4.0372 Y6.3006
G1 X4.2920 Y6.3006
G1 X4.2920 Y6.5554
G1 X4.0372 Y6.5554
G1 X4.0372 Y6.3006
G1 X3.9947 Y6.2581
G1 X4.3345 Y6.2581
G1 X4.3345 Y6.5979
G1 X3.9947 Y6.5979
G1 X3.9947 Y6.2581
G1 X3.9522 Y6.2156
G1 X4.3770 Y6.2156
G1 X4.3770 Y6.6404
G1 X3.9522 Y6.6404
G1 X3.9522 Y6.2156
G1 X3.9097 Y6.1731
G1 X4.4195 Y6.1731
G1 X4.4195 Y6.6829
G1 X3.9097 Y6.6829
G1 X3.9097 Y6.1731
G1 X3.8672 Y6.1306
G1 X4.4620 Y6.1306
G1 X4.4620 Y6.7254
G1 X3.8672 Y6.7254
G1 X3.8672 Y6.1306
G1 X3.8248 Y6.0882
G1 X4.5044 Y6.0882
G1 X4.5044 Y6.7678
G1 X3.8248 Y6.7678
G1 X3.8248 Y6.0882
G1 X3.7823 Y6.0457
G1 X4.5469 Y6.0457
G1 X4.5469 Y6.8103
G1 X3.7823 Y6.8103
G1 X3.7823 Y6.0457
G1 X3.7398 Y6.0032
G1 X4.5894 Y6.0032
G1 X4.5894 Y6.8528
G1 X3.7398 Y6.8528
G1 X3.7398 Y6.0032
G1 X3.6973 Y5.9607
G1 X4.6319 Y5.9607
G1 X4.6319 Y6.8953
G1 X3.6973 Y6.8953
G1 X3.6973 Y5.9607
G1 X3.6548 Y5.9182
G1 X4.6744 Y5.9182
G1 X4.6744 Y6.9378
G1 X3.6548 Y6.9378
G1 X3.6548 Y5.9182
G1 X3.6124 Y5.8758
G1 X4.7168 Y5.8758
G1 X4.7168 Y6.9802
G1 X3.6124 Y6.9802
G1 X3.6124 Y5.8758
G1 X3.5699 Y5.8333
G1 X4.7593 Y5.8333
G1 X4.7593 Y7.0227
G1 X3.5699 Y7.0227
G1 X3.5699 Y5.8333
G1 X3.5274 Y5.7908
G1 X4.8018 Y5.7908
G1 X4.8018 Y7.0652
G1 X3.5274 Y7.0652
G1 X3.5274 Y5.7908
G1 X4.9622 Y5.1591
G1 X4.8048 Y5.0016
G1 X3.5244 Y5.0016
G1 X3.3670 Y5.1591
G1 X3.3670 Y7.6969
G1 X3.5244 Y7.8544
G1 X4.8048 Y7.8544
G1 X4.9622 Y7.6969
G1 X4.9622 Y5.6071
G1 X4.9622 Y5.1591
G0 Z0.7500
G0 X4.1646 Y6.4280
G0 Z0.2500
( Pass 11: helical entry to Z-0.6600 )
G2 X4.1646 Y6.4280 I0.0590 J0 Z-0.6600 F24.0
F150.0
G1 X4.1221 Y6.3855
G1 X4.2071 Y6.3855
G1 X4.2071 Y6.4705
G1 X4.1221 Y6.4705
G1 X4.1221 Y6.3855
G1 X4.0796 Y6.3430
G1 X4.2496 Y6.3430
G1 X4.2496 Y6.5130
G1 X4.0796 Y6.5130
G1 X4.0796 Y6.3430
G1 X4.0372 Y6.3006
G1 X4.2920 Y6.3006
G1 X4.2920 Y6.5554
G1 X4.0372 Y6.5554
G1 X4.0372 Y6.3006
G1 X3.9947 Y6.2581
G1 X4.3345 Y6.2581
G1 X4.3345 Y6.5979
G1 X3.9947 Y6.5979
G1 X3.9947 Y6.2581
G1 X3.9522 Y6.2156
G1 X4.3770 Y6.2156
G1 X4.3770 Y6.6404
G1 X3.9522 Y6.6404
G1 X3.9522 Y6.2156
G1 X3.9097 Y6.1731
G1 X4.4195 Y6.1731
G1 X4.4195 Y6.6829
G1 X3.9097 Y6.6829
G1 X3.9097 Y6.1731
G1 X3.8672 Y6.1306
G1 X4.4620 Y6.1306
G1 X4.4620 Y6.7254
G1 X3.8672 Y6.7254
G1 X3.8672 Y6.1306
G1 X3.8248 Y6.0882
G1 X4.5044 Y6.0882
G1 X4.5044 Y6.7678
G1 X3.8248 Y6.7678
G1 X3.8248 Y6.0882
G1 X3.7823 Y6.0457
G1 X4.5469 Y6.0457
G1 X4.5469 Y6.8103
G1 X3.7823 Y6.8103
G1 X3.7823 Y6.0457
G1 X3.7398 Y6.0032
G1 X4.5894 Y6.0032
G1 X4.5894 Y6.8528
G1 X3.7398 Y6.8528
G1 X3.7398 Y6.0032
G1 X3.6973 Y5.9607
G1 X4.6319 Y5.9607
G1 X4.6319 Y6.8953
G1 X3.6973 Y6.8953
G1 X3.6973 Y5.9607
G1 X3.6548 Y5.9182
G1 X4.6744 Y5.9182
G1 X4.6744 Y6.9378
G1 X3.6548 Y6.9378
G1 X3.6548 Y5.9182
G1 X3.6124 Y5.8758
G1 X4.7168 Y5.8758
G1 X4.7168 Y6.9802
G1 X3.6124 Y6.9802
G1 X3.6124 Y5.8758
G1 X3.5699 Y5.8333
G1 X4.7593 Y5.8333
G1 X4.7593 Y7.0227
G1 X3.5699 Y7.0227
G1 X3.5699 Y5.8333
G1 X3.5274 Y5.7908
G1 X4.8018 Y5.7908
G1 X4.8018 Y7.0652
G1 X3.5274 Y7.0652
G1 X3.5274 Y5.7908
G1 X4.9622 Y5.1591
G1 X4.8048 Y5.0016
G1 X3.5244 Y5.0016
G1 X3.3670 Y5.1591
G1 X3.3670 Y7.6969
G1 X3.5244 Y7.8544
G1 X4.8048 Y7.8544
G1 X4.9622 Y7.6969
G1 X4.9622 Y5.6071
G1 X4.9622 Y5.1591
G0 Z0.7500
G0 X4.1646 Y6.4280
G0 Z0.2500
( Pass 12: helical entry to Z-0.7200 )
G2 X4.1646 Y6.4280 I0.0590 J0 Z-0.7200 F24.0
F150.0
G1 X4.1221 Y6.3855
G1 X4.2071 Y6.3855
G1 X4.2071 Y6.4705
G1 X4.1221 Y6.4705
G1 X4.1221 Y6.3855
G1 X4.0796 Y6.3430
G1 X4.2496 Y6.3430
G1 X4.2496 Y6.5130
G1 X4.0796 Y6.5130
G1 X4.0796 Y6.3430
G1 X4.0372 Y6.3006
G1 X4.2920 Y6.3006
G1 X4.2920 Y6.5554
G1 X4.0372 Y6.5554
G1 X4.0372 Y6.3006
G1 X3.9947 Y6.2581
G1 X4.3345 Y6.2581
G1 X4.3345 Y6.5979
G1 X3.9947 Y6.5979
G1 X3.9947 Y6.2581
G1 X3.9522 Y6.2156
G1 X4.3770 Y6.2156
G1 X4.3770 Y6.6404
G1 X3.9522 Y6.6404
G1 X3.9522 Y6.2156
G1 X3.9097 Y6.1731
G1 X4.4195 Y6.1731
G1 X4.4195 Y6.6829
G1 X3.9097 Y6.6829
G1 X3.9097 Y6.1731
G1 X3.8672 Y6.1306
G1 X4.4620 Y6.1306
G1 X4.4620 Y6.7254
G1 X3.8672 Y6.7254
G1 X3.8672 Y6.1306
G1 X3.8248 Y6.0882
G1 X4.5044 Y6.0882
G1 X4.5044 Y6.7678
G1 X3.8248 Y6.7678
G1 X3.8248 Y6.0882
G1 X3.7823 Y6.0457
G1 X4.5469 Y6.0457
G1 X4.5469 Y6.8103
G1 X3.7823 Y6.8103
G1 X3.7823 Y6.0457
G1 X3.7398 Y6.0032
G1 X4.5894 Y6.0032
G1 X4.5894 Y6.8528
G1 X3.7398 Y6.8528
G1 X3.7398 Y6.0032
G1 X3.6973 Y5.9607
G1 X4.6319 Y5.9607
G1 X4.6319 Y6.8953
G1 X3.6973 Y6.8953
G1 X3.6973 Y5.9607
G1 X3.6548 Y5.9182
G1 X4.6744 Y5.9182
G1 X4.6744 Y6.9378
G1 X3.6548 Y6.9378
G1 X3.6548 Y5.9182
G1 X3.6124 Y5.8758
G1 X4.7168 Y5.8758
G1 X4.7168 Y6.9802
G1 X3.6124 Y6.9802
G1 X3.6124 Y5.8758
G1 X3.5699 Y5.8333
G1 X4.7593 Y5.8333
G1 X4.7593 Y7.0227
G1 X3.5699 Y7.0227
G1 X3.5699 Y5.8333
G1 X3.5274 Y5.7908
G1 X4.8018 Y5.7908
G1 X4.8018 Y7.0652
G1 X3.5274 Y7.0652
G1 X3.5274 Y5.7908
G1 X4.9622 Y5.1591
G1 X4.8048 Y5.0016
G1 X3.5244 Y5.0016
G1 X3.3670 Y5.1591
G1 X3.3670 Y7.6969
G1 X3.5244 Y7.8544
G1 X4.8048 Y7.8544
G1 X4.9622 Y7.6969
G1 X4.9622 Y5.6071
G1 X4.9622 Y5.1591
G0 Z0.7500
G0 X4.1646 Y6.4280
G0 Z0.2500
( Pass 13: helical entry to Z-0.7500 )
G2 X4.1646 Y6.4280 I0.0590 J0 Z-0.7500 F24.0
F150.0
G1 X4.1221 Y6.3855
G1 X4.2071 Y6.3855
G1 X4.2071 Y6.4705
G1 X4.1221 Y6.4705
G1 X4.1221 Y6.3855
G1 X4.0796 Y6.3430
G1 X4.2496 Y6.3430
G1 X4.2496 Y6.5130
G1 X4.0796 Y6.5130
G1 X4.0796 Y6.3430
G1 X4.0372 Y6.3006
G1 X4.2920 Y6.3006
G1 X4.2920 Y6.5554
G1 X4.0372 Y6.5554
G1 X4.0372 Y6.3006
G1 X3.9947 Y6.2581
G1 X4.3345 Y6.2581
G1 X4.3345 Y6.5979
G1 X3.9947 Y6.5979
G1 X3.9947 Y6.2581
G1 X3.9522 Y6.2156
G1 X4.3770 Y6.2156
G1 X4.3770 Y6.6404
G1 X3.9522 Y6.6404
G1 X3.9522 Y6.2156
G1 X3.9097 Y6.1731
G1 X4.4195 Y6.1731
G1 X4.4195 Y6.6829
G1 X3.9097 Y6.6829
G1 X3.9097 Y6.1731
G1 X3.8672 Y6.1306
G1 X4.4620 Y6.1306
G1 X4.4620 Y6.7254
G1 X3.8672 Y6.7254
G1 X3.8672 Y6.1306
G1 X3.8248 Y6.0882
G1 X4.5044 Y6.0882
G1 X4.5044 Y6.7678
G1 X3.8248 Y6.7678
G1 X3.8248 Y6.0882
G1 X3.7823 Y6.0457
G1 X4.5469 Y6.0457
G1 X4.5469 Y6.8103
G1 X3.7823 Y6.8103
G1 X3.7823 Y6.0457
G1 X3.7398 Y6.0032
G1 X4.5894 Y6.0032
G1 X4.5894 Y6.8528
G1 X3.7398 Y6.8528
G1 X3.7398 Y6.0032
G1 X3.6973 Y5.9607
G1 X4.6319 Y5.9607
G1 X4.6319 Y6.8953
G1 X3.6973 Y6.8953
G1 X3.6973 Y5.9607
G1 X3.6548 Y5.9182
G1 X4.6744 Y5.9182
G1 X4.6744 Y6.9378
G1 X3.6548 Y6.9378
G1 X3.6548 Y5.9182
G1 X3.6124 Y5.8758
G1 X4.7168 Y5.8758
G1 X4.7168 Y6.9802
G1 X3.6124 Y6.9802
G1 X3.6124 Y5.8758
G1 X3.5699 Y5.8333
G1 X4.7593 Y5.8333
G1 X4.7593 Y7.0227
G1 X3.5699 Y7.0227
G1 X3.5699 Y5.8333
G1 X3.5274 Y5.7908
G1 X4.8018 Y5.7908
G1 X4.8018 Y7.0652
G1 X3.5274 Y7.0652
G1 X3.5274 Y5.7908
G1 X4.9622 Y5.1591
G1 X4.8048 Y5.0016
G1 X3.5244 Y5.0016
G1 X3.3670 Y5.1591
G1 X3.3670 Y7.6969
G1 X3.5244 Y7.8544
G1 X4.8048 Y7.8544
G1 X4.9622 Y7.6969
G1 X4.9622 Y5.6071
G1 X4.9622 Y5.1591
G0 Z0.2500

( ============================================ )
( OP40: Wiring Channel )
( ============================================ )
( Layer: Wiring Channel )
( Paths: 1 )
( Depth: 0.5" )
M5

( TOOL CHANGE: T3 - 3mm Flat/Drill )
( OP40: Wiring Channel )
T3 M6
S20000 M3
G4 P2       ; Dwell for spindle
G0 Z0.7500
( Pocket at (7.07, 6.99), 8.08" × 7.10" )
G0 Z0.7500
G0 X7.0653 Y6.9935
G0 Z0.2500
( Pass 1: helical entry to Z-0.0300 )
G2 X7.0653 Y6.9935 I0.0295 J0 Z-0.0300 F16.0
F60.0
G1 X7.0417 Y6.9699
G1 X7.0889 Y6.9699
G1 X7.0889 Y7.0171
G1 X7.0417 Y7.0171
G1 X7.0417 Y6.9699
G1 X7.0181 Y6.9463
G1 X7.1125 Y6.9463
G1 X7.1125 Y7.0407
G1 X7.0181 Y7.0407
G1 X7.0181 Y6.9463
G1 X6.9945 Y6.9227
G1 X7.1361 Y6.9227
G1 X7.1361 Y7.0643
G1 X6.9945 Y7.0643
G1 X6.9945 Y6.9227
G1 X6.9709 Y6.8991
G1 X7.1597 Y6.8991
G1 X7.1597 Y7.0879
G1 X6.9709 Y7.0879
G1 X6.9709 Y6.8991
G1 X6.9473 Y6.8755
G1 X7.1833 Y6.8755
G1 X7.1833 Y7.1115
G1 X6.9473 Y7.1115
G1 X6.9473 Y6.8755
G1 X6.9237 Y6.8519
G1 X7.2069 Y6.8519
G1 X7.2069 Y7.1351
G1 X6.9237 Y7.1351
G1 X6.9237 Y6.8519
G1 X6.9001 Y6.8283
G1 X7.2305 Y6.8283
G1 X7.2305 Y7.1587
G1 X6.9001 Y7.1587
G1 X6.9001 Y6.8283
G1 X6.8765 Y6.8047
G1 X7.2541 Y6.8047
G1 X7.2541 Y7.1823
G1 X6.8765 Y7.1823
G1 X6.8765 Y6.8047
G1 X6.8529 Y6.7811
G1 X7.2777 Y6.7811
G1 X7.2777 Y7.2059
G1 X6.8529 Y7.2059
G1 X6.8529 Y6.7811
G1 X6.8293 Y6.7575
G1 X7.3013 Y6.7575
G1 X7.3013 Y7.2295
G1 X6.8293 Y7.2295
G1 X6.8293 Y6.7575
G1 X6.8057 Y6.7339
G1 X7.3249 Y6.7339
G1 X7.3249 Y7.2531
G1 X6.8057 Y7.2531
G1 X6.8057 Y6.7339
G1 X6.7821 Y6.7103
G1 X7.3485 Y6.7103
G1 X7.3485 Y7.2767
G1 X6.7821 Y7.2767
G1 X6.7821 Y6.7103
G1 X6.7585 Y6.6867
G1 X7.3721 Y6.6867
G1 X7.3721 Y7.3003
G1 X6.7585 Y7.3003
G1 X6.7585 Y6.6867
G1 X6.7349 Y6.6631
G1 X7.3957 Y6.6631
G1 X7.3957 Y7.3239
G1 X6.7349 Y7.3239
G1 X6.7349 Y6.6631
G1 X6.7113 Y6.6395
G1 X7.4193 Y6.6395
G1 X7.4193 Y7.3475
G1 X6.7113 Y7.3475
G1 X6.7113 Y6.6395
G1 X6.6877 Y6.6159
G1 X7.4429 Y6.6159
G1 X7.4429 Y7.3711
G1 X6.6877 Y7.3711
G1 X6.6877 Y6.6159
G1 X6.6641 Y6.5923
G1 X7.4665 Y6.5923
G1 X7.4665 Y7.3947
G1 X6.6641 Y7.3947
G1 X6.6641 Y6.5923
G1 X6.6405 Y6.5687
G1 X7.4901 Y6.5687
G1 X7.4901 Y7.4183
G1 X6.6405 Y7.4183
G1 X6.6405 Y6.5687
G1 X6.6169 Y6.5451
G1 X7.5137 Y6.5451
G1 X7.5137 Y7.4419
G1 X6.6169 Y7.4419
G1 X6.6169 Y6.5451
G1 X6.5933 Y6.5215
G1 X7.5373 Y6.5215
G1 X7.5373 Y7.4655
G1 X6.5933 Y7.4655
G1 X6.5933 Y6.5215
G1 X6.5697 Y6.4979
G1 X7.5609 Y6.4979
G1 X7.5609 Y7.4891
G1 X6.5697 Y7.4891
G1 X6.5697 Y6.4979
G1 X6.5461 Y6.4743
G1 X7.5845 Y6.4743
G1 X7.5845 Y7.5127
G1 X6.5461 Y7.5127
G1 X6.5461 Y6.4743
G1 X6.5225 Y6.4507
G1 X7.6081 Y6.4507
G1 X7.6081 Y7.5363
G1 X6.5225 Y7.5363
G1 X6.5225 Y6.4507
G1 X6.4989 Y6.4271
G1 X7.6317 Y6.4271
G1 X7.6317 Y7.5599
G1 X6.4989 Y7.5599
G1 X6.4989 Y6.4271
G1 X6.4753 Y6.4035
G1 X7.6553 Y6.4035
G1 X7.6553 Y7.5835
G1 X6.4753 Y7.5835
G1 X6.4753 Y6.4035
G1 X6.4517 Y6.3799
G1 X7.6789 Y6.3799
G1 X7.6789 Y7.6071
G1 X6.4517 Y7.6071
G1 X6.4517 Y6.3799
G1 X6.4281 Y6.3563
G1 X7.7025 Y6.3563
G1 X7.7025 Y7.6307
G1 X6.4281 Y7.6307
G1 X6.4281 Y6.3563
G1 X6.4045 Y6.3327
G1 X7.7261 Y6.3327
G1 X7.7261 Y7.6543
G1 X6.4045 Y7.6543
G1 X6.4045 Y6.3327
G1 X6.3809 Y6.3091
G1 X7.7497 Y6.3091
G1 X7.7497 Y7.6779
G1 X6.3809 Y7.6779
G1 X6.3809 Y6.3091
G1 X6.3573 Y6.2855
G1 X7.7733 Y6.2855
G1 X7.7733 Y7.7015
G1 X6.3573 Y7.7015
G1 X6.3573 Y6.2855
G1 X6.3337 Y6.2619
G1 X7.7969 Y6.2619
G1 X7.7969 Y7.7251
G1 X6.3337 Y7.7251
G1 X6.3337 Y6.2619
G1 X6.3101 Y6.2383
G1 X7.8205 Y6.2383
G1 X7.8205 Y7.7487
G1 X6.3101 Y7.7487
G1 X6.3101 Y6.2383
G1 X6.2865 Y6.2147
G1 X7.8441 Y6.2147
G1 X7.8441 Y7.7723
G1 X6.2865 Y7.7723
G1 X6.2865 Y6.2147
G1 X6.2629 Y6.1911
G1 X7.8677 Y6.1911
G1 X7.8677 Y7.7959
G1 X6.2629 Y7.7959
G1 X6.2629 Y6.1911
G1 X6.2393 Y6.1675
G1 X7.8913 Y6.1675
G1 X7.8913 Y7.8195
G1 X6.2393 Y7.8195
G1 X6.2393 Y6.1675
G1 X6.2157 Y6.1439
G1 X7.9149 Y6.1439
G1 X7.9149 Y7.8431
G1 X6.2157 Y7.8431
G1 X6.2157 Y6.1439
G1 X6.1921 Y6.1203
G1 X7.9385 Y6.1203
G1 X7.9385 Y7.8667
G1 X6.1921 Y7.8667
G1 X6.1921 Y6.1203
G1 X6.1685 Y6.0967
G1 X7.9621 Y6.0967
G1 X7.9621 Y7.8903
G1 X6.1685 Y7.8903
G1 X6.1685 Y6.0967
G1 X6.1449 Y6.0731
G1 X7.9857 Y6.0731
G1 X7.9857 Y7.9139
G1 X6.1449 Y7.9139
G1 X6.1449 Y6.0731
G1 X6.1213 Y6.0495
G1 X8.0093 Y6.0495
G1 X8.0093 Y7.9375
G1 X6.1213 Y7.9375
G1 X6.1213 Y6.0495
G1 X6.0977 Y6.0259
G1 X8.0329 Y6.0259
G1 X8.0329 Y7.9611
G1 X6.0977 Y7.9611
G1 X6.0977 Y6.0259
G1 X6.0741 Y6.0023
G1 X8.0565 Y6.0023
G1 X8.0565 Y7.9847
G1 X6.0741 Y7.9847
G1 X6.0741 Y6.0023
G1 X6.0505 Y5.9787
G1 X8.0801 Y5.9787
G1 X8.0801 Y8.0083
G1 X6.0505 Y8.0083
G1 X6.0505 Y5.9787
G1 X6.0269 Y5.9551
G1 X8.1037 Y5.9551
G1 X8.1037 Y8.0319
G1 X6.0269 Y8.0319
G1 X6.0269 Y5.9551
G1 X6.0033 Y5.9315
G1 X8.1273 Y5.9315
G1 X8.1273 Y8.0555
G1 X6.0033 Y8.0555
G1 X6.0033 Y5.9315
G1 X5.9797 Y5.9079
G1 X8.1509 Y5.9079
G1 X8.1509 Y8.0791
G1 X5.9797 Y8.0791
G1 X5.9797 Y5.9079
G1 X5.9561 Y5.8843
G1 X8.1745 Y5.8843
G1 X8.1745 Y8.1027
G1 X5.9561 Y8.1027
G1 X5.9561 Y5.8843
G1 X5.9325 Y5.8607
G1 X8.1981 Y5.8607
G1 X8.1981 Y8.1263
G1 X5.9325 Y8.1263
G1 X5.9325 Y5.8607
G1 X5.9089 Y5.8371
G1 X8.2217 Y5.8371
G1 X8.2217 Y8.1499
G1 X5.9089 Y8.1499
G1 X5.9089 Y5.8371
G1 X5.8853 Y5.8135
G1 X8.2453 Y5.8135
G1 X8.2453 Y8.1735
G1 X5.8853 Y8.1735
G1 X5.8853 Y5.8135
G1 X5.8617 Y5.7899
G1 X8.2689 Y5.7899
G1 X8.2689 Y8.1971
G1 X5.8617 Y8.1971
G1 X5.8617 Y5.7899
G1 X5.8381 Y5.7663
G1 X8.2925 Y5.7663
G1 X8.2925 Y8.2207
G1 X5.8381 Y8.2207
G1 X5.8381 Y5.7663
G1 X5.8145 Y5.7427
G1 X8.3161 Y5.7427
G1 X8.3161 Y8.2443
G1 X5.8145 Y8.2443
G1 X5.8145 Y5.7427
G1 X5.7909 Y5.7191
G1 X8.3397 Y5.7191
G1 X8.3397 Y8.2679
G1 X5.7909 Y8.2679
G1 X5.7909 Y5.7191
G1 X5.7673 Y5.6955
G1 X8.3633 Y5.6955
G1 X8.3633 Y8.2915
G1 X5.7673 Y8.2915
G1 X5.7673 Y5.6955
G1 X5.7437 Y5.6719
G1 X8.3869 Y5.6719
G1 X8.3869 Y8.3151
G1 X5.7437 Y8.3151
G1 X5.7437 Y5.6719
G1 X5.7201 Y5.6483
G1 X8.4105 Y5.6483
G1 X8.4105 Y8.3387
G1 X5.7201 Y8.3387
G1 X5.7201 Y5.6483
G1 X5.6965 Y5.6247
G1 X8.4341 Y5.6247
G1 X8.4341 Y8.3623
G1 X5.6965 Y8.3623
G1 X5.6965 Y5.6247
G1 X5.6729 Y5.6011
G1 X8.4577 Y5.6011
G1 X8.4577 Y8.3859
G1 X5.6729 Y8.3859
G1 X5.6729 Y5.6011
G1 X5.6493 Y5.5775
G1 X8.4813 Y5.5775
G1 X8.4813 Y8.4095
G1 X5.6493 Y8.4095
G1 X5.6493 Y5.5775
G1 X5.6257 Y5.5539
G1 X8.5049 Y5.5539
G1 X8.5049 Y8.4331
G1 X5.6257 Y8.4331
G1 X5.6257 Y5.5539
G1 X5.6021 Y5.5303
G1 X8.5285 Y5.5303
G1 X8.5285 Y8.4567
G1 X5.6021 Y8.4567
G1 X5.6021 Y5.5303
G1 X5.5785 Y5.5067
G1 X8.5521 Y5.5067
G1 X8.5521 Y8.4803
G1 X5.5785 Y8.4803
G1 X5.5785 Y5.5067
G1 X5.5549 Y5.4831
G1 X8.5757 Y5.4831
G1 X8.5757 Y8.5039
G1 X5.5549 Y8.5039
G1 X5.5549 Y5.4831
G1 X5.5313 Y5.4595
G1 X8.5993 Y5.4595
G1 X8.5993 Y8.5275
G1 X5.5313 Y8.5275
G1 X5.5313 Y5.4595
G1 X5.5077 Y5.4359
G1 X8.6229 Y5.4359
G1 X8.6229 Y8.5511
G1 X5.5077 Y8.5511
G1 X5.5077 Y5.4359
G1 X5.4841 Y5.4123
G1 X8.6465 Y5.4123
G1 X8.6465 Y8.5747
G1 X5.4841 Y8.5747
G1 X5.4841 Y5.4123
G1 X5.4605 Y5.3887
G1 X8.6701 Y5.3887
G1 X8.6701 Y8.5983
G1 X5.4605 Y8.5983
G1 X5.4605 Y5.3887
G1 X5.4369 Y5.3651
G1 X8.6937 Y5.3651
G1 X8.6937 Y8.6219
G1 X5.4369 Y8.6219
G1 X5.4369 Y5.3651
G1 X5.4133 Y5.3415
G1 X8.7173 Y5.3415
G1 X8.7173 Y8.6455
G1 X5.4133 Y8.6455
G1 X5.4133 Y5.3415
G1 X5.3897 Y5.3179
G1 X8.7409 Y5.3179
G1 X8.7409 Y8.6691
G1 X5.3897 Y8.6691
G1 X5.3897 Y5.3179
G1 X5.3661 Y5.2943
G1 X8.7645 Y5.2943
G1 X8.7645 Y8.6927
G1 X5.3661 Y8.6927
G1 X5.3661 Y5.2943
G1 X5.3425 Y5.2707
G1 X8.7881 Y5.2707
G1 X8.7881 Y8.7163
G1 X5.3425 Y8.7163
G1 X5.3425 Y5.2707
G1 X5.3189 Y5.2471
G1 X8.8117 Y5.2471
G1 X8.8117 Y8.7399
G1 X5.3189 Y8.7399
G1 X5.3189 Y5.2471
G1 X5.2953 Y5.2235
G1 X8.8353 Y5.2235
G1 X8.8353 Y8.7635
G1 X5.2953 Y8.7635
G1 X5.2953 Y5.2235
G1 X5.2717 Y5.1999
G1 X8.8589 Y5.1999
G1 X8.8589 Y8.7871
G1 X5.2717 Y8.7871
G1 X5.2717 Y5.1999
G1 X5.2481 Y5.1763
G1 X8.8825 Y5.1763
G1 X8.8825 Y8.8107
G1 X5.2481 Y8.8107
G1 X5.2481 Y5.1763
G1 X5.2245 Y5.1527
G1 X8.9061 Y5.1527
G1 X8.9061 Y8.8343
G1 X5.2245 Y8.8343
G1 X5.2245 Y5.1527
G1 X5.2009 Y5.1291
G1 X8.9297 Y5.1291
G1 X8.9297 Y8.8579
G1 X5.2009 Y8.8579
G1 X5.2009 Y5.1291
G1 X5.1773 Y5.1055
G1 X8.9533 Y5.1055
G1 X8.9533 Y8.8815
G1 X5.1773 Y8.8815
G1 X5.1773 Y5.1055
G1 X5.1537 Y5.0819
G1 X8.9769 Y5.0819
G1 X8.9769 Y8.9051
G1 X5.1537 Y8.9051
G1 X5.1537 Y5.0819
G1 X5.1301 Y5.0583
G1 X9.0005 Y5.0583
G1 X9.0005 Y8.9287
G1 X5.1301 Y8.9287
G1 X5.1301 Y5.0583
G1 X5.1065 Y5.0347
G1 X9.0241 Y5.0347
G1 X9.0241 Y8.9523
G1 X5.1065 Y8.9523
G1 X5.1065 Y5.0347
G1 X5.0829 Y5.0111
G1 X9.0477 Y5.0111
G1 X9.0477 Y8.9759
G1 X5.0829 Y8.9759
G1 X5.0829 Y5.0111
G1 X5.0593 Y4.9875
G1 X9.0713 Y4.9875
G1 X9.0713 Y8.9995
G1 X5.0593 Y8.9995
G1 X5.0593 Y4.9875
G1 X5.0357 Y4.9639
G1 X9.0949 Y4.9639
G1 X9.0949 Y9.0231
G1 X5.0357 Y9.0231
G1 X5.0357 Y4.9639
G1 X5.0121 Y4.9403
G1 X9.1185 Y4.9403
G1 X9.1185 Y9.0467
G1 X5.0121 Y9.0467
G1 X5.0121 Y4.9403
G1 X4.9885 Y4.9167
G1 X9.1421 Y4.9167
G1 X9.1421 Y9.0703
G1 X4.9885 Y9.0703
G1 X4.9885 Y4.9167
G1 X4.9649 Y4.8931
G1 X9.1657 Y4.8931
G1 X9.1657 Y9.0939
G1 X4.9649 Y9.0939
G1 X4.9649 Y4.8931
G1 X4.9413 Y4.8695
G1 X9.1893 Y4.8695
G1 X9.1893 Y9.1175
G1 X4.9413 Y9.1175
G1 X4.9413 Y4.8695
G1 X4.9177 Y4.8459
G1 X9.2129 Y4.8459
G1 X9.2129 Y9.1411
G1 X4.9177 Y9.1411
G1 X4.9177 Y4.8459
G1 X4.8941 Y4.8223
G1 X9.2365 Y4.8223
G1 X9.2365 Y9.1647
G1 X4.8941 Y9.1647
G1 X4.8941 Y4.8223
G1 X4.8705 Y4.7987
G1 X9.2601 Y4.7987
G1 X9.2601 Y9.1883
G1 X4.8705 Y9.1883
G1 X4.8705 Y4.7987
G1 X4.8469 Y4.7751
G1 X9.2837 Y4.7751
G1 X9.2837 Y9.2119
G1 X4.8469 Y9.2119
G1 X4.8469 Y4.7751
G1 X4.8233 Y4.7515
G1 X9.3073 Y4.7515
G1 X9.3073 Y9.2355
G1 X4.8233 Y9.2355
G1 X4.8233 Y4.7515
G1 X4.7997 Y4.7279
G1 X9.3309 Y4.7279
G1 X9.3309 Y9.2591
G1 X4.7997 Y9.2591
G1 X4.7997 Y4.7279
G1 X4.7761 Y4.7043
G1 X9.3545 Y4.7043
G1 X9.3545 Y9.2827
G1 X4.7761 Y9.2827
G1 X4.7761 Y4.7043
G1 X4.7525 Y4.6807
G1 X9.3781 Y4.6807
G1 X9.3781 Y9.3063
G1 X4.7525 Y9.3063
G1 X4.7525 Y4.6807
G1 X4.7289 Y4.6571
G1 X9.4017 Y4.6571
G1 X9.4017 Y9.3299
G1 X4.7289 Y9.3299
G1 X4.7289 Y4.6571
G1 X4.7053 Y4.6335
G1 X9.4253 Y4.6335
G1 X9.4253 Y9.3535
G1 X4.7053 Y9.3535
G1 X4.7053 Y4.6335
G1 X4.6817 Y4.6099
G1 X9.4489 Y4.6099
G1 X9.4489 Y9.3771
G1 X4.6817 Y9.3771
G1 X4.6817 Y4.6099
G1 X4.6581 Y4.5863
G1 X9.4725 Y4.5863
G1 X9.4725 Y9.4007
G1 X4.6581 Y9.4007
G1 X4.6581 Y4.5863
G1 X4.6345 Y4.5627
G1 X9.4961 Y4.5627
G1 X9.4961 Y9.4243
G1 X4.6345 Y9.4243
G1 X4.6345 Y4.5627
G1 X4.6109 Y4.5391
G1 X9.5197 Y4.5391
G1 X9.5197 Y9.4479
G1 X4.6109 Y9.4479
G1 X4.6109 Y4.5391
G1 X4.5873 Y4.5155
G1 X9.5433 Y4.5155
G1 X9.5433 Y9.4715
G1 X4.5873 Y9.4715
G1 X4.5873 Y4.5155
G1 X4.5637 Y4.4919
G1 X9.5669 Y4.4919
G1 X9.5669 Y9.4951
G1 X4.5637 Y9.4951
G1 X4.5637 Y4.4919
G1 X4.5401 Y4.4683
G1 X9.5905 Y4.4683
G1 X9.5905 Y9.5187
G1 X4.5401 Y9.5187
G1 X4.5401 Y4.4683
G1 X4.5165 Y4.4447
G1 X9.6141 Y4.4447
G1 X9.6141 Y9.5423
G1 X4.5165 Y9.5423
G1 X4.5165 Y4.4447
G1 X4.4929 Y4.4211
G1 X9.6377 Y4.4211
G1 X9.6377 Y9.5659
G1 X4.4929 Y9.5659
G1 X4.4929 Y4.4211
G1 X4.4693 Y4.3975
G1 X9.6613 Y4.3975
G1 X9.6613 Y9.5895
G1 X4.4693 Y9.5895
G1 X4.4693 Y4.3975
G1 X4.4457 Y4.3739
G1 X9.6849 Y4.3739
G1 X9.6849 Y9.6131
G1 X4.4457 Y9.6131
G1 X4.4457 Y4.3739
G1 X4.4221 Y4.3503
G1 X9.7085 Y4.3503
G1 X9.7085 Y9.6367
G1 X4.4221 Y9.6367
G1 X4.4221 Y4.3503
G1 X4.3985 Y4.3267
G1 X9.7321 Y4.3267
G1 X9.7321 Y9.6603
G1 X4.3985 Y9.6603
G1 X4.3985 Y4.3267
G1 X4.3749 Y4.3031
G1 X9.7557 Y4.3031
G1 X9.7557 Y9.6839
G1 X4.3749 Y9.6839
G1 X4.3749 Y4.3031
G1 X4.3513 Y4.2795
G1 X9.7793 Y4.2795
G1 X9.7793 Y9.7075
G1 X4.3513 Y9.7075
G1 X4.3513 Y4.2795
G1 X4.3277 Y4.2559
G1 X9.8029 Y4.2559
G1 X9.8029 Y9.7311
G1 X4.3277 Y9.7311
G1 X4.3277 Y4.2559
G1 X4.3041 Y4.2323
G1 X9.8265 Y4.2323
G1 X9.8265 Y9.7547
G1 X4.3041 Y9.7547
G1 X4.3041 Y4.2323
G1 X4.2805 Y4.2087
G1 X9.8501 Y4.2087
G1 X9.8501 Y9.7783
G1 X4.2805 Y9.7783
G1 X4.2805 Y4.2087
G1 X4.2569 Y4.1851
G1 X9.8737 Y4.1851
G1 X9.8737 Y9.8019
G1 X4.2569 Y9.8019
G1 X4.2569 Y4.1851
G1 X4.2333 Y4.1615
G1 X9.8973 Y4.1615
G1 X9.8973 Y9.8255
G1 X4.2333 Y9.8255
G1 X4.2333 Y4.1615
G1 X4.2097 Y4.1379
G1 X9.9209 Y4.1379
G1 X9.9209 Y9.8491
G1 X4.2097 Y9.8491
G1 X4.2097 Y4.1379
G1 X4.1861 Y4.1143
G1 X9.9445 Y4.1143
G1 X9.9445 Y9.8727
G1 X4.1861 Y9.8727
G1 X4.1861 Y4.1143
G1 X4.1625 Y4.0907
G1 X9.9681 Y4.0907
G1 X9.9681 Y9.8963
G1 X4.1625 Y9.8963
G1 X4.1625 Y4.0907
G1 X4.1389 Y4.0671
G1 X9.9917 Y4.0671
G1 X9.9917 Y9.9199
G1 X4.1389 Y9.9199
G1 X4.1389 Y4.0671
G1 X4.1153 Y4.0435
G1 X10.0153 Y4.0435
G1 X10.0153 Y9.9435
G1 X4.1153 Y9.9435
G1 X4.1153 Y4.0435
G1 X4.0917 Y4.0199
G1 X10.0389 Y4.0199
G1 X10.0389 Y9.9671
G1 X4.0917 Y9.9671
G1 X4.0917 Y4.0199
G1 X4.0681 Y3.9963
G1 X10.0625 Y3.9963
G1 X10.0625 Y9.9907
G1 X4.0681 Y9.9907
G1 X4.0681 Y3.9963
G1 X4.0445 Y3.9727
G1 X10.0861 Y3.9727
G1 X10.0861 Y10.0143
G1 X4.0445 Y10.0143
G1 X4.0445 Y3.9727
G1 X4.0209 Y3.9491
G1 X10.1097 Y3.9491
G1 X10.1097 Y10.0379
G1 X4.0209 Y10.0379
G1 X4.0209 Y3.9491
G1 X3.9973 Y3.9255
G1 X10.1333 Y3.9255
G1 X10.1333 Y10.0615
G1 X3.9973 Y10.0615
G1 X3.9973 Y3.9255
G1 X3.9737 Y3.9019
G1 X10.1569 Y3.9019
G1 X10.1569 Y10.0851
G1 X3.9737 Y10.0851
G1 X3.9737 Y3.9019
G1 X3.9501 Y3.8783
G1 X10.1805 Y3.8783
G1 X10.1805 Y10.1087
G1 X3.9501 Y10.1087
G1 X3.9501 Y3.8783
G1 X3.9265 Y3.8547
G1 X10.2041 Y3.8547
G1 X10.2041 Y10.1323
G1 X3.9265 Y10.1323
G1 X3.9265 Y3.8547
G1 X3.9029 Y3.8311
G1 X10.2277 Y3.8311
G1 X10.2277 Y10.1559
G1 X3.9029 Y10.1559
G1 X3.9029 Y3.8311
G1 X3.8793 Y3.8075
G1 X10.2513 Y3.8075
G1 X10.2513 Y10.1795
G1 X3.8793 Y10.1795
